P3
400 225
255
181 202 0
182 204 0
182 204 0
181 203 0
182 204 0
183 204 0
181 202 0
182 204 0
184 205 0
183 204 0
181 203 0
182 204 0
182 203 0
181 203 0
182 204 0
182 204 0
181 203 0
183 204 0
182 204 0
180 203 0
183 204 0
183 204 0
181 203 0
181 203 0
182 204 0
183 204 0
183 204 0
184 205 0
183 204 0
182 204 0
184 205 0
181 203 0
184 205 0
181 203 0
181 203 0
182 204 0
183 204 0
181 203 0
182 204 0
184 205 0
182 204 0
180 203 0
181 203 0
180 202 0
182 203 0
182 204 0
182 203 0
181 203 0
181 203 0
183 204 0
181 203 0
185 205 0
183 204 0
182 203 0
181 203 0
182 204 0
180 203 0
182 204 0
182 204 0
184 205 0
179 202 0
181 203 0
184 205 0
181 203 0
181 203 0
182 204 0
184 205 0
181 203 0
176 200 0
182 203 0
182 203 0
182 204 0
180 203 0
179 202 0
182 204 0
181 203 0
182 204 0
183 204 0
182 204 0
183 204 0
183 204 0
181 203 0
180 203 0
184 205 0
181 203 0
183 203 0
181 203 0
182 204 0
182 204 0
180 202 0
185 205 0
180 203 0
183 204 0
180 202 0
182 204 0
183 204 0
179 201 0
183 204 0
180 203 0
182 204 0
180 203 0
184 205 0
183 204 0
183 204 0
179 202 0
183 204 0
182 204 0
180 202 0
182 204 0
181 203 0
181 203 0
180 203 0
182 204 0
181 203 0
182 204 0
180 202 0
181 203 0
181 203 0
182 203 0
184 205 0
182 204 0
180 203 0
182 204 0
181 203 0
180 202 0
182 204 0
181 203 0
183 204 0
180 203 0
179 202 0
182 203 0
183 204 0
179 202 0
181 203 0
183 204 0
184 205 0
181 203 0
184 205 0
181 203 0
182 204 0
182 203 0
180 203 0
183 204 0
180 202 0
181 203 0
182 204 0
184 205 0
182 203 0
181 203 0
183 204 0
182 204 0
183 204 0
179 201 0
181 203 0
182 203 0
178 201 0
184 205 0
181 203 0
183 204 0
181 203 0
182 204 0
180 203 0
181 203 0
178 200 0
181 203 0
183 204 0
183 204 0
181 203 0
181 203 0
183 204 0
181 203 0
183 204 0
181 203 0
182 204 0
184 205 0
181 203 0
181 202 0
183 204 0
182 203 0
183 204 0
179 201 0
180 202 0
180 202 0
183 204 0
183 204 0
181 203 0
182 204 0
181 202 0
182 204 0
180 203 0
184 205 0
183 204 0
180 203 0
181 203 0
182 204 0
178 200 0
179 201 0
181 203 0
181 203 0
180 202 0
181 203 0
180 202 0
181 203 0
181 203 0
182 204 0
180 202 0
183 204 0
180 202 0
181 203 0
183 204 0
180 202 0
181 202 0
181 203 0
180 203 0
183 204 0
177 201 0
181 203 0
180 202 0
182 204 0
183 204 0
182 204 0
181 203 0
180 203 0
185 205 0
179 202 0
181 203 0
178 200 0
182 203 0
181 203 0
181 203 0
180 203 0
183 204 0
182 204 0
182 204 0
181 203 0
180 203 0
178 201 0
180 203 0
181 203 0
181 203 0
183 204 0
182 203 0
182 204 0
181 203 0
180 203 0
181 203 0
182 204 0
182 203 0
181 202 0
181 203 0
182 204 0
183 204 0
182 204 0
183 204 0
183 204 0
184 204 0
180 202 0
181 203 0
182 204 0
181 202 0
181 203 0
181 203 0
183 204 0
180 202 0
181 203 0
183 204 0
182 203 0
181 203 0
178 201 0
181 203 0
181 203 0
182 204 0
180 202 0
180 203 0
184 205 0
183 204 0
183 204 0
182 204 0
180 203 0
181 203 0
181 202 0
181 203 0
178 201 0
182 204 0
181 203 0
181 203 0
178 200 0
183 204 0
183 204 0
180 203 0
181 202 0
181 203 0
181 203 0
182 203 0
183 204 0
184 205 0
181 203 0
182 204 0
182 204 0
182 203 0
181 203 0
179 201 0
182 204 0
178 200 0
183 204 0
180 203 0
183 204 0
182 203 0
182 204 0
181 203 0
181 202 0
181 202 0
180 202 0
181 202 0
182 204 0
182 204 0
182 204 0
183 204 0
181 203 0
183 204 0
182 204 0
180 202 0
184 205 0
181 203 0
181 203 0
182 203 0
182 204 0
180 203 0
180 203 0
181 203 0
181 203 0
181 203 0
179 202 0
180 203 0
183 204 0
183 204 0
183 204 0
180 203 0
181 203 0
179 202 0
181 203 0
181 203 0
180 202 0
181 203 0
183 204 0
182 204 0
181 203 0
180 202 0
181 202 0
180 202 0
183 204 0
180 202 0
182 204 0
182 204 0
181 203 0
183 204 0
181 203 0
182 204 0
184 205 0
182 204 0
181 203 0
181 203 0
181 203 0
180 202 0
181 203 0
181 203 0
181 203 0
181 203 0
183 204 0
183 204 0
181 203 0
181 203 0
182 204 0
183 204 0
182 204 0
182 204 0
182 203 0
182 204 0
183 204 0
181 203 0
181 203 0
184 205 0
182 204 0
181 203 0
182 204 0
184 205 0
181 203 0
180 203 0
182 204 0
182 204 0
181 203 0
184 205 0
183 204 0
183 204 0
184 205 0
184 205 0
183 204 0
182 204 0
182 204 0
183 204 0
181 203 0
183 204 0
182 203 0
183 204 0
180 203 0
182 204 0
183 204 0
180 202 0
183 204 0
183 204 0
180 203 0
181 203 0
183 204 0
182 204 0
181 203 0
183 204 0
180 202 0
181 203 0
180 203 0
180 203 0
180 203 0
182 204 0
181 203 0
183 204 0
182 204 0
182 204 0
182 204 0
182 204 0
184 204 0
183 204 0
181 203 0
182 204 0
182 204 0
183 204 0
181 203 0
183 204 0
184 205 0
184 205 0
181 203 0
182 204 0
181 203 0
180 203 0
183 204 0
182 204 0
181 203 0
181 203 0
180 202 0
180 203 0
183 204 0
184 205 0
184 205 0
184 205 0
181 203 0
182 203 0
182 204 0
181 202 0
179 202 0
182 204 0
182 204 0
183 204 0
181 203 0
180 203 0
182 204 0
180 203 0
184 205 0
181 202 0
181 203 0
181 203 0
181 202 0
181 203 0
182 204 0
182 204 0
181 203 0
183 204 0
181 203 0
181 203 0
181 203 0
183 204 0
183 204 0
182 204 0
181 203 0
181 203 0
183 204 0
182 203 0
182 204 0
181 203 0
183 204 0
183 204 0
184 205 0
180 203 0
182 204 0
183 204 0
182 204 0
181 203 0
182 203 0
183 204 0
182 204 0
179 201 0
182 203 0
184 205 0
182 204 0
182 204 0
181 203 0
180 203 0
182 204 0
181 202 0
182 203 0
181 203 0
182 204 0
182 204 0
181 203 0
182 204 0
184 205 0
185 205 0
181 203 0
182 204 0
182 204 0
180 203 0
181 203 0
180 203 0
178 202 0
182 204 0
182 204 0
180 202 0
184 205 0
182 204 0
182 204 0
181 203 0
183 204 0
181 203 0
182 204 0
181 203 0
184 205 0
183 204 0
181 202 0
183 204 0
182 204 0
183 204 0
183 204 0
183 204 0
180 202 0
183 204 0
182 204 0
181 203 0
182 204 0
182 204 0
183 204 0
183 204 0
182 204 0
184 205 0
180 202 0
184 205 0
183 204 0
180 203 0
180 202 0
180 203 0
182 203 0
178 201 0
179 202 0
179 202 0
183 204 0
183 204 0
181 203 0
181 203 0
185 205 0
182 203 0
182 204 0
182 204 0
179 202 0
182 203 0
181 203 0
181 203 0
180 203 0
182 203 0
183 204 0
181 203 0
183 204 0
181 203 0
182 203 0
180 202 0
182 203 0
182 204 0
184 205 0
183 204 0
182 204 0
181 203 0
179 202 0
183 204 0
184 205 0
179 202 0
184 205 0
182 204 0
182 204 0
183 204 0
181 203 0
182 204 0
182 204 0
183 204 0
184 205 0
179 202 0
182 204 0
181 202 0
183 204 0
182 204 0
182 204 0
180 202 0
183 204 0
182 204 0
183 204 0
182 204 0
182 204 0
184 205 0
182 204 0
184 205 0
183 204 0
182 204 0
182 203 0
182 204 0
183 204 0
181 203 0
183 204 0
181 203 0
180 203 0
182 204 0
182 204 0
182 204 0
181 203 0
181 203 0
184 205 0
183 204 0
181 203 0
181 203 0
182 203 0
182 204 0
181 203 0
181 203 0
183 204 0
181 203 0
184 205 0
183 204 0
181 202 0
183 204 0
182 204 0
183 204 0
178 201 0
181 203 0
182 204 0
182 203 0
179 202 0
183 204 0
184 204 0
181 203 0
182 203 0
183 204 0
181 203 0
181 203 0
179 202 0
182 204 0
181 203 0
180 203 0
183 204 0
182 204 0
180 202 0
181 203 0
183 204 0
183 204 0
180 203 0
184 205 0
182 203 0
181 202 0
181 203 0
180 203 0
182 204 0
183 204 0
182 204 0
181 203 0
182 203 0
181 203 0
179 202 0
178 201 0
182 204 0
181 203 0
181 203 0
182 203 0
182 203 0
180 202 0
181 202 0
181 203 0
182 204 0
183 204 0
182 204 0
182 204 0
183 204 0
181 203 0
181 203 0
182 204 0
184 205 0
182 203 0
179 202 0
180 202 0
186 206 0
181 203 0
180 202 0
182 204 0
180 203 0
179 200 0
183 204 0
181 202 0
182 204 0
183 204 0
183 204 0
182 204 0
181 203 0
181 203 0
183 204 0
182 204 0
181 203 0
184 205 0
182 204 0
182 203 0
181 203 0
181 203 0
181 203 0
181 203 0
181 203 0
181 203 0
182 204 0
184 204 0
180 202 0
182 204 0
183 204 0
183 204 0
181 203 0
182 204 0
182 204 0
182 204 0
183 204 0
184 205 0
185 205 0
182 204 0
182 203 0
179 202 0
180 203 0
181 203 0
183 204 0
180 202 0
182 204 0
183 203 0
183 204 0
180 203 0
182 204 0
182 204 0
183 204 0
179 202 0
182 203 0
183 204 0
183 204 0
179 202 0
182 203 0
182 204 0
182 204 0
182 204 0
181 203 0
180 203 0
182 204 0
180 201 0
181 203 0
181 203 0
183 204 0
179 202 0
182 204 0
180 203 0
181 203 0
182 204 0
181 203 0
182 203 0
182 204 0
181 203 0
182 203 0
183 204 0
180 203 0
183 204 0
181 203 0
182 204 0
183 204 0
181 203 0
179 201 0
184 205 0
182 204 0
181 203 0
183 204 0
184 205 0
181 203 0
181 203 0
184 205 0
183 204 0
183 204 0
182 204 0
182 204 0
182 204 0
182 204 0
182 204 0
185 205 0
182 204 0
185 205 0
181 203 0
182 204 0
183 204 0
180 203 0
182 204 0
181 203 0
183 204 0
180 202 0
184 205 0
184 205 0
184 204 0
181 203 0
182 204 0
180 203 0
182 203 0
183 204 0
181 203 0
181 203 0
183 204 0
182 203 0
183 204 0
182 204 0
183 204 0
184 205 0
180 203 0
183 204 0
184 205 0
181 203 0
181 203 0
182 204 0
182 204 0
183 204 0
183 204 0
182 203 0
182 204 0
181 203 0
181 203 0
185 205 0
180 203 0
183 204 0
182 204 0
183 204 0
183 204 0
182 204 0
182 204 0
179 202 0
180 202 0
182 204 0
181 203 0
181 203 0
181 203 0
182 204 0
179 202 0
181 203 0
182 204 0
182 204 0
183 204 0
184 205 0
179 202 0
183 204 0
182 204 0
180 203 0
183 204 0
185 205 0
181 203 0
182 204 0
182 204 0
183 204 0
183 204 0
181 203 0
181 203 0
182 204 0
182 204 0
181 203 0
185 205 0
183 204 0
183 204 0
181 203 0
185 205 0
181 203 0
182 204 0
183 204 0
184 205 0
180 201 0
182 203 0
184 205 0
183 204 0
180 203 0
180 203 0
180 202 0
178 200 0
180 202 0
183 204 0
182 203 0
182 204 0
179 201 0
180 203 0
181 202 0
180 202 0
182 203 0
182 204 0
182 204 0
181 203 0
181 203 0
183 204 0
181 202 0
183 204 0
182 203 0
181 203 0
182 203 0
181 203 0
182 204 0
182 204 0
184 205 0
184 205 0
182 204 0
180 203 0
182 204 0
180 203 0
183 204 0
184 205 0
181 203 0
181 203 0
181 203 0
180 203 0
183 204 0
182 204 0
181 202 0
183 204 0
182 203 0
180 202 0
182 203 0
183 204 0
177 201 0
183 204 0
182 204 0
183 204 0
182 204 0
180 202 0
183 204 0
181 203 0
180 203 0
183 204 0
180 202 0
184 205 0
178 201 0
181 203 0
181 203 0
181 203 0
179 201 0
181 203 0
182 204 0
182 204 0
180 203 0
182 204 0
181 203 0
182 204 0
183 204 0
182 204 0
183 204 0
180 201 0
181 203 0
181 203 0
180 202 0
182 204 0
179 201 0
180 203 0
184 205 0
181 203 0
181 203 0
182 204 0
181 203 0
183 204 0
179 202 0
182 203 0
183 204 0
183 204 0
181 203 0
180 202 0
183 204 0
185 205 0
183 204 0
182 204 0
183 204 0
183 204 0
182 204 0
183 204 0
182 204 0
181 203 0
180 202 0
184 205 0
183 204 0
182 203 0
180 203 0
181 203 0
181 202 0
182 204 0
183 204 0
183 204 0
181 203 0
183 204 0
184 205 0
182 204 0
181 203 0
182 204 0
183 204 0
183 204 0
178 201 0
182 204 0
182 203 0
182 204 0
181 203 0
181 203 0
181 202 0
183 204 0
182 204 0
182 204 0
183 204 0
182 203 0
181 202 0
182 204 0
185 205 0
179 202 0
183 204 0
184 205 0
184 205 0
181 203 0
182 204 0
184 205 0
181 203 0
184 205 0
181 203 0
183 204 0
181 203 0
181 203 0
184 204 0
182 203 0
182 204 0
184 205 0
180 203 0
180 203 0
184 205 0
181 203 0
179 202 0
181 203 0
182 204 0
181 203 0
184 205 0
181 203 0
182 204 0
179 201 0
180 203 0
181 202 0
182 204 0
182 203 0
182 204 0
181 203 0
179 201 0
182 204 0
183 204 0
183 204 0
182 204 0
184 205 0
182 203 0
181 203 0
183 204 0
182 204 0
181 203 0
182 203 0
182 204 0
182 203 0
179 201 0
184 205 0
184 205 0
181 203 0
183 204 0
180 203 0
183 204 0
182 204 0
177 200 0
182 204 0
184 205 0
181 203 0
180 202 0
181 203 0
180 202 0
182 204 0
183 203 0
181 203 0
181 203 0
180 202 0
182 204 0
183 204 0
182 204 0
180 203 0
181 203 0
182 203 0
180 202 0
183 204 0
183 204 0
182 203 0
176 199 0
182 204 0
180 202 0
182 203 0
181 202 0
181 203 0
181 203 0
181 203 0
180 202 0
181 202 0
183 204 0
183 204 0
180 203 0
180 202 0
182 204 0
182 203 0
183 204 0
182 203 0
182 204 0
182 204 0
181 203 0
182 204 0
184 205 0
181 203 0
181 203 0
181 203 0
183 204 0
184 205 0
181 203 0
182 204 0
183 204 0
182 203 0
181 203 0
181 203 0
181 203 0
182 204 0
182 204 0
181 203 0
181 203 0
182 204 0
184 205 0
184 205 0
183 204 0
182 204 0
181 203 0
182 204 0
183 204 0
184 205 0
181 203 0
182 204 0
182 204 0
184 205 0
181 202 0
181 203 0
183 204 0
181 203 0
183 204 0
184 205 0
183 204 0
180 203 0
181 203 0
181 203 0
186 206 0
182 204 0
183 204 0
182 204 0
182 204 0
183 204 0
183 204 0
183 204 0
183 204 0
183 204 0
181 203 0
182 204 0
182 203 0
181 203 0
182 204 0
185 205 0
181 203 0
181 203 0
181 203 0
183 204 0
180 203 0
183 204 0
185 205 0
180 203 0
185 205 0
183 204 0
183 204 0
184 205 0
184 205 0
182 204 0
183 204 0
181 203 0
182 204 0
182 204 0
183 204 0
183 204 0
183 204 0
180 203 0
182 204 0
182 204 0
183 204 0
182 204 0
182 204 0
180 202 0
183 204 0
181 203 0
182 204 0
180 203 0
179 202 0
182 204 0
182 204 0
181 203 0
183 204 0
182 204 0
185 205 0
181 203 0
182 203 0
179 202 0
181 203 0
183 204 0
181 203 0
181 203 0
181 203 0
181 203 0
184 205 0
183 204 0
182 204 0
183 204 0
181 203 0
181 203 0
179 202 0
182 203 0
183 204 0
186 206 0
182 204 0
181 203 0
182 203 0
181 203 0
182 204 0
183 204 0
182 204 0
182 204 0
181 203 0
182 204 0
182 204 0
181 203 0
182 204 0
183 204 0
182 204 0
182 203 0
180 202 0
183 204 0
181 203 0
180 202 0
180 202 0
182 204 0
183 204 0
182 204 0
181 203 0
183 204 0
184 205 0
182 204 0
182 204 0
180 203 0
181 203 0
182 204 0
184 205 0
181 203 0
182 204 0
182 204 0
182 204 0
182 204 0
183 204 0
183 204 0
183 204 0
184 205 0
184 205 0
180 202 0
181 203 0
181 203 0
181 203 0
182 204 0
181 203 0
181 203 0
183 204 0
183 204 0
181 203 0
184 205 0
180 202 0
183 204 0
181 203 0
181 203 0
182 204 0
182 204 0
181 202 0
180 202 0
182 204 0
180 202 0
180 203 0
180 202 0
183 204 0
183 204 0
183 204 0
182 203 0
182 204 0
181 203 0
182 203 0
182 204 0
179 201 0
184 205 0
181 203 0
182 204 0
182 204 0
182 203 0
184 204 0
180 202 0
181 203 0
181 203 0
183 204 0
182 204 0
182 204 0
181 203 0
182 204 0
183 204 0
182 204 0
183 204 0
182 204 0
184 205 0
183 204 0
181 203 0
180 202 0
181 203 0
182 203 0
181 203 0
183 204 0
180 203 0
181 203 0
181 203 0
182 204 0
182 204 0
180 202 0
183 203 0
183 204 0
182 204 0
181 203 0
180 203 0
179 202 0
182 203 0
182 203 0
182 204 0
181 202 0
180 202 0
183 204 0
181 202 0
181 203 0
179 202 0
182 204 0
179 201 0
179 202 0
180 202 0
179 202 0
184 205 0
183 204 0
181 203 0
183 204 0
178 200 0
181 203 0
183 204 0
182 204 0
180 202 0
182 204 0
180 202 0
183 204 0
181 203 0
182 204 0
184 204 0
182 204 0
182 204 0
183 204 0
182 204 0
182 204 0
181 203 0
181 202 0
181 203 0
179 201 0
180 203 0
181 203 0
180 202 0
183 204 0
182 203 0
180 202 0
183 204 0
181 203 0
179 202 0
183 204 0
182 204 0
180 202 0
181 203 0
181 202 0
184 205 0
182 204 0
180 203 0
182 204 0
182 204 0
181 202 0
181 203 0
182 204 0
183 204 0
183 204 0
182 203 0
182 204 0
183 204 0
180 203 0
181 203 0
184 205 0
182 204 0
182 203 0
181 203 0
181 203 0
182 204 0
181 203 0
181 203 0
182 204 0
179 202 0
181 202 0
182 204 0
181 203 0
182 204 0
183 204 0
181 202 0
184 205 0
181 203 0
182 203 0
181 203 0
182 204 0
182 204 0
180 203 0
182 204 0
181 203 0
182 204 0
183 204 0
182 204 0
182 203 0
181 203 0
180 203 0
184 205 0
183 204 0
184 205 0
182 204 0
181 203 0
182 204 0
182 204 0
185 205 0
178 202 0
180 203 0
182 204 0
180 202 0
180 203 0
184 205 0
181 203 0
182 204 0
183 204 0
180 203 0
181 203 0
182 203 0
182 204 0
181 202 0
181 202 0
181 202 0
183 204 0
182 204 0
183 204 0
182 203 0
180 203 0
183 204 0
181 202 0
181 203 0
181 203 0
181 202 0
180 202 0
183 204 0
180 202 0
185 205 0
182 203 0
179 202 0
181 202 0
184 205 0
180 203 0
182 204 0
180 203 0
181 202 0
182 204 0
179 201 0
181 203 0
181 203 0
181 203 0
180 202 0
182 204 0
179 201 0
181 203 0
179 202 0
177 199 0
183 204 0
182 204 0
181 203 0
183 204 0
184 205 0
182 203 0
179 201 0
181 202 0
179 202 0
182 204 0
180 202 0
182 203 0
181 203 0
182 204 0
181 203 0
182 204 0
181 202 0
181 203 0
184 205 0
182 204 0
183 204 0
182 204 0
180 203 0
184 205 0
180 202 0
183 204 0
181 203 0
183 204 0
182 204 0
181 202 0
180 201 0
182 204 0
180 202 0
180 203 0
181 203 0
181 203 0
180 203 0
183 204 0
183 204 0
182 203 0
183 204 0
183 203 0
180 203 0
181 203 0
180 203 0
181 203 0
182 204 0
183 204 0
181 203 0
180 203 0
181 203 0
182 204 0
182 204 0
181 203 0
183 204 0
184 205 0
182 204 0
181 203 0
182 204 0
185 205 0
182 204 0
183 204 0
181 202 0
181 203 0
181 203 0
180 203 0
179 202 0
180 203 0
182 204 0
182 204 0
182 204 0
181 203 0
182 203 0
184 205 0
182 204 0
183 204 0
180 203 0
180 203 0
183 204 0
183 204 0
182 204 0
182 204 0
182 204 0
184 205 0
184 205 0
183 204 0
182 204 0
181 203 0
181 203 0
183 204 0
182 204 0
181 203 0
180 203 0
181 203 0
183 204 0
183 204 0
184 205 0
183 204 0
180 203 0
181 203 0
183 204 0
183 204 0
181 203 0
180 203 0
181 203 0
181 203 0
182 204 0
183 204 0
179 202 0
182 204 0
182 204 0
183 204 0
184 205 0
183 204 0
183 204 0
181 203 0
183 204 0
181 203 0
183 204 0
184 205 0
180 203 0
182 204 0
181 203 0
183 204 0
183 204 0
182 204 0
180 203 0
180 203 0
181 203 0
180 202 0
185 205 0
181 203 0
181 203 0
180 202 0
181 203 0
181 203 0
180 202 0
182 204 0
183 204 0
182 204 0
182 204 0
182 204 0
183 204 0
184 205 0
183 204 0
181 203 0
181 203 0
183 204 0
183 204 0
181 203 0
181 203 0
181 203 0
181 203 0
181 202 0
180 203 0
178 201 0
182 204 0
181 203 0
182 204 0
181 203 0
181 203 0
181 203 0
178 200 0
183 204 0
183 204 0
181 203 0
181 203 0
182 204 0
184 205 0
180 203 0
183 204 0
183 204 0
182 204 0
179 202 0
182 203 0
181 203 0
183 204 0
181 203 0
182 204 0
183 204 0
182 204 0
182 204 0
181 203 0
182 204 0
181 203 0
180 203 0
181 203 0
178 202 0
180 202 0
181 203 0
182 204 0
181 203 0
181 203 0
182 204 0
183 204 0
181 203 0
182 204 0
183 204 0
182 204 0
181 203 0
182 204 0
181 203 0
183 204 0
184 205 0
182 204 0
180 203 0
181 203 0
181 203 0
180 203 0
180 202 0
184 205 0
183 204 0
182 204 0
182 204 0
182 203 0
180 203 0
181 203 0
181 203 0
183 204 0
183 204 0
182 204 0
180 203 0
183 204 0
182 203 0
181 203 0
182 204 0
176 198 0
184 205 0
181 203 0
179 201 0
182 204 0
183 204 0
182 203 0
184 205 0
180 203 0
181 202 0
183 204 0
182 204 0
182 203 0
180 202 0
178 201 0
181 202 0
180 203 0
181 203 0
182 204 0
180 202 0
182 204 0
181 203 0
183 204 0
181 203 0
181 202 0
181 203 0
183 204 0
181 202 0
179 201 0
182 204 0
181 202 0
181 203 0
183 204 0
182 204 0
181 203 0
184 204 0
181 203 0
183 204 0
182 204 0
182 203 0
182 203 0
183 204 0
182 204 0
178 201 0
181 203 0
182 204 0
180 203 0
183 204 0
183 204 0
182 204 0
180 203 0
182 204 0
184 205 0
181 203 0
182 204 0
180 202 0
183 204 0
181 203 0
181 203 0
183 204 0
181 203 0
182 203 0
180 202 0
180 203 0
181 203 0
179 202 0
183 204 0
180 202 0
183 204 0
183 204 0
183 204 0
184 204 0
183 204 0
180 202 0
181 203 0
184 205 0
183 204 0
182 203 0
180 203 0
181 203 0
183 204 0
182 204 0
180 202 0
182 204 0
183 204 0
182 204 0
181 203 0
181 203 0
179 202 0
178 200 0
182 204 0
184 205 0
181 203 0
180 203 0
182 204 0
179 202 0
182 204 0
180 203 0
181 203 0
183 204 0
180 203 0
181 203 0
184 204 0
182 204 0
182 204 0
180 203 0
182 204 0
181 203 0
182 203 0
181 203 0
182 204 0
182 204 0
183 204 0
181 203 0
180 203 0
182 203 0
185 205 0
181 203 0
182 204 0
183 204 0
182 203 0
182 204 0
182 204 0
183 204 0
182 204 0
182 204 0
181 203 0
182 204 0
184 205 0
181 203 0
183 204 0
182 204 0
180 203 0
181 203 0
180 203 0
184 205 0
183 204 0
182 204 0
181 203 0
181 203 0
181 203 0
180 203 0
181 202 0
182 203 0
181 203 0
180 203 0
180 201 0
182 204 0
180 201 0
181 203 0
180 202 0
180 203 0
180 202 0
183 204 0
181 203 0
181 203 0
182 204 0
182 204 0
184 205 0
182 203 0
178 202 0
180 202 0
183 204 0
180 203 0
180 202 0
184 205 0
182 204 0
182 203 0
180 202 0
179 201 0
184 205 0
181 203 0
181 203 0
181 203 0
181 203 0
180 203 0
183 203 0
181 202 0
180 203 0
184 205 0
184 205 0
182 204 0
182 204 0
183 204 0
182 204 0
183 204 0
180 203 0
180 203 0
183 204 0
181 203 0
182 203 0
181 202 0
184 205 0
181 203 0
181 203 0
182 203 0
183 204 0
181 203 0
178 200 0
183 204 0
183 204 0
182 204 0
183 204 0
179 202 0
181 203 0
180 202 0
182 204 0
183 204 0
182 204 0
181 203 0
181 203 0
181 203 0
182 204 0
182 204 0
181 203 0
181 203 0
181 203 0
181 203 0
183 204 0
182 204 0
179 202 0
182 204 0
182 204 0
182 203 0
181 203 0
182 204 0
181 203 0
181 203 0
180 202 0
182 204 0
181 203 0
182 204 0
183 204 0
182 204 0
182 204 0
180 203 0
180 203 0
183 204 0
179 202 0
180 202 0
183 204 0
183 204 0
184 205 0
181 203 0
183 204 0
182 204 0
181 203 0
183 204 0
181 203 0
183 204 0
180 202 0
181 203 0
184 205 0
181 203 0
181 203 0
183 204 0
182 204 0
183 204 0
182 204 0
181 203 0
182 204 0
183 204 0
183 204 0
183 204 0
183 204 0
183 204 0
180 203 0
180 203 0
183 204 0
182 204 0
182 204 0
182 204 0
182 203 0
183 204 0
182 204 0
182 204 0
183 204 0
180 202 0
183 204 0
181 203 0
181 203 0
184 205 0
184 205 0
182 204 0
181 203 0
182 203 0
184 205 0
183 204 0
180 203 0
183 204 0
182 204 0
179 201 0
183 204 0
182 204 0
181 203 0
183 204 0
182 204 0
181 203 0
181 203 0
183 204 0
181 203 0
181 203 0
182 204 0
181 203 0
183 204 0
183 204 0
181 203 0
179 202 0
181 203 0
182 204 0
180 203 0
183 204 0
181 203 0
179 202 0
183 204 0
180 202 0
180 202 0
183 204 0
180 203 0
183 204 0
184 205 0
181 203 0
182 204 0
180 203 0
182 204 0
182 204 0
178 200 0
183 204 0
182 204 0
185 205 0
182 204 0
182 204 0
183 204 0
179 201 0
183 204 0
183 204 0
181 203 0
180 203 0
183 204 0
183 204 0
182 204 0
181 203 0
180 203 0
182 204 0
181 203 0
183 204 0
179 202 0
179 202 0
181 203 0
183 204 0
182 204 0
180 203 0
182 204 0
183 204 0
182 204 0
180 202 0
183 204 0
182 204 0
181 203 0
181 203 0
182 204 0
179 201 0
183 204 0
180 203 0
183 203 0
180 203 0
182 203 0
183 204 0
183 204 0
182 204 0
181 203 0
180 202 0
180 202 0
180 203 0
181 203 0
182 204 0
180 202 0
183 204 0
182 204 0
179 202 0
181 203 0
181 203 0
181 203 0
182 204 0
180 203 0
179 201 0
181 203 0
180 203 0
182 204 0
180 202 0
180 202 0
182 204 0
182 204 0
182 204 0
182 204 0
180 203 0
184 205 0
180 203 0
181 203 0
183 204 0
183 204 0
180 202 0
182 204 0
183 204 0
181 203 0
182 204 0
183 204 0
181 203 0
178 200 0
181 203 0
182 204 0
181 203 0
179 201 0
183 204 0
180 202 0
180 203 0
182 204 0
180 202 0
184 205 0
183 204 0
182 203 0
183 204 0
179 201 0
182 204 0
181 203 0
179 202 0
177 200 0
181 203 0
179 201 0
181 203 0
183 204 0
180 203 0
182 204 0
182 204 0
182 204 0
182 204 0
182 204 0
181 203 0
183 204 0
180 202 0
181 203 0
182 203 0
182 204 0
182 204 0
181 203 0
179 201 0
180 203 0
181 203 0
181 203 0
180 202 0
184 205 0
180 202 0
181 203 0
181 203 0
180 203 0
182 204 0
183 204 0
183 204 0
182 204 0
183 204 0
180 203 0
181 203 0
182 204 0
182 203 0
182 203 0
181 203 0
183 204 0
182 204 0
182 204 0
183 204 0
182 204 0
181 203 0
182 204 0
181 203 0
181 203 0
181 203 0
183 204 0
183 204 0
182 204 0
180 202 0
182 204 0
182 203 0
183 204 0
182 203 0
183 204 0
180 202 0
178 201 0
182 204 0
181 203 0
180 203 0
182 204 0
182 204 0
183 204 0
182 204 0
182 203 0
182 204 0
181 203 0
180 203 0
182 204 0
181 203 0
181 203 0
180 202 0
180 202 0
183 204 0
182 204 0
182 204 0
183 204 0
181 203 0
182 204 0
181 203 0
183 204 0
182 204 0
180 202 0
180 203 0
183 204 0
180 202 0
182 203 0
181 203 0
182 204 0
181 203 0
182 204 0
182 204 0
182 204 0
182 204 0
184 205 0
180 202 0
181 203 0
183 204 0
183 204 0
182 204 0
180 203 0
185 205 0
180 203 0
181 203 0
181 203 0
182 204 0
184 205 0
182 204 0
184 205 0
181 202 0
183 203 0
181 203 0
183 204 0
181 203 0
182 204 0
182 204 0
180 203 0
181 203 0
181 203 0
180 202 0
181 202 0
177 201 0
181 203 0
181 203 0
182 204 0
181 203 0
177 199 0
182 204 0
180 202 0
179 200 0
182 204 0
183 204 0
179 202 0
181 203 0
182 204 0
183 204 0
179 201 0
181 202 0
180 202 0
180 202 0
180 202 0
180 202 0
181 202 0
182 204 0
181 203 0
183 204 0
183 204 0
181 202 0
183 204 0
181 203 0
185 205 0
182 204 0
182 204 0
181 203 0
183 204 0
184 205 0
183 204 0
182 203 0
181 203 0
181 203 0
180 203 0
182 204 0
179 202 0
181 202 0
181 202 0
181 203 0
181 203 0
181 203 0
182 204 0
183 204 0
182 204 0
183 204 0
182 204 0
183 204 0
183 204 0
181 202 0
182 203 0
183 204 0
182 204 0
180 203 0
179 201 0
181 203 0
182 204 0
179 202 0
181 203 0
181 203 0
183 204 0
181 203 0
181 203 0
181 203 0
182 204 0
182 204 0
182 204 0
183 204 0
182 204 0
182 204 0
181 203 0
181 203 0
182 204 0
183 204 0
181 203 0
182 204 0
183 204 0
184 205 0
180 203 0
182 204 0
181 202 0
183 204 0
182 204 0
185 205 0
184 205 0
180 203 0
182 204 0
180 203 0
182 204 0
182 204 0
181 203 0
184 204 0
183 204 0
182 204 0
182 204 0
182 204 0
184 205 0
179 201 0
183 204 0
182 204 0
180 203 0
180 202 0
184 205 0
182 204 0
182 204 0
183 204 0
182 204 0
183 204 0
181 203 0
183 204 0
182 204 0
181 203 0
180 203 0
182 204 0
177 200 0
180 203 0
180 203 0
180 203 0
182 204 0
182 204 0
182 204 0
183 204 0
183 204 0
181 203 0
180 203 0
180 203 0
182 203 0
182 204 0
183 204 0
181 203 0
184 205 0
184 205 0
180 203 0
182 204 0
182 204 0
180 203 0
182 204 0
181 203 0
182 204 0
181 203 0
181 203 0
182 204 0
181 203 0
182 203 0
182 204 0
179 202 0
184 205 0
183 204 0
182 203 0
182 204 0
181 203 0
182 204 0
183 204 0
183 204 0
180 203 0
181 203 0
183 204 0
182 204 0
183 204 0
184 205 0
183 203 0
181 203 0
183 204 0
184 205 0
181 203 0
181 203 0
182 204 0
183 204 0
184 205 0
182 204 0
183 204 0
176 200 0
183 204 0
182 204 0
181 203 0
182 204 0
182 203 0
183 204 0
182 204 0
183 204 0
181 203 0
182 203 0
182 203 0
182 204 0
180 202 0
182 204 0
181 203 0
181 203 0
181 203 0
181 203 0
182 204 0
182 204 0
184 205 0
181 203 0
181 203 0
182 204 0
180 202 0
182 203 0
182 204 0
184 205 0
180 202 0
181 203 0
182 204 0
182 203 0
181 203 0
184 205 0
183 204 0
181 203 0
181 203 0
182 204 0
182 204 0
182 204 0
181 203 0
184 205 0
184 205 0
181 203 0
183 204 0
183 204 0
183 204 0
182 204 0
180 203 0
182 204 0
182 204 0
183 204 0
184 205 0
179 202 0
182 204 0
181 203 0
180 202 0
180 202 0
182 204 0
182 203 0
178 201 0
181 203 0
183 204 0
182 203 0
180 203 0
180 202 0
183 204 0
181 203 0
181 202 0
182 204 0
181 203 0
183 204 0
181 203 0
180 203 0
183 204 0
183 204 0
181 203 0
183 204 0
178 201 0
184 205 0
182 204 0
180 201 0
180 203 0
182 204 0
181 203 0
177 200 0
179 201 0
181 203 0
181 203 0
182 203 0
180 203 0
182 204 0
182 204 0
182 203 0
177 199 0
181 203 0
181 203 0
182 204 0
182 204 0
182 204 0
181 203 0
181 203 0
182 203 0
183 204 0
184 205 0
179 202 0
182 204 0
182 203 0
182 204 0
183 204 0
182 204 0
181 203 0
182 204 0
182 204 0
181 202 0
181 203 0
181 203 0
181 203 0
182 203 0
182 204 0
182 204 0
182 203 0
182 204 0
181 203 0
183 204 0
181 203 0
181 203 0
181 203 0
181 203 0
182 203 0
179 201 0
182 204 0
178 201 0
182 204 0
180 201 0
182 204 0
181 203 0
182 203 0
183 204 0
181 203 0
180 202 0
182 204 0
181 203 0
181 203 0
181 203 0
181 203 0
184 205 0
180 202 0
182 204 0
180 203 0
179 202 0
182 203 0
183 203 0
179 201 0
182 203 0
181 202 0
182 203 0
182 204 0
178 201 0
180 203 0
184 205 0
180 203 0
183 204 0
183 204 0
181 203 0
181 203 0
183 204 0
182 204 0
181 203 0
182 204 0
182 204 0
184 205 0
181 203 0
182 204 0
180 202 0
181 203 0
181 203 0
182 204 0
183 204 0
181 203 0
183 204 0
182 204 0
181 203 0
181 202 0
183 204 0
181 203 0
181 203 0
184 205 0
182 204 0
182 204 0
181 203 0
183 204 0
181 203 0
182 204 0
182 204 0
182 204 0
184 205 0
181 203 0
181 203 0
180 201 0
181 203 0
182 204 0
182 203 0
183 204 0
182 204 0
182 204 0
181 203 0
181 202 0
182 204 0
179 201 0
183 204 0
183 204 0
182 204 0
183 204 0
180 202 0
181 203 0
181 203 0
181 202 0
184 205 0
181 203 0
180 202 0
179 202 0
181 202 0
184 205 0
180 202 0
181 203 0
181 203 0
180 203 0
184 205 0
180 203 0
181 203 0
183 204 0
182 203 0
180 202 0
181 203 0
179 200 0
182 204 0
184 205 0
183 204 0
183 204 0
184 205 0
183 204 0
184 205 0
182 203 0
183 204 0
182 204 0
181 203 0
178 201 0
182 204 0
181 203 0
182 203 0
180 202 0
180 203 0
180 203 0
183 204 0
182 204 0
181 203 0
183 204 0
181 203 0
183 204 0
182 204 0
180 203 0
184 205 0
183 204 0
181 203 0
179 202 0
183 204 0
182 203 0
182 203 0
184 205 0
183 204 0
183 204 0
183 204 0
182 204 0
179 201 0
182 203 0
181 203 0
179 202 0
179 202 0
184 204 0
183 204 0
182 204 0
182 204 0
182 204 0
183 204 0
182 203 0
183 204 0
183 204 0
183 204 0
184 205 0
183 204 0
180 202 0
180 202 0
182 204 0
181 203 0
181 203 0
182 204 0
182 204 0
181 203 0
183 203 0
182 204 0
182 204 0
182 204 0
180 202 0
182 204 0
181 203 0
183 204 0
183 204 0
181 203 0
183 204 0
182 204 0
184 204 0
182 204 0
182 204 0
182 204 0
184 205 0
182 204 0
181 203 0
182 204 0
180 203 0
182 204 0
182 204 0
180 203 0
181 203 0
182 204 0
182 204 0
181 203 0
182 204 0
182 204 0
183 204 0
184 205 0
182 204 0
182 204 0
184 205 0
181 203 0
179 202 0
181 203 0
180 202 0
182 204 0
182 204 0
181 203 0
182 203 0
182 204 0
183 204 0
182 204 0
181 203 0
182 204 0
183 204 0
183 204 0
180 202 0
182 204 0
184 205 0
182 204 0
182 204 0
182 203 0
182 204 0
182 204 0
183 204 0
183 204 0
181 203 0
181 203 0
184 205 0
183 204 0
181 203 0
182 204 0
183 204 0
181 203 0
181 203 0
184 205 0
183 204 0
180 203 0
180 203 0
184 205 0
183 204 0
180 203 0
183 204 0
182 204 0
182 204 0
183 204 0
181 203 0
181 203 0
181 203 0
183 204 0
182 204 0
182 203 0
180 203 0
182 204 0
182 204 0
183 204 0
183 204 0
183 204 0
180 203 0
183 204 0
181 203 0
183 204 0
182 204 0
182 204 0
181 203 0
183 204 0
182 204 0
180 203 0
183 204 0
181 203 0
181 201 0
181 202 0
183 204 0
182 204 0
181 203 0
179 202 0
180 203 0
182 203 0
181 203 0
180 203 0
182 204 0
182 204 0
182 204 0
183 204 0
180 202 0
181 203 0
178 201 0
183 204 0
184 205 0
182 203 0
181 203 0
179 202 0
182 204 0
184 205 0
179 202 0
183 204 0
183 204 0
181 203 0
181 203 0
181 203 0
180 202 0
182 204 0
182 204 0
181 203 0
184 205 0
184 205 0
180 203 0
181 203 0
182 204 0
182 204 0
183 204 0
182 204 0
181 203 0
181 203 0
183 204 0
182 204 0
180 202 0
182 204 0
181 203 0
180 202 0
180 202 0
181 203 0
182 203 0
181 203 0
181 203 0
181 203 0
182 204 0
182 204 0
184 205 0
182 204 0
180 203 0
180 202 0
183 204 0
181 203 0
181 203 0
183 204 0
179 201 0
181 203 0
181 203 0
182 204 0
182 203 0
180 203 0
182 204 0
181 203 0
181 203 0
182 203 0
182 204 0
178 201 0
184 205 0
181 203 0
181 202 0
184 205 0
182 203 0
183 204 0
182 204 0
181 203 0
181 203 0
182 203 0
183 204 0
177 201 0
180 202 0
184 205 0
181 203 0
182 204 0
180 203 0
182 203 0
185 205 0
183 204 0
183 204 0
182 204 0
181 203 0
180 201 0
180 202 0
182 203 0
183 204 0
182 203 0
180 203 0
181 203 0
181 203 0
181 203 0
180 201 0
184 205 0
181 203 0
182 203 0
182 204 0
181 203 0
181 203 0
179 202 0
180 203 0
183 204 0
180 203 0
184 205 0
182 204 0
181 202 0
180 203 0
179 201 0
183 204 0
180 202 0
179 201 0
183 204 0
181 203 0
182 204 0
182 203 0
181 203 0
184 204 0
180 202 0
182 203 0
181 203 0
180 203 0
182 204 0
181 203 0
180 202 0
183 204 0
183 204 0
180 202 0
185 205 0
182 204 0
183 204 0
181 202 0
183 204 0
182 203 0
181 202 0
181 203 0
182 204 0
180 203 0
182 204 0
182 204 0
183 204 0
183 204 0
177 199 0
182 203 0
182 204 0
183 204 0
182 204 0
180 203 0
181 203 0
181 203 0
183 204 0
185 205 0
183 204 0
181 203 0
182 204 0
180 202 0
180 203 0
184 205 0
181 203 0
181 203 0
183 204 0
182 204 0
183 204 0
183 204 0
182 203 0
181 203 0
183 204 0
184 205 0
181 203 0
184 205 0
178 201 0
182 204 0
181 203 0
182 204 0
184 205 0
183 204 0
181 203 0
182 203 0
181 203 0
181 203 0
182 204 0
181 203 0
182 204 0
183 204 0
182 204 0
182 204 0
180 203 0
181 202 0
179 202 0
179 201 0
183 204 0
180 202 0
182 204 0
180 203 0
180 203 0
182 203 0
181 203 0
181 203 0
182 204 0
181 203 0
181 203 0
183 204 0
180 201 0
182 204 0
180 202 0
180 202 0
180 202 0
178 200 0
185 205 0
182 204 0
181 203 0
183 204 0
182 203 0
182 204 0
183 204 0
183 204 0
184 205 0
181 203 0
181 203 0
181 203 0
181 203 0
180 202 0
183 204 0
182 204 0
182 204 0
180 202 0
183 204 0
181 203 0
183 204 0
180 203 0
182 204 0
179 202 0
181 203 0
180 203 0
181 203 0
182 203 0
182 204 0
180 203 0
183 204 0
183 204 0
181 203 0
180 203 0
182 204 0
183 203 0
183 204 0
180 203 0
182 204 0
183 204 0
183 204 0
183 204 0
182 204 0
182 204 0
183 204 0
184 205 0
182 204 0
180 202 0
183 204 0
182 204 0
181 203 0
182 204 0
181 203 0
182 204 0
182 204 0
180 202 0
181 203 0
183 204 0
181 203 0
183 204 0
182 203 0
183 204 0
182 204 0
181 203 0
182 204 0
182 204 0
181 203 0
183 204 0
185 205 0
179 202 0
182 204 0
182 204 0
181 203 0
179 201 0
180 203 0
182 204 0
180 203 0
180 202 0
181 203 0
182 204 0
182 203 0
184 205 0
182 204 0
182 204 0
181 203 0
184 205 0
182 204 0
180 203 0
183 204 0
182 204 0
180 202 0
182 204 0
182 204 0
183 204 0
182 204 0
183 204 0
183 204 0
181 203 0
181 203 0
181 203 0
182 203 0
182 204 0
182 204 0
181 203 0
181 203 0
182 203 0
183 204 0
182 203 0
181 203 0
183 204 0
182 204 0
181 203 0
180 203 0
184 205 0
182 204 0
181 203 0
183 204 0
182 203 0
183 204 0
181 203 0
181 203 0
182 204 0
182 204 0
182 204 0
184 205 0
182 204 0
182 204 0
181 203 0
182 204 0
181 203 0
181 203 0
181 203 0
183 204 0
180 203 0
181 203 0
184 205 0
182 204 0
183 204 0
182 204 0
181 203 0
183 204 0
182 204 0
183 204 0
183 204 0
181 203 0
181 203 0
183 204 0
182 204 0
184 205 0
180 203 0
181 203 0
181 203 0
181 203 0
185 205 0
182 203 0
180 203 0
182 204 0
180 203 0
182 204 0
181 203 0
181 203 0
183 204 0
181 203 0
181 203 0
186 206 0
181 203 0
181 203 0
181 203 0
182 204 0
181 203 0
182 204 0
183 204 0
183 204 0
183 204 0
182 204 0
181 203 0
180 202 0
181 203 0
181 203 0
183 204 0
182 204 0
182 203 0
182 203 0
183 204 0
180 203 0
182 203 0
181 203 0
181 203 0
183 204 0
182 204 0
184 205 0
183 204 0
181 203 0
181 203 0
181 203 0
183 204 0
181 203 0
184 205 0
181 203 0
181 203 0
182 203 0
184 205 0
179 202 0
180 202 0
181 203 0
181 203 0
180 203 0
182 204 0
182 204 0
181 203 0
181 203 0
184 205 0
182 204 0
182 204 0
181 203 0
185 205 0
179 202 0
181 203 0
183 204 0
184 205 0
182 204 0
181 203 0
182 204 0
180 203 0
182 204 0
184 205 0
184 205 0
182 204 0
182 204 0
180 203 0
179 201 0
180 203 0
181 203 0
181 202 0
178 201 0
182 204 0
180 203 0
182 203 0
182 204 0
181 203 0
181 203 0
182 203 0
182 204 0
181 203 0
182 204 0
181 203 0
182 204 0
183 204 0
182 203 0
182 202 0
183 204 0
180 202 0
183 204 0
182 204 0
179 202 0
181 203 0
180 203 0
180 201 0
183 204 0
181 203 0
182 204 0
182 203 0
183 204 0
181 203 0
179 202 0
183 204 0
180 203 0
182 204 0
183 204 0
181 203 0
181 203 0
182 204 0
183 204 0
181 202 0
184 205 0
182 204 0
184 205 0
181 203 0
185 205 0
181 203 0
181 203 0
179 201 0
182 204 0
181 203 0
182 204 0
184 205 0
178 200 0
180 201 0
181 203 0
181 203 0
182 203 0
181 202 0
182 204 0
180 203 0
181 203 0
182 204 0
185 205 0
179 201 0
182 203 0
180 202 0
181 203 0
180 202 0
181 202 0
180 203 0
182 204 0
179 201 0
183 204 0
180 202 0
180 201 0
183 204 0
183 204 0
183 204 0
183 204 0
181 203 0
182 204 0
182 204 0
181 203 0
178 201 0
182 204 0
179 201 0
176 198 0
182 204 0
181 202 0
182 204 0
184 205 0
182 203 0
181 203 0
182 204 0
179 201 0
182 204 0
182 204 0
181 203 0
183 204 0
182 204 0
182 204 0
182 204 0
178 201 0
182 204 0
181 203 0
180 203 0
183 204 0
181 203 0
184 205 0
179 201 0
183 204 0
183 204 0
183 204 0
183 204 0
180 203 0
182 203 0
182 204 0
178 201 0
180 203 0
183 204 0
180 203 0
181 203 0
180 203 0
181 203 0
181 203 0
183 204 0
182 204 0
184 205 0
182 203 0
182 204 0
179 201 0
183 204 0
182 204 0
180 203 0
182 204 0
180 203 0
180 202 0
183 204 0
181 203 0
182 203 0
181 203 0
182 204 0
182 203 0
181 203 0
181 203 0
181 203 0
183 204 0
182 204 0
182 204 0
183 204 0
183 204 0
184 205 0
179 201 0
183 204 0
183 204 0
181 203 0
181 203 0
180 202 0
185 205 0
181 202 0
181 203 0
180 201 0
181 203 0
174 196 0
181 202 0
182 204 0
183 204 0
181 203 0
184 205 0
183 204 0
181 203 0
183 204 0
182 204 0
181 203 0
180 203 0
179 201 0
183 204 0
182 204 0
183 204 0
182 204 0
183 204 0
181 203 0
183 204 0
181 203 0
183 204 0
180 203 0
184 205 0
183 204 0
181 203 0
182 204 0
182 204 0
181 203 0
180 202 0
179 201 0
184 205 0
181 203 0
181 203 0
181 203 0
178 201 0
182 204 0
184 205 0
182 204 0
181 203 0
183 204 0
181 203 0
182 204 0
181 202 0
181 203 0
180 203 0
182 204 0
181 203 0
181 203 0
183 204 0
182 204 0
182 204 0
180 203 0
183 204 0
182 204 0
183 204 0
181 203 0
182 204 0
180 202 0
183 204 0
178 201 0
182 203 0
182 204 0
183 204 0
183 204 0
182 204 0
181 203 0
182 204 0
182 204 0
183 204 0
182 204 0
181 203 0
182 204 0
180 203 0
184 204 0
182 204 0
183 204 0
181 203 0
181 203 0
181 203 0
182 203 0
180 203 0
179 202 0
180 203 0
182 204 0
181 202 0
182 204 0
182 204 0
180 203 0
181 203 0
182 204 0
182 203 0
184 205 0
181 203 0
180 203 0
181 203 0
181 203 0
182 203 0
184 205 0
182 204 0
183 204 0
182 204 0
181 203 0
183 204 0
182 204 0
182 204 0
183 204 0
181 203 0
180 203 0
181 203 0
183 204 0
181 203 0
181 202 0
180 203 0
181 203 0
182 204 0
181 203 0
179 202 0
183 204 0
182 203 0
183 204 0
184 205 0
180 203 0
182 204 0
183 204 0
184 205 0
182 203 0
181 203 0
184 205 0
181 203 0
183 204 0
181 203 0
183 204 0
182 204 0
182 204 0
181 203 0
182 204 0
183 204 0
183 204 0
184 205 0
183 204 0
182 204 0
183 204 0
182 204 0
181 203 0
180 203 0
185 205 0
183 204 0
182 204 0
178 202 0
180 203 0
181 203 0
183 204 0
181 203 0
179 201 0
183 204 0
182 204 0
183 204 0
183 204 0
182 204 0
182 204 0
181 203 0
182 204 0
181 203 0
182 204 0
181 203 0
183 204 0
182 204 0
180 203 0
180 203 0
182 204 0
181 202 0
182 203 0
180 202 0
181 203 0
181 203 0
181 203 0
180 203 0
183 204 0
183 204 0
182 204 0
181 203 0
182 204 0
182 203 0
181 203 0
180 203 0
181 203 0
182 204 0
181 203 0
182 204 0
184 205 0
182 203 0
182 204 0
182 204 0
181 203 0
183 204 0
182 204 0
181 203 0
183 204 0
184 205 0
182 204 0
180 203 0
180 202 0
182 203 0
183 204 0
182 204 0
183 204 0
181 203 0
179 201 0
181 203 0
182 204 0
183 204 0
183 204 0
181 203 0
184 205 0
185 205 0
179 201 0
180 203 0
182 204 0
183 204 0
182 204 0
182 204 0
182 204 0
183 204 0
182 204 0
182 204 0
181 203 0
182 204 0
182 204 0
180 201 0
182 204 0
181 203 0
183 204 0
179 202 0
182 204 0
181 202 0
180 203 0
183 204 0
183 204 0
181 203 0
182 204 0
182 204 0
181 202 0
182 204 0
181 203 0
183 204 0
181 203 0
182 204 0
181 203 0
182 204 0
182 204 0
183 204 0
179 202 0
183 204 0
181 203 0
184 205 0
183 203 0
183 204 0
179 202 0
179 201 0
180 203 0
182 204 0
183 204 0
181 203 0
180 202 0
182 204 0
180 202 0
182 204 0
181 202 0
182 204 0
181 203 0
181 202 0
181 203 0
182 204 0
181 203 0
180 202 0
179 201 0
184 205 0
181 203 0
179 202 0
181 202 0
183 204 0
183 204 0
180 202 0
180 202 0
179 200 0
178 200 0
182 204 0
182 204 0
180 202 0
182 204 0
179 201 0
182 204 0
181 202 0
180 202 0
179 202 0
184 205 0
182 203 0
183 204 0
181 203 0
179 201 0
183 204 0
182 204 0
182 203 0
181 203 0
180 203 0
181 203 0
182 204 0
182 204 0
183 204 0
180 203 0
183 204 0
183 204 0
183 204 0
184 205 0
180 202 0
184 204 0
181 202 0
184 205 0
181 203 0
183 204 0
181 202 0
182 203 0
183 204 0
181 203 0
182 204 0
181 203 0
182 204 0
179 202 0
182 204 0
181 202 0
183 204 0
181 203 0
181 203 0
182 204 0
183 204 0
181 203 0
180 203 0
180 202 0
179 202 0
180 202 0
184 205 0
184 205 0
180 202 0
182 203 0
181 203 0
179 201 0
181 203 0
183 204 0
183 204 0
181 203 0
181 203 0
183 204 0
180 202 0
183 204 0
183 204 0
185 205 0
180 202 0
182 203 0
182 203 0
183 204 0
184 204 0
184 205 0
183 204 0
182 204 0
182 204 0
182 204 0
183 204 0
180 202 0
182 204 0
182 204 0
182 204 0
179 202 0
181 203 0
182 204 0
179 201 0
181 203 0
180 201 0
182 203 0
181 203 0
179 202 0
183 204 0
181 203 0
182 204 0
179 202 0
184 204 0
182 204 0
185 205 0
182 204 0
183 204 0
179 202 0
182 204 0
180 202 0
183 204 0
180 202 0
181 202 0
182 204 0
181 203 0
180 202 0
181 202 0
181 203 0
182 204 0
184 205 0
183 204 0
185 205 0
183 204 0
182 204 0
179 202 0
183 204 0
182 204 0
181 202 0
180 202 0
178 201 0
182 204 0
181 202 0
182 203 0
180 202 0
180 203 0
182 204 0
180 202 0
182 204 0
181 203 0
184 205 0
180 201 0
182 204 0
182 203 0
182 203 0
181 203 0
184 205 0
181 203 0
183 204 0
179 201 0
183 204 0
179 202 0
181 203 0
183 204 0
181 202 0
182 204 0
182 204 0
180 203 0
182 204 0
183 204 0
182 204 0
181 203 0
179 201 0
181 203 0
178 200 0
184 205 0
183 204 0
181 203 0
182 203 0
181 203 0
184 205 0
183 204 0
181 203 0
182 204 0
182 204 0
181 203 0
185 205 0
181 203 0
181 203 0
179 202 0
183 204 0
182 204 0
180 202 0
179 202 0
182 204 0
183 204 0
183 204 0
180 203 0
184 205 0
184 205 0
183 204 0
182 204 0
182 204 0
182 204 0
182 204 0
182 204 0
182 204 0
181 203 0
182 203 0
182 203 0
180 203 0
182 204 0
179 201 0
181 203 0
181 203 0
181 203 0
184 205 0
182 204 0
181 203 0
181 203 0
184 205 0
182 204 0
181 203 0
181 203 0
179 202 0
183 204 0
182 203 0
181 203 0
183 204 0
180 203 0
178 201 0
181 203 0
179 201 0
182 204 0
181 203 0
183 204 0
183 204 0
181 203 0
183 204 0
182 204 0
182 203 0
183 204 0
182 204 0
181 203 0
184 205 0
181 203 0
184 205 0
183 204 0
183 204 0
177 200 0
181 203 0
183 204 0
183 204 0
181 203 0
183 204 0
181 203 0
178 202 0
184 205 0
181 203 0
182 204 0
183 204 0
179 202 0
183 204 0
182 204 0
183 204 0
180 203 0
181 203 0
181 203 0
183 204 0
181 203 0
181 203 0
186 206 0
183 204 0
181 203 0
182 204 0
183 204 0
183 204 0
181 202 0
182 204 0
181 203 0
183 204 0
185 205 0
182 203 0
182 204 0
180 202 0
183 204 0
182 204 0
183 204 0
181 203 0
182 204 0
182 204 0
181 203 0
185 205 0
180 203 0
180 203 0
183 204 0
181 203 0
182 204 0
183 204 0
182 204 0
182 203 0
183 203 0
182 204 0
183 204 0
181 203 0
179 201 0
183 204 0
180 203 0
181 203 0
181 203 0
181 203 0
181 203 0
182 204 0
180 203 0
181 203 0
183 204 0
181 203 0
181 202 0
183 204 0
180 203 0
180 202 0
183 204 0
183 204 0
182 204 0
183 204 0
178 200 0
183 204 0
179 202 0
181 203 0
184 205 0
181 203 0
182 203 0
181 203 0
183 204 0
182 204 0
183 204 0
181 203 0
182 204 0
179 202 0
181 202 0
182 204 0
183 204 0
182 204 0
185 205 0
183 204 0
181 203 0
181 203 0
181 203 0
182 204 0
182 203 0
181 202 0
180 202 0
181 203 0
181 203 0
182 204 0
180 202 0
183 204 0
181 203 0
180 202 0
182 204 0
181 203 0
184 205 0
184 205 0
183 204 0
182 203 0
185 205 0
181 203 0
183 204 0
182 204 0
184 204 0
181 202 0
181 202 0
181 203 0
180 203 0
180 201 0
180 202 0
183 204 0
181 203 0
181 203 0
181 203 0
180 203 0
181 202 0
182 203 0
182 204 0
181 203 0
181 203 0
181 203 0
177 200 0
182 204 0
180 202 0
184 205 0
184 205 0
183 204 0
182 204 0
180 202 0
180 202 0
182 203 0
181 203 0
181 203 0
182 204 0
178 201 0
179 201 0
182 203 0
180 202 0
180 202 0
179 201 0
183 204 0
182 204 0
180 201 0
182 204 0
184 205 0
180 203 0
182 204 0
182 204 0
182 204 0
182 203 0
182 204 0
184 205 0
180 202 0
182 203 0
180 203 0
181 203 0
181 202 0
182 204 0
183 204 0
180 203 0
180 203 0
180 202 0
183 204 0
178 201 0
182 204 0
181 202 0
183 204 0
181 202 0
181 203 0
180 202 0
181 203 0
183 204 0
183 204 0
182 204 0
181 203 0
180 203 0
181 203 0
182 204 0
183 204 0
184 205 0
182 204 0
180 202 0
182 204 0
182 204 0
183 204 0
178 201 0
183 204 0
181 202 0
180 202 0
181 203 0
179 201 0
181 203 0
182 204 0
184 205 0
180 203 0
179 201 0
181 203 0
183 204 0
183 204 0
183 204 0
180 202 0
183 204 0
181 203 0
184 205 0
183 204 0
183 204 0
181 203 0
180 203 0
183 204 0
180 203 0
181 203 0
181 203 0
182 204 0
181 203 0
182 204 0
184 205 0
181 203 0
182 204 0
181 203 0
181 202 0
181 203 0
183 204 0
183 204 0
181 203 0
181 203 0
182 204 0
181 203 0
183 204 0
183 204 0
182 203 0
184 204 0
181 203 0
183 204 0
181 203 0
181 203 0
184 205 0
183 203 0
184 205 0
183 204 0
182 204 0
182 204 0
184 204 0
182 204 0
183 204 0
182 203 0
180 202 0
181 202 0
182 204 0
180 202 0
180 203 0
182 204 0
182 204 0
184 205 0
181 203 0
181 202 0
179 202 0
182 204 0
183 204 0
181 203 0
182 204 0
181 203 0
183 204 0
183 204 0
180 203 0
182 204 0
181 202 0
182 204 0
181 203 0
182 203 0
182 203 0
182 204 0
182 204 0
182 204 0
181 203 0
182 204 0
182 204 0
179 201 0
181 202 0
182 204 0
181 203 0
181 203 0
183 204 0
182 204 0
182 204 0
182 204 0
182 203 0
183 204 0
182 204 0
182 204 0
181 203 0
180 202 0
181 202 0
183 204 0
178 201 0
180 202 0
183 204 0
179 201 0
182 204 0
183 204 0
182 204 0
182 204 0
181 203 0
182 204 0
183 204 0
182 203 0
183 204 0
184 205 0
182 204 0
180 203 0
181 203 0
180 202 0
181 203 0
178 200 0
179 201 0
182 204 0
181 202 0
183 204 0
182 204 0
182 204 0
181 203 0
183 204 0
181 203 0
184 205 0
182 204 0
180 202 0
182 204 0
182 204 0
180 203 0
182 204 0
182 203 0
182 204 0
180 203 0
182 203 0
179 202 0
182 204 0
177 201 0
181 202 0
182 203 0
182 204 0
183 204 0
179 202 0
182 204 0
181 203 0
182 204 0
182 204 0
182 204 0
181 203 0
181 203 0
182 204 0
182 204 0
181 203 0
181 203 0
181 203 0
179 202 0
183 204 0
183 204 0
182 204 0
182 204 0
181 203 0
180 202 0
182 204 0
182 204 0
181 203 0
183 204 0
181 203 0
181 203 0
183 204 0
182 203 0
182 204 0
180 203 0
182 204 0
182 204 0
179 202 0
182 204 0
181 203 0
180 203 0
182 204 0
183 204 0
180 202 0
183 204 0
182 204 0
182 203 0
182 204 0
181 203 0
182 204 0
180 203 0
182 204 0
180 203 0
182 204 0
181 203 0
181 203 0
184 205 0
182 204 0
181 203 0
182 204 0
182 204 0
181 203 0
181 203 0
180 203 0
181 203 0
184 205 0
183 204 0
181 203 0
183 204 0
181 203 0
182 204 0
182 204 0
181 203 0
184 205 0
184 205 0
182 204 0
182 204 0
183 204 0
184 205 0
184 205 0
182 204 0
185 205 0
182 204 0
182 204 0
180 202 0
180 203 0
181 203 0
181 202 0
182 204 0
178 201 0
180 203 0
183 203 0
182 204 0
181 203 0
181 203 0
181 203 0
182 204 0
181 203 0
182 204 0
184 205 0
184 205 0
183 204 0
181 203 0
181 203 0
184 205 0
181 203 0
183 204 0
181 203 0
181 203 0
184 205 0
183 204 0
181 203 0
180 202 0
182 204 0
180 203 0
183 204 0
182 203 0
182 204 0
182 204 0
183 204 0
182 204 0
182 204 0
181 202 0
181 203 0
182 203 0
180 202 0
181 203 0
183 204 0
181 203 0
181 203 0
183 204 0
183 204 0
182 203 0
182 204 0
183 204 0
183 204 0
177 200 0
182 204 0
180 202 0
180 203 0
180 203 0
180 203 0
180 202 0
180 203 0
183 204 0
181 203 0
180 202 0
182 204 0
181 203 0
184 205 0
186 206 0
183 204 0
182 204 0
183 204 0
182 204 0
182 204 0
183 204 0
183 204 0
183 204 0
183 204 0
181 203 0
183 204 0
181 203 0
181 203 0
183 204 0
179 201 0
182 203 0
178 201 0
181 203 0
182 204 0
181 203 0
183 204 0
183 204 0
181 202 0
180 203 0
181 203 0
182 203 0
181 203 0
180 202 0
183 204 0
181 203 0
181 202 0
178 200 0
181 203 0
183 204 0
181 203 0
181 203 0
184 205 0
181 202 0
182 204 0
181 203 0
181 203 0
181 203 0
179 202 0
184 205 0
182 204 0
180 202 0
179 201 0
179 202 0
182 204 0
181 203 0
184 205 0
182 204 0
181 203 0
180 202 0
182 204 0
180 201 0
183 204 0
181 203 0
182 204 0
182 204 0
184 205 0
184 205 0
178 200 0
182 204 0
182 204 0
183 204 0
180 202 0
180 202 0
178 200 0
184 205 0
183 204 0
182 203 0
181 203 0
180 203 0
183 204 0
180 202 0
180 203 0
182 204 0
183 204 0
182 203 0
180 202 0
179 201 0
184 205 0
182 204 0
180 203 0
181 203 0
180 203 0
181 203 0
180 202 0
183 204 0
181 203 0
183 204 0
184 205 0
179 200 0
180 202 0
182 204 0
183 204 0
180 202 0
182 203 0
180 202 0
182 204 0
180 202 0
181 203 0
183 204 0
181 203 0
183 204 0
183 204 0
181 203 0
182 203 0
184 205 0
181 202 0
183 204 0
182 203 0
182 203 0
181 203 0
178 201 0
183 204 0
179 201 0
183 204 0
182 203 0
182 204 0
180 203 0
182 204 0
183 204 0
183 204 0
182 203 0
182 204 0
180 203 0
181 203 0
181 203 0
179 201 0
181 202 0
181 202 0
184 205 0
182 204 0
182 204 0
182 204 0
182 204 0
184 205 0
182 204 0
183 204 0
181 202 0
181 203 0
182 204 0
182 204 0
180 203 0
182 204 0
180 203 0
178 201 0
182 204 0
181 203 0
183 204 0
182 204 0
180 202 0
184 205 0
182 204 0
183 204 0
178 200 0
182 204 0
181 203 0
182 204 0
181 203 0
181 203 0
180 203 0
181 203 0
180 202 0
179 200 0
182 204 0
181 203 0
181 203 0
182 204 0
178 200 0
182 204 0
184 205 0
178 201 0
183 204 0
182 204 0
179 201 0
182 204 0
181 203 0
180 202 0
183 204 0
180 202 0
181 203 0
182 203 0
178 200 0
182 203 0
182 204 0
179 202 0
182 204 0
183 204 0
180 202 0
180 202 0
180 202 0
180 202 0
182 204 0
180 201 0
181 203 0
181 203 0
182 204 0
181 203 0
179 202 0
183 204 0
181 202 0
181 202 0
182 204 0
182 204 0
181 203 0
182 204 0
182 204 0
182 204 0
181 203 0
181 203 0
180 203 0
180 202 0
184 205 0
182 204 0
183 204 0
182 203 0
181 203 0
184 205 0
180 201 0
183 204 0
182 203 0
182 204 0
181 203 0
184 205 0
177 201 0
180 202 0
182 204 0
180 202 0
181 203 0
181 203 0
183 204 0
180 203 0
181 203 0
182 204 0
181 203 0
182 204 0
181 203 0
182 204 0
179 201 0
182 203 0
185 205 0
186 206 0
182 203 0
181 203 0
179 202 0
181 203 0
181 202 0
182 204 0
181 203 0
179 201 0
183 204 0
182 203 0
183 204 0
180 203 0
181 203 0
181 203 0
182 204 0
182 203 0
180 202 0
182 204 0
180 202 0
183 204 0
182 203 0
183 204 0
181 203 0
181 203 0
182 204 0
182 203 0
183 204 0
181 202 0
182 204 0
181 203 0
182 204 0
182 204 0
180 203 0
181 203 0
184 205 0
182 204 0
182 204 0
182 204 0
180 203 0
181 203 0
181 203 0
182 204 0
183 204 0
182 204 0
182 204 0
182 204 0
182 204 0
182 204 0
183 204 0
182 204 0
182 204 0
182 204 0
182 204 0
184 205 0
179 202 0
183 204 0
181 203 0
183 204 0
183 204 0
183 204 0
181 203 0
178 201 0
181 203 0
182 204 0
182 204 0
182 204 0
183 204 0
185 205 0
181 203 0
183 204 0
182 204 0
182 204 0
182 204 0
181 203 0
182 204 0
182 204 0
181 203 0
180 203 0
182 204 0
183 204 0
181 203 0
181 203 0
180 202 0
181 203 0
183 204 0
184 205 0
182 204 0
182 204 0
184 205 0
184 205 0
182 203 0
182 203 0
182 203 0
183 204 0
180 203 0
185 205 0
183 204 0
182 204 0
180 203 0
184 205 0
183 204 0
181 203 0
183 204 0
182 203 0
179 202 0
182 204 0
181 203 0
182 204 0
183 204 0
182 204 0
180 203 0
181 203 0
182 204 0
179 202 0
181 203 0
182 204 0
182 203 0
182 204 0
179 201 0
182 204 0
182 204 0
181 203 0
183 204 0
185 205 0
183 204 0
180 203 0
182 204 0
182 204 0
183 204 0
178 200 0
185 205 0
183 204 0
181 202 0
181 203 0
182 203 0
182 204 0
182 204 0
181 203 0
183 204 0
182 204 0
183 204 0
182 204 0
183 204 0
181 202 0
181 203 0
183 204 0
182 204 0
182 204 0
184 205 0
181 203 0
178 202 0
181 203 0
181 203 0
182 204 0
179 202 0
182 204 0
182 204 0
183 204 0
182 204 0
183 203 0
181 203 0
182 204 0
180 202 0
181 203 0
184 205 0
178 201 0
179 201 0
180 203 0
183 204 0
182 204 0
183 204 0
181 203 0
181 203 0
181 203 0
180 202 0
183 204 0
181 203 0
181 203 0
179 202 0
180 203 0
182 203 0
183 204 0
181 203 0
182 203 0
183 204 0
180 203 0
182 204 0
180 203 0
181 203 0
181 203 0
183 204 0
180 203 0
180 202 0
182 204 0
182 204 0
182 203 0
181 203 0
178 200 0
182 204 0
181 203 0
185 205 0
183 203 0
178 201 0
182 204 0
184 205 0
182 204 0
181 203 0
181 203 0
178 199 0
182 203 0
178 200 0
181 202 0
182 204 0
181 203 0
182 204 0
179 202 0
182 204 0
180 203 0
182 204 0
179 201 0
183 204 0
183 204 0
182 204 0
181 202 0
182 204 0
181 202 0
179 202 0
185 205 0
181 203 0
182 204 0
182 204 0
182 203 0
181 203 0
178 201 0
182 204 0
180 203 0
183 204 0
183 204 0
180 202 0
183 204 0
182 203 0
181 203 0
182 204 0
183 204 0
179 202 0
180 203 0
183 204 0
182 204 0
181 203 0
181 203 0
180 202 0
181 203 0
182 203 0
182 204 0
181 202 0
179 202 0
183 204 0
181 203 0
181 203 0
180 202 0
183 204 0
179 201 0
181 203 0
183 204 0
180 203 0
181 203 0
182 204 0
181 203 0
181 203 0
183 204 0
181 203 0
183 204 0
179 202 0
183 204 0
181 203 0
183 204 0
183 204 0
181 203 0
182 204 0
178 201 0
182 204 0
182 204 0
180 203 0
182 204 0
180 202 0
183 204 0
184 205 0
181 203 0
182 204 0
182 204 0
183 204 0
180 203 0
183 204 0
180 202 0
176 198 0
182 204 0
180 203 0
183 204 0
181 203 0
180 202 0
178 202 0
183 204 0
181 203 0
180 203 0
183 204 0
181 203 0
180 202 0
181 202 0
181 203 0
183 204 0
182 204 0
182 204 0
180 202 0
185 205 0
180 202 0
181 203 0
180 203 0
182 204 0
180 202 0
180 201 0
180 203 0
181 203 0
182 204 0
184 205 0
181 203 0
180 202 0
180 203 0
180 203 0
183 203 0
183 204 0
181 203 0
183 204 0
181 203 0
181 203 0
180 203 0
180 202 0
181 202 0
181 203 0
180 203 0
181 203 0
180 202 0
178 201 0
182 204 0
183 204 0
181 202 0
182 204 0
182 204 0
180 202 0
180 201 0
181 203 0
183 203 0
179 202 0
182 204 0
183 204 0
181 203 0
181 203 0
181 202 0
180 202 0
182 204 0
182 204 0
180 202 0
184 205 0
183 204 0
181 203 0
183 204 0
180 201 0
184 205 0
182 203 0
181 202 0
181 203 0
183 204 0
183 204 0
182 204 0
181 203 0
180 202 0
182 204 0
182 204 0
182 204 0
180 202 0
181 203 0
183 204 0
182 204 0
181 202 0
180 202 0
181 203 0
179 201 0
184 205 0
181 203 0
182 204 0
181 202 0
183 204 0
179 201 0
182 204 0
183 204 0
182 204 0
182 204 0
182 204 0
183 204 0
181 203 0
183 204 0
184 205 0
179 201 0
181 203 0
181 203 0
182 204 0
182 204 0
177 201 0
182 204 0
183 204 0
183 204 0
184 205 0
181 203 0
184 205 0
181 203 0
184 205 0
180 202 0
184 205 0
181 203 0
183 204 0
182 203 0
181 202 0
182 204 0
183 204 0
181 203 0
181 203 0
182 204 0
183 204 0
182 204 0
181 203 0
182 204 0
183 204 0
182 204 0
181 203 0
183 204 0
181 202 0
181 203 0
184 205 0
184 205 0
183 204 0
180 202 0
182 204 0
181 203 0
180 203 0
181 203 0
181 203 0
181 203 0
183 204 0
183 204 0
182 204 0
183 204 0
182 204 0
181 203 0
181 203 0
181 203 0
182 204 0
183 204 0
180 202 0
180 203 0
182 204 0
180 203 0
182 204 0
182 204 0
183 204 0
181 203 0
183 204 0
181 203 0
180 203 0
182 204 0
184 205 0
181 203 0
182 204 0
180 203 0
183 204 0
182 204 0
184 205 0
181 203 0
183 204 0
181 203 0
182 204 0
183 204 0
184 205 0
182 203 0
181 203 0
182 204 0
182 204 0
184 205 0
182 204 0
183 204 0
180 203 0
181 203 0
182 204 0
181 203 0
180 203 0
182 204 0
181 203 0
181 203 0
180 203 0
181 203 0
181 203 0
180 202 0
182 204 0
183 204 0
183 204 0
180 203 0
182 204 0
182 204 0
182 204 0
181 203 0
182 204 0
180 203 0
183 204 0
181 203 0
182 204 0
182 204 0
182 204 0
180 203 0
180 202 0
181 203 0
182 204 0
181 203 0
182 204 0
181 203 0
181 203 0
180 202 0
182 203 0
181 203 0
182 204 0
182 203 0
183 204 0
179 201 0
183 204 0
183 204 0
184 205 0
181 203 0
182 204 0
183 204 0
180 202 0
182 204 0
180 203 0
176 200 0
183 204 0
182 204 0
183 204 0
179 202 0
182 204 0
181 203 0
182 204 0
179 202 0
180 202 0
182 204 0
180 202 0
183 204 0
181 203 0
182 204 0
182 204 0
182 204 0
181 203 0
181 203 0
182 203 0
180 203 0
182 204 0
179 202 0
181 203 0
183 204 0
181 203 0
180 202 0
180 202 0
183 204 0
182 204 0
181 203 0
182 203 0
181 203 0
184 205 0
183 204 0
181 203 0
181 203 0
182 204 0
181 203 0
182 204 0
183 204 0
181 203 0
181 203 0
180 203 0
183 204 0
181 203 0
181 203 0
183 204 0
181 203 0
180 202 0
182 204 0
181 203 0
183 204 0
182 202 0
182 204 0
182 203 0
181 202 0
182 204 0
183 204 0
181 203 0
182 203 0
183 204 0
179 202 0
180 201 0
181 203 0
180 203 0
182 204 0
180 202 0
179 201 0
181 203 0
182 204 0
181 203 0
181 203 0
183 204 0
179 201 0
180 202 0
182 203 0
180 203 0
182 203 0
182 204 0
184 205 0
183 204 0
181 203 0
182 204 0
179 201 0
180 202 0
182 204 0
182 204 0
181 203 0
178 200 0
180 202 0
180 203 0
181 203 0
182 204 0
182 204 0
182 203 0
181 203 0
180 202 0
180 201 0
182 204 0
183 204 0
180 203 0
181 203 0
181 203 0
182 204 0
181 203 0
184 205 0
182 204 0
182 204 0
178 200 0
182 203 0
181 203 0
181 203 0
182 204 0
184 205 0
182 204 0
182 204 0
183 204 0
184 205 0
182 204 0
181 203 0
181 203 0
184 205 0
182 204 0
179 201 0
182 204 0
183 204 0
182 204 0
181 203 0
180 202 0
181 203 0
182 204 0
184 205 0
181 203 0
182 204 0
182 203 0
184 205 0
181 203 0
182 204 0
181 203 0
180 203 0
182 203 0
181 203 0
180 203 0
181 202 0
182 204 0
181 203 0
179 201 0
185 205 0
182 204 0
181 203 0
181 203 0
181 203 0
183 204 0
179 201 0
181 203 0
183 204 0
183 204 0
183 204 0
181 203 0
183 204 0
183 204 0
184 205 0
180 203 0
182 204 0
182 204 0
182 204 0
182 204 0
183 204 0
183 204 0
182 204 0
179 202 0
180 202 0
183 204 0
182 203 0
182 203 0
181 203 0
182 204 0
182 204 0
181 202 0
180 202 0
182 203 0
182 204 0
180 202 0
182 204 0
180 201 0
180 203 0
181 203 0
177 198 0
180 202 0
183 204 0
179 202 0
180 203 0
182 204 0
182 203 0
179 202 0
182 203 0
182 204 0
182 204 0
181 202 0
182 203 0
183 204 0
182 204 0
183 204 0
181 203 0
180 203 0
182 204 0
183 204 0
181 203 0
180 203 0
183 204 0
181 203 0
181 203 0
180 202 0
182 204 0
182 204 0
178 200 0
179 201 0
180 202 0
181 202 0
184 205 0
181 203 0
184 205 0
183 204 0
183 204 0
182 204 0
183 204 0
182 204 0
182 204 0
181 203 0
180 202 0
181 203 0
182 204 0
180 202 0
182 204 0
179 202 0
181 203 0
181 203 0
179 201 0
182 204 0
182 204 0
184 205 0
184 205 0
183 204 0
178 201 0
182 204 0
182 204 0
182 203 0
180 203 0
183 204 0
181 203 0
184 205 0
181 203 0
180 203 0
182 203 0
184 205 0
183 204 0
181 203 0
182 204 0
182 204 0
182 204 0
183 204 0
181 203 0
181 203 0
182 203 0
183 204 0
181 203 0
182 204 0
181 203 0
183 204 0
180 203 0
181 203 0
183 204 0
181 203 0
180 202 0
182 204 0
180 203 0
181 203 0
182 204 0
182 204 0
181 203 0
181 202 0
181 202 0
184 205 0
182 204 0
182 204 0
183 204 0
181 203 0
180 203 0
182 204 0
181 203 0
180 202 0
183 204 0
182 204 0
181 203 0
182 204 0
184 205 0
183 204 0
182 204 0
182 204 0
181 203 0
182 204 0
183 204 0
182 204 0
183 204 0
181 203 0
180 202 0
181 202 0
184 205 0
184 205 0
181 203 0
182 204 0
181 203 0
180 203 0
181 203 0
180 202 0
182 204 0
180 203 0
183 204 0
182 204 0
183 204 0
182 204 0
184 205 0
181 203 0
185 205 0
183 204 0
181 203 0
179 202 0
182 203 0
182 204 0
183 204 0
182 204 0
181 203 0
181 203 0
180 203 0
182 203 0
181 203 0
183 204 0
182 204 0
182 203 0
184 205 0
179 202 0
180 203 0
181 203 0
181 203 0
180 203 0
182 204 0
181 203 0
182 204 0
182 204 0
185 205 0
181 203 0
183 204 0
183 204 0
180 203 0
181 203 0
182 204 0
183 204 0
182 204 0
182 204 0
183 204 0
183 204 0
182 204 0
181 203 0
184 205 0
182 204 0
182 204 0
183 204 0
182 204 0
181 203 0
181 203 0
184 205 0
182 204 0
182 204 0
180 203 0
180 203 0
182 204 0
182 204 0
180 202 0
181 203 0
184 204 0
182 204 0
182 204 0
181 203 0
183 204 0
181 203 0
183 204 0
182 204 0
182 204 0
183 204 0
183 204 0
181 203 0
181 202 0
180 203 0
183 204 0
179 201 0
183 204 0
180 203 0
182 204 0
181 203 0
180 202 0
181 203 0
181 203 0
181 203 0
180 202 0
182 204 0
179 202 0
183 204 0
183 204 0
183 204 0
184 205 0
181 203 0
182 204 0
182 203 0
180 201 0
182 203 0
179 201 0
181 203 0
182 204 0
184 205 0
180 202 0
182 203 0
180 203 0
183 204 0
181 203 0
182 204 0
183 204 0
183 204 0
182 204 0
183 204 0
182 204 0
182 204 0
182 204 0
179 202 0
182 204 0
180 202 0
181 203 0
180 202 0
182 203 0
180 203 0
182 204 0
182 204 0
183 204 0
178 201 0
180 203 0
180 203 0
181 202 0
182 204 0
183 203 0
182 204 0
184 205 0
181 203 0
181 203 0
177 200 0
183 204 0
182 204 0
182 204 0
181 203 0
182 204 0
183 204 0
180 202 0
183 204 0
181 203 0
183 204 0
179 201 0
181 203 0
183 204 0
183 204 0
181 202 0
181 203 0
183 204 0
179 201 0
182 204 0
181 203 0
183 204 0
183 204 0
183 204 0
183 204 0
182 203 0
182 203 0
183 204 0
182 204 0
179 201 0
182 203 0
182 204 0
180 202 0
182 204 0
180 203 0
181 202 0
183 204 0
182 204 0
181 203 0
183 203 0
181 203 0
179 202 0
183 204 0
183 204 0
180 203 0
181 203 0
181 203 0
181 203 0
180 202 0
181 203 0
181 203 0
180 202 0
181 203 0
181 203 0
182 203 0
181 202 0
181 203 0
183 204 0
181 203 0
181 202 0
183 204 0
181 203 0
181 203 0
181 203 0
178 200 0
181 203 0
179 202 0
182 204 0
180 203 0
180 202 0
183 204 0
181 203 0
179 201 0
181 203 0
182 203 0
185 205 0
182 203 0
181 203 0
180 203 0
181 203 0
181 203 0
183 204 0
181 203 0
181 202 0
179 201 0
181 203 0
181 203 0
180 202 0
181 203 0
183 204 0
183 204 0
184 205 0
181 203 0
181 203 0
182 203 0
183 204 0
178 200 0
180 203 0
181 203 0
182 204 0
181 203 0
181 203 0
183 204 0
181 203 0
184 204 0
181 203 0
181 203 0
181 202 0
181 203 0
182 203 0
183 204 0
182 203 0
183 204 0
181 203 0
182 203 0
184 205 0
181 203 0
183 204 0
182 204 0
182 203 0
181 203 0
184 205 0
182 204 0
182 204 0
182 204 0
179 201 0
182 203 0
179 202 0
178 200 0
183 204 0
182 204 0
180 202 0
181 203 0
182 204 0
181 202 0
180 202 0
183 204 0
181 203 0
180 203 0
180 202 0
182 204 0
183 204 0
183 204 0
180 202 0
182 204 0
182 204 0
180 202 0
182 204 0
182 204 0
183 204 0
179 201 0
179 201 0
182 204 0
181 203 0
179 202 0
180 202 0
182 203 0
182 203 0
179 201 0
180 203 0
180 203 0
181 203 0
183 204 0
180 201 0
182 203 0
182 204 0
183 204 0
181 203 0
181 203 0
182 204 0
179 202 0
181 203 0
183 204 0
180 203 0
181 203 0
180 202 0
181 203 0
182 204 0
182 204 0
182 204 0
181 203 0
180 202 0
181 203 0
182 203 0
182 204 0
179 201 0
182 204 0
183 204 0
184 205 0
182 204 0
177 200 0
183 204 0
182 203 0
183 204 0
180 202 0
181 203 0
183 204 0
183 204 0
182 204 0
182 204 0
183 204 0
178 200 0
182 204 0
182 204 0
182 204 0
180 203 0
181 203 0
180 203 0
183 204 0
181 203 0
183 204 0
182 204 0
179 201 0
182 204 0
179 201 0
184 205 0
181 203 0
179 202 0
183 204 0
183 204 0
182 204 0
182 204 0
180 203 0
181 203 0
178 200 0
182 204 0
182 204 0
183 204 0
182 204 0
183 204 0
181 203 0
181 203 0
183 204 0
182 204 0
181 203 0
179 202 0
185 205 0
184 205 0
183 204 0
181 203 0
180 203 0
181 203 0
183 204 0
181 203 0
180 203 0
183 204 0
180 203 0
183 204 0
183 204 0
182 204 0
182 204 0
181 203 0
182 204 0
180 202 0
181 203 0
182 204 0
181 203 0
180 203 0
182 204 0
180 203 0
185 205 0
182 204 0
183 204 0
182 204 0
181 203 0
182 204 0
182 203 0
183 204 0
180 203 0
181 203 0
183 204 0
180 203 0
184 205 0
184 204 0
183 204 0
183 204 0
182 204 0
182 204 0
183 204 0
183 204 0
181 203 0
181 203 0
182 204 0
182 203 0
180 203 0
180 203 0
182 204 0
182 204 0
179 201 0
182 204 0
180 203 0
179 202 0
182 204 0
182 204 0
182 203 0
183 204 0
181 203 0
180 203 0
181 203 0
181 203 0
177 200 0
183 204 0
181 203 0
182 204 0
185 205 0
183 204 0
182 203 0
180 203 0
181 203 0
184 205 0
183 204 0
183 204 0
183 204 0
182 204 0
180 203 0
181 203 0
181 203 0
180 203 0
182 204 0
183 203 0
182 204 0
180 203 0
183 204 0
184 205 0
183 204 0
182 204 0
182 204 0
183 204 0
180 202 0
181 203 0
181 203 0
181 203 0
183 204 0
184 205 0
179 201 0
180 203 0
181 203 0
183 204 0
181 203 0
181 203 0
182 204 0
182 204 0
182 204 0
182 204 0
182 204 0
182 204 0
183 204 0
183 204 0
182 204 0
182 204 0
179 202 0
183 204 0
183 204 0
180 202 0
183 204 0
182 204 0
183 204 0
179 201 0
181 203 0
182 204 0
182 203 0
182 203 0
182 204 0
181 203 0
180 203 0
180 203 0
183 204 0
181 203 0
182 204 0
180 202 0
182 204 0
181 203 0
181 203 0
180 203 0
182 204 0
181 203 0
179 201 0
182 204 0
181 203 0
184 205 0
180 202 0
182 204 0
181 202 0
175 199 0
181 203 0
184 205 0
182 204 0
180 203 0
182 203 0
182 204 0
181 203 0
182 203 0
181 203 0
180 203 0
181 202 0
182 203 0
181 203 0
182 204 0
183 204 0
184 205 0
181 203 0
179 201 0
184 205 0
180 202 0
182 204 0
182 204 0
181 203 0
181 203 0
179 201 0
183 204 0
183 204 0
182 204 0
181 203 0
181 202 0
181 203 0
181 203 0
181 203 0
181 203 0
182 204 0
179 201 0
183 204 0
180 202 0
180 202 0
181 203 0
178 201 0
181 203 0
179 201 0
183 203 0
181 203 0
184 204 0
181 203 0
182 204 0
182 204 0
184 205 0
183 204 0
180 203 0
179 202 0
182 204 0
183 204 0
182 203 0
184 205 0
183 204 0
180 201 0
182 204 0
181 203 0
179 202 0
182 204 0
177 200 0
184 205 0
181 203 0
182 204 0
182 203 0
182 204 0
182 204 0
182 204 0
182 204 0
184 205 0
181 203 0
182 204 0
181 202 0
180 201 0
182 204 0
181 203 0
183 204 0
181 202 0
180 203 0
183 204 0
184 204 0
183 204 0
182 204 0
181 202 0
183 204 0
183 204 0
180 202 0
183 203 0
183 204 0
181 203 0
181 203 0
178 201 0
182 204 0
181 203 0
181 203 0
182 204 0
182 204 0
182 204 0
180 203 0
181 202 0
181 203 0
181 203 0
184 205 0
181 203 0
182 204 0
178 202 0
182 204 0
179 202 0
181 203 0
181 203 0
184 205 0
181 203 0
182 204 0
184 204 0
182 203 0
179 201 0
182 203 0
183 204 0
183 204 0
182 204 0
180 203 0
183 204 0
182 204 0
179 201 0
183 204 0
183 204 0
181 203 0
182 204 0
179 202 0
182 204 0
180 202 0
183 204 0
179 201 0
180 203 0
183 204 0
181 203 0
177 201 0
182 203 0
182 203 0
180 202 0
181 203 0
181 203 0
183 204 0
183 204 0
182 203 0
181 202 0
181 203 0
181 203 0
181 203 0
182 204 0
181 203 0
178 200 0
180 201 0
181 203 0
182 204 0
180 202 0
180 202 0
178 200 0
179 202 0
181 203 0
185 205 0
181 202 0
181 203 0
183 204 0
179 201 0
181 202 0
181 202 0
183 204 0
180 202 0
181 203 0
183 204 0
183 204 0
183 204 0
180 202 0
182 204 0
179 202 0
183 204 0
180 203 0
183 204 0
181 203 0
183 204 0
181 203 0
182 203 0
180 201 0
181 203 0
180 202 0
181 202 0
181 203 0
181 203 0
184 205 0
180 203 0
181 203 0
177 199 0
181 203 0
181 203 0
184 205 0
180 202 0
184 205 0
181 202 0
177 200 0
178 200 0
181 202 0
181 203 0
182 204 0
181 203 0
180 203 0
182 204 0
182 204 0
177 200 0
182 204 0
182 204 0
180 203 0
180 202 0
182 204 0
182 204 0
179 201 0
183 204 0
181 203 0
179 201 0
178 200 0
183 204 0
182 204 0
179 201 0
183 204 0
181 203 0
182 204 0
181 203 0
183 204 0
181 203 0
180 202 0
178 201 0
179 202 0
183 204 0
181 203 0
183 204 0
181 203 0
181 203 0
181 203 0
181 203 0
182 203 0
182 203 0
183 204 0
180 203 0
183 204 0
181 203 0
185 205 0
181 203 0
181 203 0
179 201 0
182 204 0
181 203 0
180 202 0
183 204 0
184 205 0
182 204 0
180 203 0
181 203 0
177 200 0
180 203 0
183 204 0
184 205 0
183 204 0
183 204 0
184 205 0
183 204 0
183 204 0
182 204 0
181 203 0
180 202 0
181 203 0
182 203 0
184 205 0
181 203 0
184 205 0
182 203 0
182 204 0
181 203 0
182 204 0
179 202 0
181 203 0
181 202 0
181 203 0
186 206 0
181 203 0
183 204 0
183 204 0
181 203 0
183 204 0
180 203 0
182 204 0
182 204 0
183 204 0
182 204 0
185 205 0
182 204 0
183 204 0
183 204 0
182 204 0
183 204 0
182 204 0
179 202 0
182 204 0
184 204 0
180 203 0
181 202 0
181 203 0
182 204 0
182 204 0
183 204 0
182 204 0
181 203 0
183 204 0
183 204 0
180 203 0
182 204 0
182 204 0
182 203 0
184 205 0
182 204 0
183 204 0
181 203 0
184 205 0
181 203 0
185 205 0
182 204 0
182 203 0
184 205 0
184 205 0
183 204 0
181 202 0
181 203 0
182 204 0
182 204 0
180 203 0
184 205 0
183 204 0
181 203 0
181 203 0
180 202 0
180 203 0
182 204 0
184 205 0
181 203 0
180 203 0
181 203 0
180 203 0
183 204 0
183 204 0
180 202 0
183 204 0
183 204 0
184 205 0
182 204 0
182 204 0
181 203 0
180 202 0
183 204 0
182 204 0
181 203 0
181 203 0
179 201 0
182 204 0
183 204 0
183 204 0
182 204 0
178 200 0
183 204 0
180 201 0
184 205 0
182 204 0
182 204 0
184 205 0
181 203 0
180 202 0
179 201 0
182 203 0
181 203 0
180 203 0
181 203 0
180 203 0
182 204 0
183 204 0
182 204 0
181 203 0
180 203 0
183 204 0
182 204 0
183 204 0
181 203 0
181 203 0
180 202 0
182 204 0
182 204 0
181 202 0
180 202 0
180 202 0
179 201 0
182 204 0
182 204 0
180 202 0
181 203 0
183 204 0
183 204 0
183 204 0
183 204 0
183 204 0
182 204 0
182 204 0
181 203 0
182 204 0
179 202 0
183 204 0
181 203 0
179 201 0
179 201 0
181 203 0
183 204 0
182 204 0
182 204 0
182 204 0
179 202 0
184 205 0
179 202 0
180 203 0
184 204 0
179 202 0
178 200 0
180 203 0
180 202 0
183 204 0
181 203 0
183 204 0
181 203 0
181 203 0
182 204 0
182 204 0
181 203 0
181 202 0
183 203 0
183 204 0
182 204 0
180 203 0
180 202 0
179 202 0
180 203 0
181 202 0
181 202 0
183 204 0
183 204 0
183 204 0
180 201 0
182 203 0
178 199 0
181 203 0
184 205 0
180 202 0
182 204 0
182 204 0
181 203 0
181 203 0
181 203 0
181 202 0
182 204 0
182 204 0
185 205 0
182 204 0
181 203 0
181 203 0
180 202 0
181 203 0
181 203 0
179 201 0
178 200 0
180 202 0
182 204 0
182 204 0
181 203 0
181 203 0
181 203 0
180 202 0
183 204 0
182 203 0
179 201 0
181 203 0
180 202 0
183 204 0
182 204 0
181 203 0
184 205 0
185 205 0
181 203 0
182 204 0
181 203 0
183 204 0
181 203 0
183 204 0
183 204 0
180 203 0
182 204 0
180 202 0
182 203 0
180 202 0
183 204 0
183 204 0
181 203 0
181 203 0
183 204 0
181 203 0
183 204 0
182 204 0
182 203 0
181 203 0
183 204 0
180 202 0
180 203 0
184 205 0
184 205 0
184 205 0
181 203 0
181 203 0
180 203 0
181 202 0
183 204 0
182 204 0
181 203 0
181 203 0
183 204 0
182 203 0
182 204 0
181 203 0
180 202 0
180 202 0
182 204 0
180 202 0
181 203 0
182 204 0
182 204 0
182 204 0
181 203 0
179 201 0
182 203 0
181 203 0
182 204 0
179 201 0
182 204 0
180 203 0
181 203 0
181 201 0
183 204 0
180 202 0
182 203 0
180 202 0
182 204 0
182 204 0
181 203 0
181 203 0
181 203 0
180 202 0
179 202 0
182 204 0
182 204 0
182 204 0
183 204 0
182 204 0
181 203 0
182 204 0
183 204 0
180 203 0
180 202 0
182 204 0
184 205 0
181 203 0
178 200 0
181 203 0
184 205 0
179 201 0
181 203 0
180 203 0
183 204 0
181 202 0
182 204 0
179 201 0
182 204 0
182 204 0
177 201 0
181 203 0
183 204 0
182 204 0
179 201 0
182 204 0
179 202 0
181 203 0
179 202 0
181 203 0
180 202 0
183 204 0
183 204 0
181 203 0
183 204 0
182 203 0
182 204 0
181 203 0
182 204 0
183 204 0
181 203 0
181 202 0
183 204 0
183 204 0
182 203 0
183 204 0
183 204 0
181 203 0
180 203 0
179 201 0
182 204 0
182 204 0
180 203 0
181 203 0
179 202 0
181 203 0
182 204 0
183 204 0
182 204 0
183 204 0
182 204 0
181 203 0
181 202 0
182 203 0
183 204 0
180 203 0
184 205 0
182 203 0
182 203 0
182 203 0
181 203 0
183 204 0
181 203 0
182 204 0
181 203 0
183 204 0
183 204 0
182 204 0
183 204 0
181 203 0
181 203 0
179 202 0
180 203 0
181 203 0
181 203 0
183 204 0
182 204 0
182 204 0
180 203 0
181 203 0
183 204 0
180 203 0
181 203 0
182 204 0
183 204 0
182 204 0
182 204 0
182 204 0
183 204 0
181 203 0
182 204 0
184 205 0
182 204 0
183 204 0
182 203 0
182 204 0
181 203 0
181 203 0
179 202 0
184 205 0
182 204 0
180 202 0
182 204 0
184 205 0
181 203 0
180 203 0
182 204 0
185 205 0
183 204 0
181 203 0
181 203 0
183 204 0
184 205 0
183 204 0
181 203 0
183 204 0
181 203 0
181 203 0
184 205 0
184 205 0
181 202 0
183 204 0
182 204 0
180 203 0
179 202 0
181 203 0
181 203 0
180 203 0
181 203 0
184 205 0
183 204 0
184 205 0
182 204 0
181 203 0
180 203 0
180 203 0
182 204 0
179 202 0
181 203 0
181 203 0
181 202 0
179 202 0
183 204 0
185 205 0
182 204 0
182 204 0
182 204 0
182 204 0
184 205 0
182 204 0
181 203 0
183 204 0
184 205 0
182 204 0
182 203 0
180 203 0
183 204 0
184 205 0
181 203 0
181 203 0
181 203 0
182 204 0
180 203 0
180 203 0
181 203 0
181 203 0
182 204 0
180 203 0
180 203 0
182 203 0
180 203 0
180 203 0
183 204 0
182 203 0
180 202 0
182 203 0
182 203 0
183 204 0
182 204 0
182 204 0
183 204 0
183 204 0
181 203 0
182 203 0
180 203 0
180 203 0
179 201 0
182 204 0
182 204 0
181 203 0
182 204 0
181 203 0
180 203 0
181 203 0
181 203 0
182 204 0
181 203 0
183 204 0
181 203 0
182 204 0
182 204 0
183 204 0
179 202 0
182 204 0
184 204 0
183 204 0
181 203 0
182 204 0
183 204 0
182 203 0
182 204 0
181 203 0
178 200 0
180 202 0
178 201 0
181 203 0
183 204 0
182 204 0
178 201 0
179 202 0
183 204 0
182 204 0
181 203 0
181 203 0
181 203 0
182 203 0
181 202 0
183 204 0
181 203 0
181 203 0
184 205 0
179 202 0
182 203 0
180 203 0
181 203 0
179 202 0
181 203 0
182 204 0
184 204 0
183 204 0
180 203 0
181 203 0
178 200 0
178 201 0
181 203 0
182 204 0
183 204 0
184 205 0
184 205 0
182 204 0
178 201 0
182 204 0
183 204 0
184 205 0
182 204 0
181 203 0
181 203 0
184 205 0
182 204 0
180 203 0
183 204 0
181 203 0
180 203 0
179 202 0
182 204 0
182 204 0
179 202 0
182 204 0
181 203 0
179 202 0
179 202 0
181 203 0
182 203 0
184 205 0
182 204 0
182 203 0
182 204 0
181 203 0
184 205 0
178 200 0
181 202 0
182 204 0
183 204 0
182 204 0
183 204 0
180 203 0
182 204 0
182 204 0
185 205 0
181 202 0
183 204 0
182 204 0
181 203 0
182 204 0
182 203 0
183 204 0
181 202 0
183 204 0
182 203 0
182 203 0
181 203 0
182 204 0
179 202 0
181 203 0
182 204 0
182 204 0
183 204 0
182 203 0
182 204 0
183 204 0
180 202 0
179 201 0
180 202 0
184 204 0
184 205 0
181 203 0
184 205 0
183 204 0
180 203 0
179 202 0
184 204 0
180 203 0
182 204 0
184 205 0
182 204 0
185 205 0
182 203 0
181 203 0
180 202 0
183 204 0
181 203 0
181 203 0
182 204 0
180 203 0
182 203 0
181 203 0
180 202 0
182 204 0
180 203 0
184 205 0
183 204 0
181 203 0
182 203 0
181 203 0
180 203 0
182 204 0
181 203 0
182 203 0
183 204 0
180 203 0
183 204 0
179 201 0
184 205 0
182 203 0
181 203 0
183 204 0
182 204 0
182 204 0
184 205 0
182 204 0
183 204 0
183 204 0
180 202 0
178 201 0
180 203 0
182 204 0
183 204 0
173 196 0
179 200 0
180 202 0
178 201 0
180 202 0
181 203 0
179 201 0
180 202 0
180 203 0
179 200 0
184 205 0
178 200 0
178 199 0
181 202 0
180 203 0
181 203 0
180 202 0
180 202 0
182 204 0
180 202 0
182 204 0
184 205 0
180 201 0
182 203 0
181 203 0
183 204 0
179 202 0
178 201 0
181 203 0
182 204 0
179 201 0
179 201 0
181 203 0
184 205 0
181 203 0
179 202 0
182 204 0
180 203 0
180 203 0
182 204 0
181 203 0
181 202 0
182 203 0
180 203 0
180 202 0
180 202 0
183 204 0
180 201 0
181 203 0
183 204 0
180 202 0
179 202 0
181 203 0
181 203 0
181 203 0
178 201 0
180 202 0
184 205 0
181 203 0
182 204 0
181 203 0
179 202 0
183 204 0
182 204 0
185 205 0
181 202 0
181 203 0
183 204 0
182 204 0
181 202 0
181 203 0
183 204 0
182 204 0
181 203 0
181 203 0
181 203 0
181 203 0
182 204 0
180 202 0
181 202 0
182 204 0
183 204 0
181 203 0
179 200 0
182 204 0
182 204 0
182 204 0
179 202 0
184 204 0
183 204 0
182 204 0
185 205 0
182 204 0
181 203 0
181 203 0
182 204 0
181 203 0
182 204 0
181 203 0
183 204 0
180 202 0
183 204 0
182 204 0
183 204 0
180 203 0
182 204 0
182 203 0
184 205 0
182 204 0
184 205 0
182 203 0
183 204 0
181 203 0
180 202 0
182 204 0
182 203 0
182 204 0
181 203 0
182 204 0
182 204 0
180 203 0
181 203 0
182 203 0
182 204 0
182 203 0
180 203 0
180 203 0
182 204 0
181 203 0
181 203 0
182 204 0
182 204 0
181 203 0
183 204 0
182 204 0
184 205 0
181 203 0
186 206 0
181 203 0
180 203 0
183 204 0
183 204 0
183 204 0
181 203 0
182 204 0
183 204 0
182 204 0
181 203 0
181 203 0
180 203 0
183 204 0
182 204 0
182 204 0
184 205 0
185 205 0
181 203 0
181 203 0
182 203 0
183 204 0
182 203 0
180 203 0
181 203 0
181 203 0
182 204 0
182 204 0
181 203 0
180 203 0
183 204 0
180 202 0
180 201 0
181 203 0
181 203 0
182 204 0
182 204 0
182 204 0
183 204 0
179 202 0
182 204 0
183 204 0
181 203 0
184 205 0
180 203 0
181 203 0
183 204 0
182 204 0
182 203 0
181 203 0
182 204 0
182 204 0
181 202 0
182 204 0
184 205 0
181 203 0
181 203 0
180 202 0
182 204 0
183 204 0
180 202 0
179 202 0
182 203 0
181 203 0
181 202 0
184 205 0
181 203 0
180 202 0
180 203 0
182 204 0
181 202 0
180 203 0
184 205 0
182 204 0
184 205 0
183 204 0
181 202 0
181 203 0
183 204 0
183 204 0
183 204 0
183 204 0
183 204 0
178 200 0
183 204 0
184 205 0
181 203 0
180 203 0
182 204 0
180 203 0
182 204 0
180 202 0
180 202 0
183 204 0
182 203 0
182 203 0
183 204 0
180 203 0
180 202 0
183 204 0
181 203 0
180 202 0
182 204 0
182 204 0
180 202 0
183 204 0
181 203 0
182 203 0
182 203 0
179 202 0
184 205 0
182 204 0
182 204 0
182 204 0
179 202 0
182 204 0
183 204 0
182 204 0
182 204 0
180 202 0
180 202 0
183 204 0
180 202 0
180 202 0
182 204 0
183 204 0
182 203 0
183 204 0
183 204 0
183 204 0
184 205 0
179 202 0
179 202 0
182 203 0
182 204 0
181 202 0
182 204 0
181 203 0
182 203 0
182 204 0
182 204 0
180 202 0
181 203 0
183 204 0
179 201 0
183 204 0
177 199 0
181 203 0
180 202 0
180 202 0
182 204 0
179 202 0
183 204 0
181 203 0
181 203 0
181 203 0
182 204 0
180 203 0
176 199 0
182 203 0
180 203 0
183 204 0
182 204 0
180 202 0
180 203 0
178 200 0
182 204 0
181 203 0
178 200 0
181 203 0
180 202 0
182 204 0
181 203 0
181 202 0
181 203 0
183 204 0
183 204 0
182 203 0
180 201 0
181 202 0
181 203 0
182 204 0
183 204 0
178 199 0
184 205 0
181 203 0
181 203 0
183 204 0
179 202 0
181 203 0
179 202 0
180 203 0
183 204 0
183 204 0
182 204 0
181 203 0
181 202 0
182 203 0
181 203 0
179 201 0
178 201 0
181 203 0
180 203 0
180 203 0
183 204 0
184 204 0
181 203 0
182 203 0
181 202 0
184 205 0
181 203 0
180 201 0
183 204 0
183 204 0
182 203 0
181 203 0
182 204 0
179 202 0
179 202 0
180 203 0
184 205 0
184 205 0
183 204 0
182 204 0
182 204 0
182 204 0
182 204 0
181 203 0
183 204 0
184 205 0
180 202 0
180 202 0
183 204 0
183 204 0
182 204 0
182 204 0
182 204 0
182 204 0
183 204 0
181 203 0
181 203 0
179 201 0
182 204 0
179 202 0
181 203 0
182 204 0
182 204 0
182 204 0
181 203 0
180 203 0
182 204 0
179 201 0
181 203 0
184 205 0
183 203 0
183 204 0
181 203 0
181 203 0
179 202 0
181 203 0
181 203 0
181 203 0
182 204 0
182 204 0
179 201 0
181 203 0
178 201 0
181 203 0
181 203 0
178 201 0
178 200 0
181 202 0
181 202 0
180 203 0
176 199 0
178 201 0
184 205 0
182 204 0
182 203 0
182 204 0
183 204 0
181 203 0
180 202 0
181 203 0
180 202 0
182 204 0
184 205 0
181 203 0
181 203 0
181 203 0
182 204 0
184 205 0
184 205 0
182 204 0
181 203 0
180 202 0
181 203 0
183 204 0
180 203 0
182 204 0
181 203 0
179 202 0
181 203 0
179 201 0
182 204 0
179 201 0
181 203 0
183 204 0
182 204 0
182 203 0
181 203 0
180 202 0
182 204 0
181 203 0
181 203 0
183 204 0
180 202 0
182 203 0
181 202 0
181 203 0
181 203 0
181 203 0
182 203 0
183 204 0
182 204 0
185 205 0
182 204 0
179 202 0
178 201 0
179 201 0
184 205 0
182 203 0
181 202 0
182 204 0
178 201 0
182 204 0
179 202 0
182 204 0
180 203 0
182 204 0
180 202 0
182 204 0
181 203 0
182 204 0
181 203 0
183 204 0
180 203 0
184 205 0
185 205 0
183 204 0
180 203 0
184 205 0
182 204 0
181 203 0
181 203 0
182 204 0
181 203 0
180 203 0
182 204 0
181 203 0
183 204 0
181 203 0
182 204 0
181 203 0
180 202 0
180 203 0
181 203 0
181 203 0
182 204 0
181 203 0
180 203 0
181 203 0
181 203 0
184 205 0
180 203 0
182 204 0
182 204 0
183 204 0
183 204 0
183 204 0
183 204 0
180 203 0
182 204 0
183 204 0
183 203 0
183 204 0
181 203 0
183 204 0
182 204 0
183 204 0
182 204 0
185 205 0
182 204 0
182 204 0
184 205 0
180 203 0
182 204 0
181 203 0
182 204 0
182 204 0
180 203 0
183 204 0
181 203 0
182 204 0
181 203 0
181 203 0
183 203 0
181 203 0
182 204 0
183 204 0
182 204 0
181 203 0
183 204 0
181 203 0
183 204 0
182 204 0
182 203 0
184 205 0
182 204 0
184 205 0
180 202 0
179 202 0
181 203 0
181 203 0
181 203 0
181 203 0
182 204 0
182 204 0
182 204 0
183 204 0
182 204 0
184 205 0
182 204 0
179 202 0
182 204 0
180 203 0
181 202 0
181 203 0
183 203 0
184 205 0
183 204 0
180 203 0
183 204 0
184 205 0
182 204 0
183 204 0
182 203 0
183 204 0
182 204 0
181 203 0
183 204 0
183 204 0
182 204 0
183 204 0
181 203 0
182 204 0
183 204 0
182 204 0
183 204 0
182 203 0
182 204 0
180 203 0
183 204 0
180 203 0
183 204 0
183 204 0
181 203 0
183 204 0
182 204 0
181 202 0
180 203 0
182 204 0
180 203 0
180 203 0
182 204 0
180 203 0
178 201 0
181 203 0
183 204 0
183 204 0
181 203 0
181 203 0
184 205 0
180 202 0
180 202 0
182 204 0
179 201 0
183 204 0
181 203 0
183 204 0
183 204 0
180 202 0
182 203 0
182 204 0
183 204 0
183 204 0
182 204 0
183 204 0
182 204 0
181 203 0
183 204 0
181 203 0
181 203 0
181 203 0
184 205 0
183 204 0
179 201 0
180 202 0
180 202 0
181 202 0
183 204 0
181 203 0
182 204 0
181 203 0
183 204 0
181 203 0
181 203 0
181 203 0
180 203 0
181 203 0
183 204 0
180 202 0
183 204 0
180 203 0
179 202 0
182 204 0
181 203 0
181 203 0
180 202 0
181 203 0
184 205 0
181 203 0
180 203 0
180 203 0
182 204 0
183 204 0
183 204 0
181 202 0
183 204 0
181 203 0
181 203 0
181 203 0
183 204 0
183 203 0
182 204 0
180 202 0
183 204 0
179 201 0
181 202 0
182 203 0
179 201 0
181 203 0
180 202 0
178 200 0
182 204 0
180 202 0
181 203 0
180 202 0
183 203 0
182 203 0
182 204 0
182 204 0
180 203 0
181 202 0
180 202 0
180 202 0
183 204 0
179 201 0
180 203 0
182 204 0
184 205 0
179 201 0
178 200 0
182 204 0
181 202 0
180 202 0
182 203 0
181 202 0
178 201 0
181 203 0
183 204 0
182 204 0
182 204 0
181 202 0
183 204 0
180 202 0
184 205 0
180 201 0
183 204 0
180 202 0
182 203 0
182 203 0
177 200 0
180 203 0
181 203 0
179 201 0
181 202 0
180 202 0
183 204 0
179 201 0
179 201 0
183 204 0
183 204 0
180 202 0
181 203 0
180 203 0
180 202 0
180 203 0
183 204 0
178 202 0
180 202 0
181 203 0
182 204 0
182 204 0
179 202 0
180 202 0
183 204 0
181 203 0
183 204 0
182 203 0
182 204 0
180 203 0
181 203 0
179 201 0
182 204 0
183 204 0
181 203 0
182 204 0
181 203 0
184 204 0
181 202 0
180 203 0
182 204 0
181 203 0
183 204 0
182 204 0
180 202 0
183 204 0
183 204 0
180 202 0
183 203 0
182 204 0
181 203 0
185 205 0
181 203 0
184 205 0
181 202 0
181 203 0
180 202 0
181 203 0
181 203 0
182 203 0
182 203 0
181 203 0
182 204 0
182 204 0
181 203 0
182 203 0
183 204 0
180 202 0
182 203 0
185 205 0
179 201 0
182 204 0
183 204 0
180 201 0
180 202 0
181 202 0
181 202 0
181 203 0
182 204 0
180 202 0
184 205 0
179 200 0
182 204 0
182 203 0
181 203 0
182 204 0
183 204 0
181 203 0
181 203 0
178 201 0
181 203 0
178 200 0
183 204 0
182 204 0
183 204 0
180 202 0
182 204 0
183 204 0
181 203 0
183 204 0
179 201 0
182 204 0
180 202 0
181 202 0
182 204 0
181 202 0
182 203 0
182 204 0
183 204 0
182 204 0
180 202 0
181 203 0
182 204 0
181 203 0
181 203 0
182 204 0
183 204 0
182 204 0
181 203 0
180 202 0
184 205 0
180 202 0
182 204 0
182 204 0
182 204 0
177 200 0
180 203 0
180 202 0
182 204 0
182 204 0
182 204 0
182 204 0
182 204 0
179 202 0
180 201 0
180 202 0
183 204 0
182 204 0
180 202 0
181 203 0
180 202 0
184 205 0
184 205 0
183 204 0
183 204 0
181 203 0
182 204 0
181 203 0
182 204 0
181 203 0
182 204 0
180 203 0
182 203 0
181 203 0
180 202 0
182 204 0
184 205 0
180 203 0
182 204 0
181 203 0
180 203 0
178 201 0
180 202 0
182 204 0
181 203 0
182 204 0
183 204 0
182 204 0
183 204 0
181 202 0
181 203 0
183 204 0
177 200 0
182 204 0
182 204 0
181 203 0
181 203 0
182 204 0
179 202 0
182 204 0
180 202 0
182 204 0
180 203 0
182 204 0
183 204 0
183 204 0
183 204 0
180 203 0
182 204 0
183 204 0
180 203 0
183 204 0
180 202 0
182 204 0
183 204 0
183 204 0
180 203 0
183 204 0
180 203 0
182 203 0
181 203 0
181 203 0
180 202 0
183 204 0
181 203 0
181 203 0
181 203 0
182 204 0
181 203 0
182 204 0
180 202 0
180 203 0
182 203 0
181 203 0
184 205 0
183 204 0
181 203 0
184 205 0
181 203 0
182 203 0
186 206 0
178 201 0
181 203 0
183 204 0
183 204 0
181 203 0
182 203 0
181 203 0
183 204 0
183 204 0
182 204 0
180 202 0
181 203 0
180 203 0
184 205 0
182 204 0
181 203 0
182 203 0
181 203 0
181 203 0
181 203 0
181 203 0
181 203 0
181 203 0
184 205 0
181 203 0
183 204 0
183 204 0
181 203 0
180 202 0
182 204 0
178 201 0
179 201 0
181 203 0
181 203 0
182 204 0
181 203 0
182 204 0
182 204 0
183 204 0
183 204 0
183 204 0
183 204 0
184 205 0
182 204 0
182 203 0
181 203 0
182 204 0
182 203 0
183 204 0
181 203 0
181 203 0
179 202 0
182 204 0
182 204 0
181 203 0
182 203 0
184 205 0
181 203 0
180 203 0
181 203 0
182 203 0
181 203 0
179 202 0
182 204 0
180 202 0
181 203 0
182 203 0
183 204 0
180 202 0
182 204 0
181 203 0
183 204 0
179 202 0
180 202 0
183 204 0
183 204 0
181 203 0
184 205 0
181 203 0
180 203 0
182 204 0
184 205 0
182 204 0
179 202 0
181 203 0
181 203 0
182 204 0
182 203 0
185 205 0
180 203 0
184 205 0
182 204 0
181 203 0
180 203 0
180 202 0
180 202 0
179 202 0
182 204 0
182 204 0
182 204 0
181 203 0
181 203 0
181 203 0
182 203 0
180 202 0
179 201 0
180 202 0
181 203 0
181 203 0
182 204 0
181 203 0
181 203 0
180 203 0
183 204 0
180 203 0
181 202 0
184 205 0
182 203 0
182 204 0
178 201 0
185 205 0
180 203 0
181 203 0
182 204 0
183 203 0
181 202 0
181 203 0
184 205 0
180 202 0
182 204 0
179 202 0
181 203 0
180 202 0
181 203 0
180 202 0
182 204 0
182 204 0
183 204 0
180 202 0
180 202 0
181 203 0
181 203 0
179 201 0
181 201 0
179 201 0
181 202 0
180 202 0
182 203 0
182 204 0
180 202 0
178 202 0
180 201 0
181 202 0
179 202 0
182 203 0
183 204 0
181 203 0
182 204 0
180 202 0
183 204 0
180 202 0
183 204 0
178 200 0
181 203 0
182 204 0
182 204 0
180 202 0
180 203 0
180 203 0
179 202 0
184 205 0
179 202 0
182 204 0
182 204 0
180 203 0
181 202 0
181 203 0
180 201 0
181 203 0
181 203 0
184 205 0
182 204 0
183 204 0
182 204 0
179 201 0
183 204 0
181 203 0
182 204 0
182 203 0
180 202 0
183 204 0
181 202 0
180 201 0
185 205 0
181 203 0
184 205 0
182 204 0
180 203 0
182 203 0
182 203 0
179 202 0
182 204 0
184 205 0
179 201 0
182 204 0
181 203 0
183 204 0
184 205 0
183 204 0
180 203 0
182 204 0
181 203 0
179 202 0
179 201 0
182 203 0
183 204 0
181 203 0
182 204 0
180 202 0
184 205 0
182 204 0
181 203 0
179 202 0
179 202 0
181 203 0
184 205 0
182 203 0
182 204 0
180 202 0
179 201 0
182 204 0
181 202 0
182 204 0
183 204 0
183 204 0
182 204 0
181 202 0
180 202 0
180 202 0
180 202 0
181 203 0
182 204 0
182 203 0
183 204 0
180 202 0
181 202 0
182 203 0
181 203 0
181 203 0
179 202 0
179 201 0
182 204 0
182 204 0
180 201 0
183 204 0
181 202 0
182 204 0
178 201 0
180 202 0
182 204 0
182 204 0
182 203 0
180 203 0
180 203 0
182 204 0
184 204 0
182 204 0
180 202 0
181 203 0
181 202 0
181 203 0
181 203 0
183 203 0
180 203 0
183 204 0
184 205 0
182 203 0
181 203 0
181 202 0
177 200 0
183 204 0
181 202 0
181 203 0
180 202 0
182 204 0
180 203 0
182 204 0
182 204 0
182 204 0
181 203 0
179 201 0
181 202 0
181 203 0
180 203 0
180 202 0
181 203 0
182 203 0
182 204 0
182 203 0
181 203 0
182 204 0
182 204 0
184 205 0
180 202 0
182 204 0
180 203 0
185 206 0
180 203 0
182 203 0
182 204 0
181 203 0
182 204 0
181 203 0
182 204 0
181 203 0
180 203 0
185 205 0
181 203 0
180 203 0
182 204 0
179 201 0
182 204 0
181 203 0
180 202 0
181 203 0
180 202 0
181 203 0
182 203 0
183 204 0
183 204 0
182 204 0
182 204 0
181 203 0
182 204 0
181 203 0
181 203 0
180 202 0
182 204 0
180 203 0
178 201 0
183 204 0
182 203 0
182 204 0
183 204 0
181 203 0
181 203 0
181 203 0
181 203 0
182 204 0
183 204 0
182 204 0
181 203 0
182 204 0
184 205 0
181 203 0
181 203 0
180 203 0
183 204 0
182 204 0
183 204 0
179 201 0
181 203 0
182 204 0
180 203 0
181 203 0
182 204 0
180 202 0
180 203 0
183 204 0
183 204 0
183 204 0
183 204 0
182 203 0
180 202 0
181 203 0
181 203 0
184 204 0
183 204 0
182 204 0
181 203 0
182 203 0
180 203 0
181 203 0
181 203 0
181 203 0
181 203 0
181 203 0
179 202 0
183 204 0
182 204 0
182 204 0
183 204 0
181 203 0
183 204 0
185 206 0
184 205 0
183 204 0
182 204 0
182 204 0
181 203 0
183 204 0
183 204 0
182 204 0
182 203 0
182 204 0
181 203 0
181 203 0
179 202 0
184 205 0
181 203 0
183 204 0
183 204 0
181 203 0
184 205 0
181 202 0
181 203 0
180 202 0
182 204 0
182 204 0
181 203 0
179 202 0
181 203 0
184 205 0
183 204 0
182 204 0
183 204 0
180 203 0
183 204 0
181 203 0
180 202 0
182 203 0
182 204 0
179 202 0
181 203 0
183 204 0
182 204 0
182 204 0
181 203 0
181 203 0
181 203 0
183 204 0
180 203 0
181 203 0
183 204 0
182 204 0
182 204 0
181 203 0
183 204 0
182 204 0
181 203 0
182 204 0
182 203 0
182 204 0
182 204 0
181 202 0
182 203 0
181 203 0
185 205 0
180 202 0
181 203 0
182 204 0
182 204 0
183 204 0
183 204 0
182 204 0
180 202 0
180 202 0
182 204 0
181 203 0
181 203 0
181 203 0
182 204 0
183 203 0
182 203 0
183 204 0
180 202 0
182 204 0
182 204 0
182 204 0
182 204 0
180 203 0
183 204 0
179 202 0
181 203 0
181 203 0
181 203 0
182 204 0
180 202 0
179 201 0
179 201 0
181 203 0
182 204 0
180 203 0
181 203 0
183 204 0
180 202 0
180 203 0
182 204 0
183 204 0
180 202 0
179 202 0
182 204 0
183 204 0
184 205 0
183 204 0
180 203 0
183 204 0
179 202 0
180 202 0
178 201 0
178 201 0
181 203 0
181 203 0
181 203 0
181 202 0
180 202 0
183 204 0
180 202 0
179 201 0
184 205 0
182 204 0
181 203 0
182 203 0
180 203 0
182 204 0
183 204 0
185 206 0
181 203 0
181 203 0
180 203 0
180 202 0
181 202 0
181 203 0
181 203 0
180 202 0
179 201 0
182 204 0
179 201 0
184 205 0
180 202 0
182 203 0
180 202 0
184 204 0
177 200 0
181 203 0
181 203 0
184 205 0
181 203 0
181 203 0
180 203 0
180 202 0
181 203 0
178 201 0
183 204 0
180 203 0
180 202 0
183 204 0
181 203 0
182 204 0
183 204 0
181 203 0
182 204 0
180 201 0
183 204 0
184 205 0
181 203 0
180 203 0
185 205 0
182 203 0
181 203 0
181 203 0
180 202 0
180 203 0
183 204 0
179 201 0
181 203 0
184 205 0
179 200 0
185 205 0
183 204 0
182 203 0
181 203 0
184 205 0
181 203 0
181 203 0
182 204 0
178 200 0
181 203 0
179 202 0
180 203 0
181 202 0
182 204 0
182 204 0
182 203 0
180 202 0
182 204 0
179 201 0
182 203 0
182 203 0
183 204 0
181 203 0
184 205 0
180 202 0
181 203 0
183 204 0
181 203 0
183 204 0
181 203 0
182 204 0
181 202 0
179 201 0
181 203 0
182 203 0
182 204 0
182 204 0
183 204 0
182 204 0
182 204 0
181 203 0
182 204 0
183 204 0
180 202 0
184 205 0
182 204 0
183 204 0
181 203 0
182 204 0
182 204 0
183 204 0
182 204 0
181 202 0
180 203 0
183 204 0
181 203 0
181 203 0
180 203 0
183 204 0
183 204 0
181 203 0
183 204 0
180 203 0
185 205 0
185 205 0
180 202 0
184 205 0
185 205 0
181 203 0
182 203 0
183 204 0
183 204 0
181 203 0
180 202 0
179 200 0
184 204 0
182 204 0
183 204 0
181 202 0
182 204 0
182 204 0
181 203 0
184 205 0
177 200 0
179 201 0
179 201 0
180 202 0
181 203 0
181 203 0
181 203 0
183 204 0
182 204 0
182 204 0
182 203 0
182 204 0
180 202 0
182 203 0
180 202 0
182 204 0
180 203 0
181 203 0
180 202 0
177 200 0
181 203 0
178 201 0
178 200 0
180 203 0
183 204 0
184 205 0
180 202 0
183 203 0
183 204 0
182 204 0
182 204 0
183 204 0
182 204 0
179 202 0
182 204 0
183 204 0
182 204 0
180 203 0
181 203 0
180 203 0
181 203 0
185 205 0
182 204 0
183 204 0
182 204 0
179 201 0
182 204 0
181 203 0
184 205 0
183 204 0
180 202 0
182 204 0
184 205 0
183 204 0
181 203 0
181 202 0
183 204 0
180 202 0
180 203 0
180 202 0
183 204 0
182 204 0
180 202 0
179 202 0
181 203 0
182 203 0
181 202 0
181 203 0
182 204 0
182 203 0
182 204 0
181 203 0
182 204 0
182 204 0
180 202 0
184 205 0
183 204 0
180 201 0
181 202 0
182 204 0
184 205 0
182 204 0
180 203 0
182 204 0
180 203 0
183 204 0
182 203 0
180 202 0
181 203 0
183 204 0
183 204 0
179 202 0
181 203 0
182 204 0
181 203 0
181 203 0
182 204 0
181 203 0
183 204 0
182 204 0
180 203 0
183 204 0
181 203 0
182 204 0
183 204 0
180 203 0
184 204 0
184 205 0
185 205 0
184 205 0
181 203 0
182 204 0
181 203 0
182 203 0
182 204 0
181 203 0
179 202 0
184 205 0
182 204 0
180 203 0
182 204 0
181 203 0
182 204 0
183 204 0
183 204 0
179 202 0
180 203 0
179 202 0
181 203 0
181 203 0
182 204 0
181 203 0
183 204 0
182 203 0
183 204 0
182 203 0
183 204 0
182 204 0
182 204 0
183 204 0
182 204 0
178 201 0
183 204 0
184 205 0
183 204 0
184 205 0
180 203 0
184 205 0
182 204 0
180 202 0
179 201 0
181 203 0
182 204 0
181 203 0
182 203 0
183 204 0
183 204 0
181 203 0
183 204 0
183 204 0
183 204 0
183 204 0
180 203 0
181 203 0
180 202 0
181 203 0
181 203 0
182 204 0
183 204 0
181 203 0
182 204 0
181 202 0
182 204 0
182 204 0
179 202 0
182 204 0
182 204 0
181 203 0
180 202 0
179 201 0
181 203 0
181 202 0
182 204 0
182 204 0
185 205 0
182 204 0
182 203 0
183 204 0
182 204 0
182 204 0
182 203 0
182 204 0
181 203 0
179 201 0
183 204 0
180 202 0
181 203 0
183 204 0
182 204 0
181 202 0
181 203 0
182 203 0
181 203 0
180 202 0
180 203 0
183 204 0
183 204 0
184 205 0
182 204 0
180 203 0
183 204 0
183 204 0
183 204 0
181 203 0
181 203 0
182 203 0
182 204 0
182 203 0
183 204 0
180 202 0
183 204 0
182 204 0
182 204 0
180 203 0
183 204 0
182 204 0
180 202 0
183 204 0
182 204 0
182 204 0
182 204 0
180 202 0
183 204 0
182 204 0
181 203 0
182 204 0
183 204 0
183 204 0
181 202 0
181 202 0
180 203 0
181 203 0
184 205 0
179 202 0
180 202 0
179 201 0
183 204 0
178 200 0
183 204 0
181 203 0
180 202 0
181 203 0
181 203 0
182 204 0
182 203 0
183 204 0
180 202 0
181 203 0
181 203 0
181 203 0
176 199 0
182 204 0
183 204 0
179 202 0
182 204 0
180 201 0
181 203 0
181 203 0
181 203 0
182 204 0
180 202 0
181 203 0
181 203 0
179 201 0
183 204 0
182 203 0
180 203 0
180 202 0
183 204 0
181 203 0
181 202 0
181 203 0
182 204 0
180 203 0
182 204 0
180 202 0
182 204 0
181 203 0
181 203 0
183 204 0
180 202 0
181 203 0
183 204 0
182 204 0
180 201 0
182 203 0
184 205 0
181 203 0
180 202 0
181 203 0
181 202 0
180 203 0
180 202 0
178 199 0
181 203 0
178 201 0
181 202 0
181 203 0
180 202 0
182 204 0
181 202 0
182 204 0
184 205 0
180 202 0
183 204 0
179 200 0
184 205 0
183 204 0
181 203 0
179 201 0
179 200 0
182 204 0
182 204 0
177 200 0
181 203 0
178 201 0
184 205 0
180 201 0
179 201 0
184 205 0
182 204 0
179 201 0
180 203 0
181 203 0
181 203 0
183 204 0
181 203 0
181 203 0
184 205 0
183 204 0
178 201 0
183 204 0
180 202 0
182 204 0
180 202 0
180 202 0
183 204 0
180 202 0
180 202 0
181 203 0
183 204 0
182 204 0
180 203 0
181 203 0
181 203 0
181 203 0
181 201 0
182 204 0
182 204 0
179 201 0
184 205 0
183 204 0
179 201 0
181 203 0
182 203 0
182 203 0
183 204 0
183 204 0
182 203 0
177 200 0
183 204 0
181 202 0
181 203 0
181 203 0
183 204 0
182 204 0
182 204 0
181 202 0
179 201 0
183 204 0
180 202 0
182 203 0
182 204 0
182 204 0
178 201 0
180 202 0
180 203 0
182 204 0
182 204 0
182 203 0
181 203 0
181 202 0
181 203 0
180 203 0
182 203 0
182 204 0
181 202 0
179 202 0
179 200 0
181 202 0
183 204 0
177 199 0
179 202 0
181 203 0
178 200 0
179 201 0
180 201 0
181 203 0
183 204 0
183 204 0
182 204 0
181 202 0
180 203 0
181 203 0
182 204 0
184 205 0
182 203 0
180 202 0
181 203 0
181 203 0
180 203 0
180 202 0
183 204 0
179 202 0
178 200 0
179 201 0
181 203 0
181 203 0
181 202 0
179 201 0
182 203 0
184 205 0
182 204 0
183 204 0
182 204 0
183 204 0
180 203 0
179 201 0
182 204 0
182 204 0
182 204 0
179 202 0
181 203 0
184 205 0
183 204 0
184 205 0
183 204 0
184 205 0
182 204 0
184 205 0
181 203 0
183 204 0
182 204 0
183 204 0
181 203 0
182 204 0
184 205 0
180 203 0
182 204 0
178 200 0
179 201 0
185 205 0
184 205 0
182 204 0
184 205 0
182 203 0
182 204 0
183 204 0
182 203 0
182 204 0
179 201 0
180 202 0
181 203 0
181 202 0
181 203 0
182 204 0
182 203 0
180 202 0
181 203 0
182 203 0
186 206 0
184 204 0
181 203 0
181 203 0
181 203 0
183 204 0
183 204 0
181 203 0
181 203 0
181 203 0
180 202 0
183 204 0
182 204 0
181 203 0
182 204 0
180 202 0
182 204 0
181 203 0
182 204 0
181 203 0
181 203 0
181 203 0
181 203 0
180 202 0
182 204 0
184 205 0
184 205 0
181 203 0
181 203 0
180 203 0
183 204 0
183 204 0
182 204 0
184 205 0
183 204 0
183 204 0
181 203 0
182 204 0
181 203 0
183 204 0
181 203 0
179 202 0
183 204 0
182 204 0
183 204 0
184 205 0
182 204 0
182 204 0
181 203 0
182 204 0
182 203 0
181 203 0
182 204 0
180 203 0
184 204 0
184 205 0
182 204 0
179 202 0
182 204 0
184 205 0
181 202 0
182 204 0
181 203 0
182 203 0
181 203 0
181 202 0
182 203 0
181 203 0
183 204 0
180 203 0
182 203 0
179 201 0
184 205 0
183 204 0
182 204 0
181 203 0
184 205 0
180 203 0
180 202 0
181 203 0
183 204 0
182 204 0
181 203 0
181 203 0
181 203 0
183 204 0
183 204 0
185 205 0
182 203 0
183 204 0
180 202 0
181 203 0
180 202 0
183 204 0
183 204 0
182 203 0
181 203 0
182 204 0
182 203 0
182 204 0
183 204 0
183 204 0
184 205 0
182 204 0
182 203 0
183 204 0
181 203 0
180 203 0
181 203 0
181 203 0
182 204 0
181 203 0
184 205 0
184 205 0
179 202 0
182 204 0
181 203 0
182 204 0
183 204 0
177 200 0
182 204 0
183 204 0
183 204 0
182 204 0
179 201 0
183 204 0
180 202 0
182 204 0
181 203 0
182 204 0
182 204 0
180 202 0
180 202 0
181 202 0
180 202 0
182 203 0
183 204 0
182 203 0
181 203 0
183 204 0
183 204 0
182 204 0
183 204 0
183 204 0
181 203 0
181 203 0
180 203 0
182 204 0
181 203 0
182 204 0
183 204 0
179 201 0
182 204 0
182 204 0
182 204 0
181 203 0
181 203 0
182 204 0
182 204 0
180 202 0
183 204 0
185 205 0
181 203 0
183 204 0
183 204 0
183 204 0
180 203 0
182 204 0
181 203 0
180 202 0
180 203 0
179 201 0
184 205 0
180 201 0
182 204 0
181 202 0
182 204 0
182 204 0
183 204 0
182 204 0
183 204 0
182 203 0
180 202 0
181 203 0
180 202 0
180 203 0
183 204 0
181 203 0
181 202 0
181 203 0
180 203 0
181 202 0
183 204 0
182 203 0
181 203 0
183 204 0
180 203 0
181 203 0
180 203 0
183 204 0
181 202 0
179 202 0
178 200 0
179 201 0
180 203 0
183 204 0
178 199 0
179 202 0
178 200 0
182 203 0
183 203 0
181 203 0
178 201 0
181 202 0
181 203 0
180 202 0
181 203 0
180 202 0
179 201 0
180 202 0
184 205 0
179 201 0
175 197 0
182 203 0
181 202 0
181 203 0
178 200 0
182 204 0
182 203 0
181 202 0
179 201 0
182 204 0
182 204 0
179 201 0
179 201 0
181 203 0
184 205 0
179 202 0
184 205 0
178 200 0
182 204 0
178 200 0
183 204 0
181 201 0
183 204 0
182 204 0
182 204 0
182 204 0
182 204 0
180 203 0
179 202 0
185 205 0
179 200 0
184 205 0
182 204 0
183 204 0
179 202 0
177 200 0
177 199 0
179 201 0
182 204 0
184 205 0
181 203 0
182 204 0
180 202 0
182 204 0
181 203 0
182 204 0
180 203 0
181 203 0
182 204 0
178 200 0
180 202 0
182 203 0
181 203 0
184 205 0
183 204 0
182 204 0
183 204 0
183 204 0
182 204 0
182 203 0
176 199 0
181 203 0
182 204 0
182 203 0
182 203 0
180 202 0
185 205 0
182 204 0
181 203 0
181 203 0
180 203 0
182 204 0
181 203 0
182 204 0
181 203 0
182 204 0
181 203 0
180 202 0
185 205 0
181 203 0
181 203 0
180 203 0
183 204 0
180 203 0
179 201 0
182 203 0
181 203 0
182 203 0
182 204 0
177 200 0
176 198 0
178 200 0
181 203 0
181 202 0
181 203 0
183 204 0
181 203 0
177 199 0
180 202 0
176 198 0
182 204 0
180 202 0
182 204 0
182 204 0
180 202 0
182 204 0
180 202 0
182 204 0
179 201 0
182 203 0
183 204 0
179 201 0
181 203 0
180 201 0
181 202 0
181 202 0
178 199 0
181 203 0
178 200 0
182 204 0
183 204 0
180 203 0
181 203 0
180 203 0
182 204 0
182 203 0
177 200 0
181 202 0
179 202 0
180 202 0
180 202 0
181 203 0
184 205 0
182 204 0
181 203 0
183 204 0
180 202 0
180 203 0
181 202 0
183 204 0
182 204 0
181 202 0
182 203 0
181 203 0
180 202 0
181 202 0
182 203 0
182 204 0
185 205 0
179 202 0
180 203 0
182 204 0
184 205 0
182 203 0
182 204 0
181 203 0
183 204 0
182 204 0
180 203 0
182 203 0
183 204 0
181 202 0
182 204 0
181 203 0
182 204 0
182 204 0
181 203 0
179 201 0
183 204 0
182 204 0
180 202 0
183 204 0
182 203 0
181 203 0
183 204 0
180 203 0
181 203 0
183 204 0
182 204 0
182 204 0
183 204 0
180 202 0
183 204 0
183 204 0
183 204 0
180 202 0
184 205 0
180 203 0
182 204 0
181 203 0
182 203 0
183 204 0
184 205 0
182 204 0
182 204 0
184 205 0
182 204 0
183 204 0
181 203 0
182 204 0
180 203 0
183 204 0
182 204 0
181 202 0
181 203 0
181 203 0
183 204 0
180 203 0
182 204 0
181 203 0
182 204 0
182 204 0
182 204 0
185 205 0
182 204 0
182 204 0
183 204 0
181 203 0
181 203 0
180 202 0
182 203 0
182 204 0
183 204 0
184 205 0
182 204 0
182 204 0
180 203 0
184 205 0
181 203 0
183 204 0
183 204 0
183 204 0
180 203 0
181 203 0
183 204 0
183 204 0
181 203 0
180 203 0
183 204 0
181 203 0
185 205 0
182 204 0
183 204 0
182 204 0
181 203 0
182 203 0
183 204 0
180 203 0
182 203 0
180 203 0
181 203 0
184 205 0
180 203 0
181 202 0
179 201 0
183 204 0
181 203 0
184 205 0
183 204 0
182 204 0
182 204 0
182 204 0
180 203 0
181 203 0
181 203 0
182 204 0
182 204 0
182 204 0
182 203 0
181 203 0
180 202 0
184 205 0
182 204 0
184 205 0
182 204 0
181 202 0
183 204 0
179 202 0
181 202 0
182 204 0
182 204 0
183 204 0
182 204 0
180 202 0
181 203 0
183 204 0
181 202 0
182 204 0
179 202 0
182 204 0
181 203 0
181 203 0
179 202 0
181 203 0
183 203 0
181 203 0
180 202 0
181 202 0
181 203 0
181 203 0
180 203 0
180 202 0
182 203 0
181 203 0
183 204 0
181 203 0
182 203 0
180 202 0
179 202 0
183 204 0
183 204 0
181 203 0
181 202 0
181 203 0
180 203 0
182 204 0
182 204 0
183 204 0
182 204 0
180 203 0
180 203 0
180 203 0
182 203 0
183 204 0
181 203 0
183 204 0
180 202 0
184 205 0
180 202 0
181 202 0
178 202 0
185 205 0
180 202 0
180 203 0
180 203 0
181 203 0
182 204 0
179 201 0
182 204 0
180 203 0
180 202 0
181 203 0
180 202 0
183 204 0
181 203 0
180 203 0
181 202 0
183 204 0
183 204 0
181 203 0
181 202 0
182 203 0
180 203 0
181 203 0
178 200 0
184 205 0
179 200 0
177 199 0
182 204 0
180 202 0
182 203 0
181 203 0
177 200 0
184 205 0
183 204 0
182 204 0
182 204 0
182 204 0
182 203 0
176 199 0
182 204 0
183 204 0
178 200 0
182 204 0
183 204 0
180 201 0
179 201 0
181 203 0
179 202 0
181 203 0
179 201 0
177 199 0
179 202 0
183 204 0
179 201 0
180 203 0
178 200 0
180 202 0
182 204 0
177 200 0
184 204 0
182 203 0
178 200 0
182 204 0
181 202 0
182 204 0
178 201 0
181 203 0
177 199 0
180 202 0
183 204 0
180 201 0
180 202 0
179 200 0
180 201 0
177 200 0
179 201 0
182 204 0
179 201 0
181 203 0
183 204 0
180 203 0
182 204 0
180 202 0
184 205 0
183 204 0
184 205 0
183 204 0
184 205 0
182 203 0
182 204 0
181 203 0
182 203 0
183 204 0
178 201 0
181 203 0
181 203 0
182 204 0
184 205 0
179 201 0
180 202 0
181 203 0
181 203 0
182 203 0
182 203 0
183 204 0
181 203 0
179 202 0
182 204 0
181 202 0
182 204 0
183 204 0
179 201 0
182 204 0
182 204 0
182 203 0
180 202 0
184 205 0
184 205 0
182 204 0
180 203 0
182 204 0
182 204 0
181 203 0
179 201 0
181 203 0
182 203 0
183 204 0
180 202 0
180 202 0
179 201 0
179 202 0
185 206 0
183 204 0
182 204 0
183 204 0
182 203 0
182 203 0
179 201 0
182 204 0
185 205 0
181 202 0
182 204 0
180 203 0
181 202 0
182 204 0
180 202 0
181 203 0
181 203 0
180 202 0
184 204 0
181 203 0
179 201 0
177 197 0
185 205 0
182 204 0
181 202 0
181 202 0
181 202 0
180 201 0
182 204 0
180 202 0
180 202 0
182 203 0
181 203 0
179 202 0
178 200 0
182 203 0
178 201 0
179 201 0
184 204 0
181 202 0
182 203 0
184 205 0
182 204 0
182 204 0
180 201 0
178 199 0
180 202 0
181 203 0
183 204 0
182 204 0
183 204 0
182 203 0
179 202 0
181 202 0
178 200 0
182 203 0
179 201 0
182 203 0
182 204 0
179 201 0
181 203 0
182 204 0
180 203 0
183 204 0
182 204 0
183 204 0
181 203 0
182 204 0
181 203 0
183 204 0
182 203 0
181 203 0
178 201 0
182 203 0
183 204 0
181 203 0
181 203 0
183 204 0
183 203 0
183 204 0
183 204 0
182 204 0
182 204 0
181 203 0
182 204 0
178 200 0
183 204 0
181 202 0
181 202 0
181 202 0
182 203 0
183 204 0
182 204 0
181 203 0
181 203 0
180 202 0
179 202 0
181 203 0
183 204 0
181 203 0
182 204 0
182 204 0
182 203 0
182 203 0
181 203 0
184 205 0
177 200 0
181 203 0
181 203 0
183 204 0
183 204 0
183 204 0
185 205 0
180 202 0
180 203 0
183 204 0
182 204 0
183 204 0
182 204 0
182 204 0
184 205 0
183 204 0
184 205 0
182 203 0
182 204 0
182 204 0
181 203 0
180 203 0
183 204 0
182 204 0
181 202 0
181 203 0
184 205 0
180 203 0
182 203 0
182 204 0
183 204 0
180 202 0
182 204 0
180 203 0
182 204 0
180 203 0
184 205 0
182 204 0
184 205 0
183 204 0
182 204 0
182 203 0
181 203 0
182 204 0
181 203 0
181 203 0
181 203 0
183 204 0
183 204 0
180 203 0
181 203 0
183 204 0
180 203 0
181 203 0
182 204 0
184 205 0
182 204 0
183 204 0
182 204 0
180 203 0
182 203 0
182 204 0
183 204 0
182 204 0
184 205 0
183 204 0
182 204 0
181 203 0
181 203 0
181 202 0
182 204 0
181 203 0
181 203 0
184 205 0
183 204 0
183 204 0
181 203 0
183 204 0
182 204 0
182 204 0
182 204 0
182 204 0
180 203 0
182 204 0
182 204 0
183 204 0
179 202 0
182 204 0
183 204 0
180 203 0
183 204 0
183 204 0
181 203 0
180 202 0
182 204 0
181 203 0
182 204 0
183 204 0
181 202 0
182 203 0
182 204 0
183 204 0
180 202 0
183 204 0
182 204 0
180 202 0
183 204 0
181 202 0
183 204 0
182 204 0
182 203 0
181 202 0
181 203 0
181 203 0
183 204 0
182 204 0
183 204 0
179 201 0
180 202 0
184 205 0
181 202 0
182 203 0
181 202 0
179 202 0
181 203 0
184 205 0
183 204 0
180 203 0
180 202 0
180 203 0
181 203 0
180 203 0
182 204 0
181 203 0
181 203 0
181 203 0
183 204 0
181 203 0
180 202 0
182 204 0
184 205 0
181 203 0
182 204 0
182 204 0
182 204 0
182 204 0
182 204 0
181 203 0
183 204 0
181 203 0
180 202 0
181 203 0
183 204 0
180 202 0
181 203 0
181 202 0
184 205 0
184 205 0
181 203 0
180 203 0
183 204 0
183 204 0
182 204 0
183 204 0
181 203 0
181 203 0
182 204 0
181 203 0
183 204 0
183 204 0
180 202 0
184 205 0
180 202 0
180 202 0
181 203 0
181 203 0
180 202 0
181 203 0
180 203 0
180 203 0
182 204 0
182 204 0
179 202 0
184 205 0
180 202 0
184 205 0
181 202 0
179 201 0
181 203 0
184 205 0
181 203 0
178 200 0
182 203 0
182 204 0
182 203 0
179 202 0
183 204 0
182 204 0
185 205 0
178 200 0
180 202 0
181 203 0
180 202 0
183 204 0
184 205 0
182 203 0
177 200 0
181 203 0
180 201 0
177 200 0
179 201 0
181 202 0
179 201 0
183 204 0
178 200 0
182 204 0
183 204 0
182 204 0
183 204 0
183 204 0
180 203 0
180 201 0
181 203 0
180 203 0
180 201 0
184 205 0
179 201 0
180 201 0
182 203 0
181 202 0
181 203 0
181 203 0
184 205 0
181 203 0
178 201 0
181 203 0
181 203 0
177 200 0
182 204 0
179 200 0
181 203 0
182 204 0
181 203 0
181 203 0
183 204 0
183 204 0
181 203 0
183 204 0
178 201 0
180 202 0
180 202 0
183 204 0
181 203 0
182 204 0
182 203 0
180 202 0
182 204 0
184 205 0
183 204 0
182 203 0
179 202 0
180 202 0
184 205 0
181 203 0
181 203 0
182 203 0
180 203 0
182 203 0
182 204 0
182 204 0
180 202 0
183 204 0
182 204 0
180 202 0
180 202 0
184 205 0
183 204 0
182 204 0
181 203 0
184 205 0
180 203 0
182 204 0
180 202 0
179 202 0
181 203 0
181 203 0
180 203 0
183 204 0
181 203 0
180 202 0
179 202 0
182 204 0
184 205 0
180 201 0
182 204 0
181 203 0
182 203 0
183 204 0
181 203 0
181 203 0
180 203 0
182 204 0
179 202 0
182 204 0
179 201 0
182 204 0
181 203 0
183 204 0
180 202 0
181 202 0
180 202 0
183 204 0
182 204 0
175 197 0
184 205 0
179 202 0
183 204 0
181 202 0
180 202 0
183 204 0
182 204 0
182 204 0
181 203 0
181 202 0
180 202 0
181 203 0
182 203 0
182 203 0
179 201 0
182 204 0
180 202 0
178 200 0
180 203 0
184 205 0
182 203 0
183 204 0
181 203 0
180 202 0
182 204 0
181 203 0
181 203 0
180 202 0
181 203 0
182 204 0
181 203 0
181 202 0
182 203 0
179 201 0
177 199 0
182 203 0
181 203 0
179 201 0
183 204 0
180 202 0
180 201 0
181 202 0
177 200 0
181 202 0
183 204 0
182 204 0
181 203 0
181 202 0
181 203 0
183 204 0
179 201 0
182 204 0
182 204 0
179 202 0
183 204 0
181 203 0
180 203 0
180 202 0
181 203 0
182 204 0
183 204 0
182 204 0
181 202 0
180 203 0
181 203 0
182 203 0
183 203 0
182 204 0
180 203 0
182 204 0
183 204 0
181 202 0
182 204 0
180 202 0
182 204 0
183 204 0
180 202 0
181 203 0
183 204 0
181 203 0
184 205 0
180 202 0
182 204 0
180 202 0
182 204 0
181 203 0
181 202 0
182 204 0
181 203 0
181 203 0
181 203 0
180 203 0
181 203 0
184 205 0
185 205 0
182 204 0
182 204 0
183 204 0
183 204 0
183 204 0
180 202 0
183 204 0
182 203 0
181 202 0
183 204 0
184 205 0
181 203 0
183 204 0
182 203 0
182 204 0
180 203 0
183 204 0
183 204 0
183 204 0
182 204 0
182 204 0
185 205 0
177 200 0
181 202 0
181 202 0
183 204 0
183 204 0
181 203 0
182 204 0
182 204 0
182 204 0
182 204 0
181 203 0
182 204 0
184 204 0
182 204 0
181 203 0
182 204 0
178 201 0
181 203 0
177 200 0
185 205 0
181 203 0
181 203 0
181 203 0
181 203 0
183 204 0
185 205 0
183 204 0
181 203 0
181 203 0
182 204 0
183 204 0
182 203 0
181 203 0
182 204 0
182 204 0
182 204 0
182 204 0
182 204 0
182 204 0
183 204 0
182 204 0
182 204 0
181 203 0
179 201 0
181 203 0
182 203 0
181 203 0
182 203 0
179 201 0
183 204 0
180 203 0
180 203 0
184 205 0
184 205 0
184 205 0
183 204 0
181 203 0
182 204 0
182 204 0
181 203 0
182 203 0
181 203 0
181 203 0
181 203 0
182 204 0
181 203 0
185 205 0
182 204 0
183 204 0
181 203 0
179 202 0
182 204 0
184 205 0
180 202 0
181 203 0
181 203 0
182 204 0
180 203 0
181 203 0
183 204 0
184 205 0
180 203 0
182 204 0
181 203 0
182 204 0
182 204 0
184 205 0
182 204 0
182 204 0
182 204 0
181 203 0
182 203 0
181 202 0
182 204 0
183 204 0
180 203 0
180 203 0
179 202 0
184 205 0
182 203 0
180 202 0
184 205 0
182 204 0
181 203 0
179 202 0
182 204 0
182 204 0
184 205 0
182 204 0
180 202 0
179 201 0
182 204 0
182 204 0
179 201 0
182 204 0
180 203 0
180 202 0
183 204 0
183 204 0
181 203 0
181 203 0
183 204 0
180 202 0
181 202 0
179 202 0
183 204 0
183 204 0
181 203 0
178 201 0
178 201 0
181 203 0
184 205 0
181 203 0
182 204 0
180 202 0
181 203 0
184 205 0
184 205 0
181 203 0
182 203 0
181 203 0
183 204 0
182 203 0
183 204 0
182 204 0
181 202 0
183 204 0
183 203 0
182 203 0
183 204 0
183 204 0
183 204 0
182 203 0
183 204 0
183 204 0
181 203 0
180 203 0
182 203 0
181 202 0
184 205 0
182 204 0
182 204 0
181 203 0
183 204 0
182 204 0
181 202 0
180 203 0
182 204 0
182 203 0
181 202 0
182 204 0
180 202 0
182 203 0
184 205 0
178 200 0
181 203 0
179 202 0
182 203 0
180 202 0
180 202 0
180 202 0
179 202 0
180 203 0
180 202 0
180 201 0
180 202 0
181 203 0
182 204 0
184 205 0
179 201 0
178 201 0
184 204 0
180 203 0
180 203 0
183 204 0
180 202 0
181 203 0
180 202 0
182 204 0
180 202 0
180 202 0
178 201 0
181 203 0
182 203 0
179 202 0
182 202 0
177 201 0
182 204 0
183 204 0
182 203 0
179 201 0
181 203 0
181 203 0
182 204 0
183 204 0
181 203 0
181 203 0
183 204 0
183 204 0
180 203 0
182 203 0
176 198 0
180 203 0
182 204 0
179 202 0
181 203 0
182 203 0
181 203 0
180 202 0
180 201 0
181 202 0
182 204 0
178 201 0
179 202 0
181 203 0
179 200 0
179 201 0
181 203 0
180 203 0
183 204 0
179 201 0
181 202 0
180 202 0
181 203 0
185 205 0
182 204 0
181 202 0
181 203 0
179 201 0
179 201 0
181 202 0
181 203 0
181 202 0
182 204 0
184 205 0
184 204 0
179 202 0
180 203 0
179 201 0
181 203 0
183 204 0
181 203 0
184 205 0
179 199 0
181 203 0
182 203 0
181 203 0
181 203 0
181 203 0
181 202 0
180 201 0
183 204 0
185 205 0
182 204 0
183 204 0
177 200 0
181 203 0
181 203 0
181 203 0
182 203 0
180 202 0
181 203 0
177 200 0
181 203 0
181 202 0
180 202 0
180 203 0
179 201 0
176 198 0
181 203 0
181 203 0
182 204 0
180 202 0
181 203 0
179 201 0
182 204 0
182 204 0
177 198 0
183 204 0
181 203 0
179 201 0
182 204 0
181 201 0
181 203 0
181 203 0
181 202 0
180 202 0
181 203 0
181 203 0
181 203 0
181 203 0
177 200 0
182 204 0
182 204 0
178 199 0
182 204 0
182 204 0
181 203 0
184 205 0
183 204 0
181 203 0
181 203 0
178 202 0
181 202 0
182 204 0
180 202 0
181 203 0
179 201 0
178 201 0
184 205 0
179 201 0
181 203 0
180 202 0
181 203 0
182 204 0
181 203 0
182 204 0
177 200 0
178 201 0
181 202 0
182 203 0
182 203 0
182 204 0
181 203 0
181 203 0
183 204 0
181 203 0
181 203 0
181 203 0
183 204 0
179 202 0
181 203 0
178 200 0
182 203 0
180 202 0
179 202 0
181 203 0
181 203 0
183 204 0
182 204 0
180 202 0
180 201 0
179 201 0
182 204 0
181 202 0
183 204 0
181 203 0
182 204 0
184 205 0
181 202 0
182 204 0
183 204 0
182 204 0
181 202 0
182 204 0
182 204 0
182 203 0
183 204 0
183 204 0
183 204 0
182 204 0
183 204 0
183 204 0
180 202 0
183 204 0
177 199 0
179 201 0
180 203 0
182 204 0
180 201 0
184 205 0
181 203 0
182 204 0
183 204 0
181 203 0
180 201 0
183 204 0
181 203 0
181 203 0
183 204 0
182 204 0
183 203 0
182 204 0
181 203 0
179 201 0
182 204 0
182 204 0
181 203 0
181 203 0
180 203 0
180 202 0
183 204 0
181 203 0
182 203 0
183 204 0
181 203 0
180 203 0
181 203 0
181 203 0
182 203 0
181 203 0
181 203 0
180 203 0
180 202 0
181 203 0
184 205 0
181 203 0
181 203 0
182 204 0
180 203 0
181 203 0
181 203 0
183 204 0
182 204 0
181 203 0
182 203 0
181 203 0
184 205 0
181 203 0
181 203 0
182 204 0
182 203 0
183 204 0
185 205 0
181 203 0
182 204 0
183 204 0
182 204 0
181 203 0
182 203 0
182 204 0
182 204 0
185 205 0
182 204 0
180 203 0
181 203 0
181 203 0
179 202 0
183 204 0
182 204 0
181 203 0
182 204 0
181 203 0
180 203 0
181 203 0
180 203 0
184 205 0
183 204 0
182 204 0
181 202 0
179 202 0
180 202 0
183 204 0
182 203 0
179 202 0
183 204 0
183 204 0
181 202 0
180 203 0
180 203 0
183 204 0
181 203 0
182 204 0
183 204 0
181 203 0
181 203 0
182 204 0
180 202 0
179 202 0
182 204 0
182 204 0
181 203 0
183 204 0
178 201 0
184 205 0
182 204 0
182 204 0
179 200 0
180 203 0
181 203 0
181 203 0
180 203 0
182 204 0
183 204 0
181 203 0
181 203 0
181 203 0
181 203 0
181 202 0
182 204 0
180 203 0
183 204 0
183 204 0
183 204 0
181 202 0
181 203 0
180 203 0
177 199 0
183 204 0
182 203 0
180 203 0
180 202 0
183 204 0
181 202 0
182 203 0
181 202 0
183 204 0
181 202 0
183 204 0
181 203 0
179 201 0
178 201 0
182 204 0
184 205 0
180 203 0
181 203 0
182 204 0
182 204 0
183 204 0
182 204 0
177 199 0
181 203 0
181 203 0
179 201 0
178 201 0
181 203 0
183 204 0
182 204 0
183 204 0
183 204 0
183 204 0
181 203 0
179 201 0
180 202 0
181 203 0
182 203 0
181 202 0
178 201 0
183 204 0
180 202 0
179 201 0
182 204 0
182 203 0
178 200 0
182 204 0
184 204 0
182 204 0
179 201 0
183 204 0
181 203 0
182 204 0
178 200 0
182 204 0
182 204 0
180 203 0
179 201 0
181 203 0
181 202 0
181 202 0
183 204 0
181 203 0
180 202 0
181 202 0
179 202 0
181 202 0
180 203 0
181 202 0
181 202 0
181 203 0
182 203 0
181 202 0
182 203 0
184 204 0
181 203 0
180 202 0
182 203 0
181 202 0
180 201 0
180 202 0
182 203 0
183 204 0
181 203 0
180 202 0
181 203 0
181 202 0
181 202 0
183 204 0
182 202 0
181 203 0
181 203 0
183 204 0
182 204 0
184 205 0
181 202 0
183 204 0
180 202 0
181 203 0
182 203 0
184 204 0
182 204 0
181 203 0
177 200 0
182 203 0
183 204 0
179 201 0
180 201 0
183 204 0
180 202 0
182 204 0
181 203 0
178 201 0
183 204 0
180 203 0
181 203 0
181 202 0
181 203 0
183 204 0
182 204 0
178 201 0
178 201 0
182 204 0
176 199 0
180 203 0
182 204 0
182 204 0
181 203 0
182 204 0
181 203 0
177 199 0
181 203 0
181 203 0
180 203 0
183 204 0
182 204 0
181 203 0
182 204 0
181 203 0
181 203 0
182 204 0
184 205 0
180 203 0
181 203 0
181 203 0
180 203 0
183 204 0
180 201 0
182 203 0
179 202 0
183 204 0
183 204 0
182 204 0
180 203 0
181 203 0
182 204 0
183 204 0
182 203 0
181 202 0
181 203 0
180 202 0
175 198 0
182 204 0
177 199 0
183 204 0
180 203 0
179 200 0
182 204 0
182 204 0
178 200 0
181 202 0
177 201 0
178 200 0
180 202 0
181 202 0
181 203 0
180 201 0
183 204 0
180 202 0
177 200 0
179 201 0
183 204 0
179 201 0
180 203 0
181 202 0
182 204 0
180 202 0
182 204 0
181 202 0
182 204 0
181 203 0
182 203 0
183 204 0
183 204 0
184 205 0
181 203 0
181 203 0
181 202 0
180 203 0
174 197 0
179 201 0
177 199 0
178 200 0
180 202 0
178 199 0
182 204 0
175 197 0
180 202 0
182 203 0
179 202 0
181 203 0
180 202 0
183 204 0
178 200 0
184 205 0
181 203 0
179 201 0
183 203 0
181 202 0
182 204 0
181 203 0
181 202 0
182 204 0
180 202 0
180 202 0
181 203 0
182 204 0
180 203 0
182 204 0
182 204 0
183 204 0
183 204 0
183 204 0
181 202 0
181 203 0
182 204 0
183 204 0
182 204 0
182 204 0
182 204 0
181 202 0
182 204 0
181 203 0
180 202 0
181 203 0
181 203 0
182 204 0
182 204 0
180 202 0
181 203 0
181 202 0
181 203 0
182 204 0
182 204 0
180 203 0
182 204 0
181 203 0
183 204 0
184 205 0
180 203 0
183 204 0
183 204 0
181 203 0
183 204 0
181 203 0
181 203 0
182 204 0
181 203 0
183 204 0
182 204 0
183 204 0
182 204 0
181 203 0
182 204 0
181 203 0
182 204 0
181 203 0
181 202 0
183 204 0
182 204 0
182 204 0
179 202 0
180 202 0
182 204 0
184 205 0
180 202 0
180 202 0
182 204 0
181 203 0
182 204 0
180 203 0
179 202 0
182 204 0
181 202 0
180 203 0
182 204 0
179 201 0
182 204 0
182 203 0
182 204 0
184 205 0
183 204 0
183 204 0
181 203 0
181 203 0
180 203 0
182 204 0
183 204 0
181 203 0
180 202 0
182 204 0
181 203 0
183 204 0
182 204 0
180 203 0
184 205 0
180 203 0
182 204 0
182 204 0
183 204 0
180 203 0
183 204 0
183 204 0
182 204 0
183 204 0
183 204 0
180 203 0
183 204 0
182 204 0
179 202 0
180 202 0
181 203 0
183 204 0
182 204 0
181 203 0
182 203 0
181 203 0
181 203 0
180 202 0
182 203 0
181 203 0
182 204 0
180 203 0
182 204 0
181 203 0
182 203 0
182 204 0
181 203 0
181 203 0
180 202 0
180 203 0
181 203 0
182 204 0
181 203 0
183 204 0
180 203 0
183 204 0
184 205 0
180 202 0
180 203 0
181 203 0
181 202 0
182 204 0
181 203 0
182 204 0
181 203 0
182 204 0
182 204 0
181 203 0
182 204 0
181 203 0
183 204 0
183 204 0
183 204 0
182 203 0
183 204 0
182 204 0
182 203 0
182 203 0
182 204 0
182 204 0
182 204 0
185 205 0
183 204 0
184 205 0
183 204 0
181 203 0
180 203 0
181 203 0
183 204 0
180 203 0
183 204 0
179 202 0
181 203 0
180 203 0
180 203 0
179 201 0
184 205 0
180 202 0
182 202 0
181 203 0
180 203 0
181 202 0
181 203 0
179 201 0
182 204 0
183 204 0
180 201 0
182 204 0
183 204 0
180 202 0
184 205 0
179 201 0
183 204 0
183 204 0
180 202 0
181 202 0
181 202 0
181 203 0
182 204 0
181 203 0
182 204 0
179 202 0
181 203 0
183 204 0
182 203 0
181 203 0
181 203 0
181 203 0
185 205 0
179 202 0
182 204 0
182 204 0
179 201 0
181 203 0
180 202 0
182 204 0
183 204 0
181 203 0
180 202 0
181 202 0
182 204 0
179 201 0
179 202 0
180 202 0
182 204 0
179 200 0
180 202 0
186 206 0
181 203 0
179 200 0
183 204 0
181 202 0
180 202 0
182 203 0
181 203 0
175 198 0
182 203 0
185 205 0
181 203 0
182 203 0
182 204 0
179 202 0
184 205 0
182 204 0
176 199 0
179 202 0
180 202 0
180 202 0
183 204 0
183 204 0
179 201 0
182 204 0
179 201 0
180 203 0
179 202 0
181 202 0
181 203 0
179 201 0
181 202 0
183 204 0
182 204 0
183 204 0
180 202 0
178 200 0
182 204 0
182 204 0
183 204 0
182 204 0
179 201 0
180 203 0
180 202 0
182 204 0
178 201 0
179 202 0
181 203 0
180 202 0
182 204 0
183 204 0
182 204 0
180 201 0
181 202 0
180 202 0
182 203 0
180 201 0
183 204 0
182 203 0
180 202 0
178 200 0
181 203 0
183 204 0
178 200 0
185 205 0
183 204 0
181 202 0
180 203 0
180 202 0
180 202 0
183 204 0
180 202 0
183 204 0
181 203 0
179 201 0
179 202 0
182 204 0
186 206 0
183 204 0
180 201 0
181 203 0
182 204 0
182 204 0
183 204 0
179 201 0
183 204 0
182 203 0
181 203 0
178 202 0
181 203 0
179 201 0
184 204 0
182 204 0
183 204 0
181 203 0
180 202 0
178 200 0
180 202 0
178 201 0
185 205 0
184 205 0
182 204 0
183 204 0
181 203 0
183 204 0
183 204 0
180 201 0
180 201 0
181 203 0
180 202 0
180 202 0
184 205 0
183 204 0
180 202 0
182 204 0
179 202 0
182 203 0
182 204 0
181 202 0
177 199 0
183 204 0
183 204 0
176 198 0
183 204 0
180 202 0
181 203 0
180 202 0
180 203 0
179 202 0
180 200 0
182 204 0
179 202 0
179 202 0
177 199 0
180 201 0
177 199 0
182 203 0
180 201 0
182 204 0
181 203 0
180 203 0
180 202 0
181 203 0
182 204 0
179 200 0
181 203 0
182 204 0
182 204 0
178 201 0
181 203 0
184 205 0
176 198 0
181 203 0
181 203 0
182 204 0
181 203 0
180 202 0
179 201 0
182 204 0
181 202 0
181 203 0
180 203 0
180 202 0
183 204 0
180 202 0
181 203 0
181 203 0
181 203 0
181 202 0
179 202 0
180 203 0
183 204 0
180 201 0
180 202 0
183 204 0
183 204 0
182 203 0
181 202 0
182 204 0
181 202 0
180 202 0
183 204 0
183 204 0
182 204 0
183 204 0
183 204 0
181 203 0
183 204 0
182 204 0
180 203 0
182 204 0
181 203 0
178 202 0
184 205 0
182 204 0
182 204 0
180 203 0
182 204 0
180 202 0
181 203 0
182 204 0
181 203 0
183 204 0
183 204 0
180 202 0
181 203 0
184 205 0
180 202 0
180 202 0
182 204 0
181 203 0
181 203 0
181 203 0
183 204 0
182 203 0
183 204 0
181 203 0
181 203 0
182 204 0
183 204 0
184 205 0
178 201 0
179 201 0
180 202 0
180 201 0
183 204 0
184 205 0
181 203 0
182 204 0
181 203 0
180 203 0
180 202 0
181 203 0
182 204 0
181 203 0
178 200 0
182 204 0
180 203 0
182 204 0
180 203 0
181 203 0
183 204 0
182 204 0
183 204 0
180 202 0
182 204 0
180 203 0
183 204 0
182 204 0
184 205 0
182 203 0
182 204 0
181 203 0
180 203 0
184 205 0
181 203 0
184 205 0
182 204 0
180 202 0
182 204 0
183 204 0
183 204 0
180 203 0
184 205 0
180 203 0
183 204 0
181 202 0
182 204 0
180 203 0
182 204 0
181 203 0
181 203 0
181 203 0
182 204 0
184 205 0
181 203 0
181 203 0
182 204 0
182 204 0
181 203 0
181 203 0
181 202 0
181 203 0
179 202 0
183 204 0
180 203 0
181 203 0
183 204 0
181 203 0
180 203 0
183 204 0
182 204 0
178 201 0
182 204 0
181 203 0
184 205 0
182 204 0
181 203 0
182 204 0
182 204 0
180 202 0
183 204 0
181 203 0
184 205 0
183 204 0
182 204 0
183 204 0
181 203 0
182 204 0
182 204 0
182 204 0
183 204 0
181 203 0
181 203 0
181 203 0
182 204 0
182 204 0
181 203 0
179 201 0
182 203 0
181 203 0
182 204 0
182 204 0
182 203 0
182 204 0
181 202 0
181 203 0
183 204 0
183 204 0
182 204 0
180 202 0
180 202 0
183 204 0
179 202 0
180 202 0
182 204 0
180 202 0
180 202 0
183 204 0
180 203 0
182 204 0
182 204 0
178 201 0
182 204 0
180 203 0
181 203 0
181 203 0
181 203 0
181 203 0
180 202 0
180 203 0
180 203 0
182 204 0
181 203 0
179 201 0
183 203 0
178 201 0
184 205 0
182 203 0
180 202 0
178 201 0
183 203 0
183 204 0
181 203 0
179 201 0
179 201 0
181 203 0
180 202 0
183 204 0
181 203 0
179 202 0
182 204 0
182 204 0
183 204 0
180 202 0
181 202 0
180 203 0
179 202 0
179 201 0
181 203 0
181 203 0
182 204 0
182 204 0
181 203 0
182 203 0
180 202 0
179 200 0
182 203 0
178 200 0
182 203 0
182 204 0
181 203 0
180 202 0
181 203 0
181 202 0
182 204 0
181 203 0
184 205 0
180 202 0
181 203 0
180 202 0
181 203 0
182 203 0
183 204 0
180 202 0
180 203 0
182 203 0
179 200 0
180 203 0
182 204 0
183 204 0
180 202 0
180 202 0
180 202 0
180 203 0
180 203 0
179 201 0
180 202 0
177 199 0
182 204 0
178 200 0
181 203 0
182 203 0
179 201 0
182 204 0
182 204 0
179 201 0
182 204 0
180 202 0
181 202 0
181 203 0
182 203 0
179 202 0
180 203 0
181 203 0
182 204 0
180 202 0
181 203 0
181 203 0
179 201 0
181 202 0
181 202 0
178 200 0
180 202 0
180 201 0
179 200 0
181 203 0
179 200 0
183 204 0
181 202 0
180 201 0
182 204 0
181 203 0
179 201 0
181 202 0
182 204 0
179 202 0
184 205 0
182 203 0
179 201 0
182 203 0
181 202 0
181 203 0
184 205 0
179 200 0
181 203 0
183 203 0
180 202 0
180 201 0
183 204 0
182 204 0
180 203 0
181 203 0
181 203 0
181 203 0
178 199 0
182 204 0
181 203 0
181 203 0
177 200 0
182 204 0
182 204 0
183 204 0
182 204 0
184 205 0
180 202 0
181 203 0
182 203 0
181 203 0
179 202 0
181 203 0
183 204 0
180 202 0
181 203 0
182 204 0
180 201 0
178 201 0
179 202 0
181 202 0
183 204 0
182 204 0
181 203 0
179 201 0
180 202 0
179 201 0
183 204 0
182 204 0
179 201 0
182 204 0
183 204 0
182 204 0
182 204 0
184 205 0
184 205 0
180 202 0
181 203 0
180 203 0
179 202 0
185 205 0
178 200 0
178 200 0
181 203 0
181 202 0
180 201 0
184 204 0
182 204 0
183 204 0
176 198 0
185 205 0
181 203 0
178 200 0
180 202 0
180 201 0
181 203 0
183 204 0
180 201 0
182 204 0
182 204 0
178 201 0
182 204 0
181 203 0
178 200 0
182 203 0
179 201 0
181 203 0
180 202 0
181 203 0
181 203 0
182 204 0
182 203 0
181 203 0
182 203 0
178 200 0
181 203 0
182 204 0
181 202 0
181 203 0
180 202 0
181 202 0
179 202 0
181 202 0
180 201 0
182 204 0
182 204 0
181 202 0
181 203 0
182 204 0
184 205 0
184 205 0
179 201 0
179 200 0
180 202 0
180 202 0
183 204 0
182 204 0
181 203 0
181 203 0
182 204 0
180 202 0
182 204 0
180 203 0
181 203 0
185 205 0
182 204 0
183 203 0
180 203 0
180 203 0
180 202 0
182 204 0
183 204 0
181 203 0
182 204 0
181 203 0
180 203 0
181 203 0
182 204 0
181 203 0
182 204 0
182 204 0
181 203 0
182 204 0
181 203 0
178 200 0
182 204 0
180 203 0
181 203 0
180 202 0
183 204 0
181 202 0
182 204 0
182 204 0
184 205 0
184 205 0
182 204 0
181 203 0
183 204 0
183 204 0
184 204 0
182 204 0
182 204 0
182 204 0
182 203 0
180 203 0
182 204 0
182 203 0
181 203 0
183 204 0
182 204 0
182 204 0
183 204 0
184 205 0
182 204 0
182 204 0
181 203 0
181 203 0
183 204 0
182 204 0
181 203 0
181 202 0
183 204 0
183 204 0
181 203 0
182 204 0
180 202 0
180 202 0
185 205 0
180 203 0
183 204 0
182 204 0
182 203 0
182 204 0
182 204 0
182 203 0
183 204 0
181 203 0
182 204 0
180 202 0
180 202 0
180 202 0
184 205 0
181 203 0
179 202 0
181 203 0
182 204 0
182 203 0
183 204 0
181 203 0
184 205 0
182 203 0
182 204 0
183 204 0
182 204 0
181 203 0
183 204 0
180 203 0
184 205 0
182 204 0
181 203 0
182 203 0
180 202 0
181 203 0
184 205 0
180 202 0
182 204 0
181 203 0
182 204 0
182 204 0
183 204 0
180 202 0
183 204 0
181 203 0
181 203 0
180 202 0
181 203 0
182 204 0
181 203 0
181 203 0
181 203 0
181 203 0
181 203 0
182 204 0
181 203 0
180 203 0
182 204 0
182 204 0
182 203 0
185 205 0
181 203 0
182 204 0
182 204 0
182 204 0
181 203 0
182 203 0
182 204 0
181 203 0
182 204 0
180 203 0
183 204 0
182 203 0
181 202 0
180 203 0
181 203 0
185 205 0
183 204 0
182 204 0
183 204 0
181 203 0
182 203 0
181 203 0
181 203 0
181 203 0
181 203 0
180 201 0
181 203 0
182 204 0
184 204 0
181 203 0
182 204 0
182 204 0
180 202 0
176 198 0
182 204 0
180 203 0
182 203 0
180 202 0
181 203 0
183 203 0
181 203 0
179 201 0
182 204 0
179 200 0
179 200 0
182 204 0
181 203 0
182 203 0
180 202 0
182 204 0
182 204 0
183 204 0
177 199 0
177 200 0
182 204 0
177 199 0
182 204 0
183 204 0
179 201 0
181 202 0
180 202 0
180 202 0
182 203 0
180 202 0
183 204 0
186 205 0
182 204 0
181 202 0
181 202 0
184 205 0
183 204 0
182 203 0
181 203 0
180 203 0
181 202 0
182 204 0
182 204 0
179 202 0
180 202 0
178 200 0
183 204 0
179 200 0
180 202 0
180 203 0
183 204 0
184 204 0
182 203 0
182 203 0
181 203 0
178 200 0
181 203 0
179 202 0
182 204 0
181 203 0
182 204 0
178 201 0
180 202 0
177 199 0
177 200 0
178 200 0
178 200 0
180 202 0
180 201 0
182 204 0
181 202 0
181 202 0
180 203 0
181 202 0
182 203 0
181 202 0
181 203 0
176 198 0
184 205 0
181 203 0
176 197 0
179 201 0
182 204 0
177 200 0
180 202 0
177 199 0
180 203 0
182 203 0
182 204 0
182 204 0
180 202 0
179 201 0
182 204 0
181 203 0
180 201 0
183 204 0
182 203 0
180 201 0
177 199 0
179 201 0
180 202 0
178 200 0
180 202 0
179 202 0
181 202 0
182 204 0
181 203 0
185 205 0
183 204 0
181 202 0
182 203 0
179 201 0
179 201 0
179 202 0
181 202 0
182 203 0
181 203 0
179 201 0
184 204 0
180 202 0
181 202 0
181 203 0
181 202 0
182 204 0
182 204 0
182 204 0
182 204 0
180 203 0
182 204 0
182 203 0
181 203 0
181 203 0
183 204 0
183 204 0
182 204 0
183 204 0
182 204 0
180 202 0
180 202 0
181 202 0
181 202 0
181 203 0
183 204 0
182 204 0
182 203 0
184 205 0
181 203 0
181 203 0
180 203 0
180 203 0
182 204 38
178 199 0
183 204 38
181 203 0
180 203 38
181 203 0
179 201 0
181 203 0
179 202 0
183 204 0
183 204 0
183 204 0
182 204 0
183 204 0
183 204 0
180 203 0
181 202 0
185 205 0
182 204 0
179 201 0
179 201 0
183 204 0
179 202 0
178 200 0
182 203 0
183 204 0
182 204 0
176 198 0
181 203 0
181 202 0
180 202 0
181 203 0
181 203 0
179 201 0
182 204 0
181 203 0
182 202 0
177 200 0
181 203 0
178 200 0
181 203 0
181 203 0
182 204 0
182 204 0
180 203 0
181 202 0
179 201 0
182 204 0
183 204 0
183 204 0
182 204 0
177 200 0
180 202 0
181 203 0
184 205 0
181 203 0
182 203 0
178 201 0
177 199 0
182 204 0
181 202 0
178 200 0
182 203 0
182 204 0
183 204 0
179 201 0
180 202 0
180 203 0
181 203 0
181 202 0
183 204 0
183 204 0
180 202 0
179 201 0
182 203 0
182 204 0
182 203 0
178 200 0
179 202 0
180 202 0
180 202 0
181 203 0
182 203 0
183 204 0
181 203 0
181 202 0
183 204 0
182 204 0
182 204 0
181 203 0
184 205 0
182 204 0
180 202 0
179 201 0
182 204 0
181 203 0
179 201 0
181 202 0
181 203 0
181 203 0
180 203 0
180 203 0
184 205 0
182 204 0
182 204 0
183 204 0
181 203 0
179 201 0
182 203 0
180 203 0
181 203 0
181 203 0
182 204 0
182 204 0
181 202 0
181 203 0
181 203 0
182 204 0
182 204 0
183 204 0
181 203 0
181 203 0
180 202 0
183 204 0
178 201 0
181 202 0
182 204 0
181 203 0
182 204 0
182 204 0
183 204 0
183 204 0
178 200 0
183 204 0
181 203 0
183 204 0
180 202 0
182 203 0
180 202 0
183 203 0
186 206 0
183 204 0
181 203 0
184 205 0
182 204 0
181 202 0
182 204 0
182 203 0
183 204 0
181 203 0
180 202 0
183 204 0
182 204 0
181 203 0
182 204 0
182 203 0
180 202 0
181 202 0
182 204 0
181 203 0
183 204 0
185 205 0
182 204 0
182 203 0
183 204 0
184 205 0
183 204 0
179 202 0
181 203 0
182 204 0
182 204 0
181 203 0
182 203 0
183 204 0
183 204 0
183 204 0
183 204 0
183 204 0
182 203 0
181 203 0
183 203 0
182 204 0
181 203 0
183 204 0
180 203 0
181 203 0
180 202 0
182 204 0
181 203 0
182 204 0
183 204 0
180 203 0
183 204 0
180 203 0
183 204 0
182 204 0
181 203 0
181 203 0
181 203 0
183 204 0
183 204 0
182 204 0
180 203 0
181 203 0
184 205 0
185 205 0
181 203 0
182 204 0
179 202 0
184 205 0
183 204 0
181 203 0
181 203 0
183 204 0
181 203 0
184 205 0
180 202 0
182 203 0
180 202 0
182 204 0
180 203 0
183 204 0
183 203 0
184 205 0
181 203 0
182 204 0
180 203 0
182 204 0
180 203 0
183 204 0
183 204 0
181 202 0
180 203 0
183 204 0
180 203 0
185 205 0
177 200 0
181 203 0
181 202 0
180 202 0
181 202 0
181 203 0
184 205 0
179 201 0
181 203 0
184 205 0
179 201 0
181 203 0
182 204 0
180 202 0
183 204 0
182 204 0
182 203 0
181 203 0
182 204 0
181 203 0
181 202 0
183 204 0
183 204 0
181 203 0
181 203 0
179 201 0
180 202 0
180 202 0
181 203 0
180 202 0
183 203 0
180 203 0
179 202 0
185 205 0
181 202 0
183 204 0
181 203 0
182 204 0
178 199 0
181 203 0
181 203 0
181 203 0
181 203 0
181 203 0
182 204 0
183 204 0
182 204 0
183 204 0
183 204 0
181 203 0
180 202 0
180 202 0
175 197 0
183 204 0
182 203 0
184 205 0
181 203 0
181 203 0
181 203 0
179 202 0
183 204 0
178 201 0
182 203 0
182 204 0
182 203 0
180 202 0
179 201 0
181 203 0
179 202 0
178 200 0
181 203 0
179 200 0
181 203 0
179 201 0
181 203 0
179 202 0
179 201 0
182 204 0
180 203 0
178 200 0
182 204 0
180 202 0
179 202 0
181 203 0
181 202 0
181 203 0
179 201 0
180 202 0
181 203 0
180 202 0
181 203 0
181 203 0
179 202 0
180 202 0
181 202 0
180 202 0
179 202 0
182 204 0
177 200 0
181 202 0
181 203 0
180 202 0
181 201 0
182 203 0
180 201 0
177 199 0
180 202 0
183 204 0
181 203 0
185 205 0
182 203 0
182 204 0
182 203 0
180 201 0
178 200 0
181 203 0
181 203 0
177 199 0
179 201 0
179 201 0
180 202 0
181 203 0
179 201 0
183 203 0
183 203 0
180 202 0
183 204 0
180 203 0
183 204 0
179 201 0
180 202 0
182 204 0
180 202 0
180 203 0
183 204 0
181 203 0
181 203 0
181 202 0
181 203 0
181 203 0
183 204 0
180 202 0
180 203 0
185 205 0
180 203 0
178 200 0
181 203 0
181 203 0
182 204 0
184 205 0
182 204 0
180 202 0
180 202 0
180 202 0
182 204 0
183 204 0
180 203 56
181 203 0
183 204 56
180 203 56
182 204 38
180 202 38
182 204 56
182 204 56
180 203 38
183 204 0
179 202 38
180 203 38
180 202 0
181 203 0
181 203 38
180 202 0
180 203 0
183 204 0
181 203 0
181 203 0
183 204 0
182 203 0
181 203 0
184 205 0
179 201 0
182 204 0
180 203 0
182 204 0
180 202 0
181 203 0
182 203 0
183 204 0
180 202 0
182 204 0
180 202 0
182 204 0
179 201 0
182 204 0
172 195 0
177 199 0
183 204 0
177 200 0
179 201 0
182 204 0
181 202 0
178 200 0
179 201 0
179 201 0
181 202 0
179 201 0
181 202 0
179 201 0
180 201 0
178 201 0
182 203 0
179 200 0
181 203 0
178 200 0
179 200 0
182 204 0
179 201 0
181 203 0
178 200 0
182 203 0
180 203 0
181 203 0
179 202 0
182 204 0
182 204 0
181 203 0
183 204 0
182 204 0
181 203 0
180 202 0
183 204 0
183 204 0
178 200 0
180 202 0
179 201 0
182 203 0
179 201 0
180 203 0
178 199 0
180 202 0
181 203 0
181 203 0
181 203 0
178 200 0
182 204 0
182 204 0
182 203 0
182 204 0
180 202 0
183 204 0
182 204 0
181 203 0
180 202 0
182 204 0
182 203 0
181 203 0
181 203 0
183 204 0
184 205 0
181 203 0
182 204 0
183 204 0
182 204 0
180 202 0
178 201 0
181 203 0
183 204 0
181 203 0
181 203 0
183 204 0
181 203 0
183 204 0
183 204 0
182 204 0
181 203 0
182 204 0
180 203 0
183 204 0
182 204 0
180 202 0
180 202 0
181 203 0
181 203 0
182 203 0
182 204 0
181 203 0
180 202 0
183 204 0
181 203 0
180 202 0
181 202 0
181 203 0
182 204 0
181 203 0
183 204 0
183 204 0
182 204 0
181 203 0
182 203 0
181 203 0
181 203 0
180 202 0
181 203 0
179 202 0
181 203 0
181 203 0
180 203 0
183 204 0
183 204 0
182 204 0
183 204 0
181 203 0
180 203 0
181 203 0
181 202 0
184 205 0
181 203 0
181 203 0
183 204 0
180 202 0
181 203 0
179 202 0
182 204 0
183 204 0
182 204 0
184 205 0
181 203 0
181 203 0
183 204 0
179 201 0
182 204 0
180 203 0
181 203 0
180 202 0
183 204 0
180 203 0
181 203 0
181 203 0
183 204 0
179 202 0
179 202 0
182 204 0
182 204 0
184 205 0
181 203 0
181 203 0
182 204 0
181 203 0
181 202 0
182 204 0
180 202 0
181 203 0
181 202 0
185 205 0
182 204 0
181 203 0
182 204 0
183 204 0
182 204 0
181 203 0
181 203 0
181 203 0
182 204 0
182 204 0
181 202 0
183 204 0
182 204 0
183 204 0
181 203 0
182 204 0
180 203 0
182 204 0
180 202 0
183 204 0
181 203 0
181 203 0
181 203 0
184 205 0
181 203 0
182 203 0
182 204 0
180 202 0
182 204 0
181 203 0
181 203 0
181 203 0
181 203 0
183 204 0
183 204 0
183 204 0
181 203 0
183 204 0
185 205 0
181 203 0
184 205 0
182 204 0
180 202 0
184 205 0
183 204 0
184 205 0
183 204 0
182 204 0
181 203 0
184 205 0
184 205 0
182 204 0
183 204 0
183 204 0
182 204 0
178 200 0
181 203 0
184 205 0
180 202 0
182 203 0
181 203 0
179 201 0
184 205 0
181 203 0
176 199 0
182 203 0
180 202 0
182 203 0
182 204 0
178 200 0
181 203 0
181 203 0
184 205 0
178 201 0
181 203 0
180 202 0
179 201 0
182 204 0
179 202 0
180 202 0
181 202 0
182 203 0
178 201 0
181 203 0
183 204 0
182 204 0
180 202 0
182 203 0
176 199 0
181 203 0
176 198 0
182 204 0
182 204 0
184 205 0
181 202 0
180 202 0
183 204 0
183 204 0
182 204 0
179 202 0
181 203 0
181 202 0
181 202 0
181 202 0
184 205 0
180 203 0
181 203 0
178 201 0
183 204 0
183 204 0
183 204 0
179 202 0
181 203 0
180 202 0
178 200 0
183 204 0
182 203 0
180 203 0
183 204 0
181 203 0
182 204 0
178 201 0
179 201 0
178 200 0
182 204 0
181 202 0
179 201 0
175 198 0
183 204 0
181 203 0
182 204 0
177 200 0
179 201 0
181 203 0
179 201 0
181 203 0
180 202 0
180 201 0
180 202 0
179 201 0
181 202 0
180 201 0
179 202 0
180 202 0
180 202 0
177 199 0
180 201 0
180 202 0
182 203 0
178 200 0
182 204 0
179 201 0
183 204 0
181 202 0
183 204 0
179 202 0
179 200 0
183 204 0
183 204 0
182 204 0
181 203 0
181 202 0
177 200 0
180 202 0
181 202 0
179 200 0
183 203 0
181 202 0
178 200 0
182 204 0
180 202 0
180 202 0
183 204 0
181 202 0
182 203 0
180 203 0
179 201 0
181 203 0
181 203 0
183 204 0
183 204 0
183 204 0
183 204 0
178 201 0
182 204 0
182 203 0
182 203 0
180 203 0
184 205 0
181 203 0
180 202 0
183 204 0
181 203 0
179 201 0
181 203 0
182 203 0
182 203 0
182 204 0
181 203 0
180 202 0
181 202 0
184 205 56
181 203 38
180 201 0
183 204 38
182 204 56
185 206 69
191 211 129
185 206 69
187 208 104
191 211 129
194 213 144
187 207 124
193 211 144
189 209 104
183 205 89
182 203 56
181 202 56
183 204 38
181 204 56
179 203 69
185 205 38
182 204 38
181 203 0
183 204 0
183 204 0
183 204 0
179 201 0
184 205 0
182 203 0
182 204 0
179 201 0
181 203 0
180 202 0
182 203 0
184 205 0
179 200 0
182 204 0
183 203 0
180 202 0
182 204 0
180 202 0
178 200 0
182 204 0
182 203 0
181 203 0
179 202 0
180 202 0
180 202 0
182 203 0
174 196 0
176 198 0
178 201 0
175 197 0
179 201 0
181 203 0
176 198 0
179 201 0
183 204 0
182 204 0
180 203 0
183 204 0
180 201 0
181 203 0
184 205 0
180 202 0
176 199 0
180 203 0
180 202 0
180 203 0
178 200 0
184 205 0
182 204 0
180 202 0
175 197 0
182 204 0
181 203 0
180 202 0
183 204 0
183 204 0
181 202 0
183 204 0
179 202 0
182 204 0
182 204 0
182 204 0
179 201 0
182 204 0
184 205 0
180 202 0
181 203 0
180 202 0
181 203 0
182 203 0
182 204 0
182 203 0
182 204 0
183 204 0
182 203 0
183 204 0
180 202 0
181 203 0
185 205 0
181 203 0
182 204 0
181 202 0
178 201 0
181 203 0
182 204 0
179 202 0
178 200 0
182 204 0
181 202 0
180 201 0
179 202 0
179 202 0
180 202 0
182 204 0
182 204 0
184 205 0
179 200 0
181 203 0
180 202 0
181 203 0
178 201 0
180 202 0
182 203 0
179 202 0
180 203 0
183 204 0
181 203 0
180 202 0
181 203 0
183 204 0
181 203 0
183 204 0
181 202 0
180 202 0
181 203 0
182 204 0
182 203 0
182 204 0
181 203 0
181 203 0
182 204 0
182 204 0
183 204 0
181 202 0
182 204 0
181 203 0
183 204 0
183 204 0
181 203 0
182 204 0
181 203 0
182 204 0
183 204 0
183 204 0
181 203 0
181 203 0
179 202 0
182 204 0
183 204 0
182 204 0
182 204 0
183 204 0
183 204 0
181 203 0
183 204 0
181 202 0
181 202 0
182 204 0
182 204 0
181 203 0
181 203 0
182 203 0
179 202 0
184 205 0
184 205 0
182 203 0
183 204 0
184 205 0
181 203 0
181 203 0
181 203 0
182 203 0
181 203 0
180 203 0
183 204 0
180 203 0
180 202 0
182 204 0
180 202 0
180 202 0
181 203 0
182 204 0
181 203 0
180 202 0
182 204 0
182 204 0
182 204 0
184 205 0
180 203 0
183 204 0
182 203 0
184 205 0
183 204 0
184 205 0
184 205 0
180 203 0
184 205 0
184 205 0
180 203 0
180 202 0
183 204 0
182 204 0
183 204 0
183 204 0
181 202 0
182 203 0
180 203 0
181 203 0
182 204 0
182 204 0
182 204 0
181 203 0
179 202 0
183 204 0
180 203 0
183 204 0
180 202 0
181 203 0
183 204 0
182 203 0
183 204 0
182 204 0
182 204 0
181 203 0
182 204 0
183 204 0
183 204 0
183 204 0
182 204 0
181 203 0
180 203 0
180 201 0
182 204 0
182 204 0
182 204 0
182 204 0
180 202 0
183 204 0
182 203 0
183 204 0
181 203 0
181 203 0
181 203 0
183 204 0
179 201 0
180 202 0
180 201 0
183 204 0
181 203 0
182 204 0
182 204 0
182 204 0
179 201 0
180 202 0
181 203 0
180 202 0
181 203 0
182 203 0
183 204 0
182 204 0
181 202 0
180 202 0
182 204 0
182 204 0
181 202 0
183 204 0
182 204 0
181 203 0
178 200 0
183 204 0
180 202 0
179 201 0
181 202 0
181 202 0
181 203 0
182 204 0
183 204 0
184 205 0
180 202 0
179 201 0
181 203 0
181 203 0
183 204 0
181 203 0
180 202 0
181 203 0
182 204 0
182 204 0
179 201 0
180 202 0
177 199 0
181 202 0
182 203 0
181 203 0
182 203 0
180 202 0
182 204 0
178 200 0
179 201 0
181 203 0
181 203 0
180 202 0
181 203 0
182 204 0
181 203 0
185 205 0
182 203 0
180 203 0
180 202 0
184 205 0
182 204 0
182 204 0
177 199 0
180 203 0
180 202 0
178 200 0
178 200 0
182 204 0
180 202 0
178 199 0
181 203 0
181 202 0
181 202 0
178 200 0
182 204 0
182 203 0
183 204 0
181 203 0
181 203 0
177 199 0
181 203 0
180 203 0
178 200 0
181 203 0
177 199 0
182 204 0
182 203 0
182 204 0
180 202 0
179 202 0
181 203 0
178 200 0
178 200 0
175 196 0
179 201 0
180 202 0
182 204 0
182 204 0
182 203 0
182 203 0
183 204 0
179 201 0
180 203 0
182 204 0
179 202 0
180 203 0
182 204 0
176 199 0
179 202 0
181 203 0
180 202 0
175 197 0
182 204 0
180 201 0
182 204 0
182 204 0
181 202 0
180 202 0
183 204 0
179 201 0
182 203 0
182 203 0
183 204 0
181 203 0
180 203 0
184 205 0
180 202 0
181 203 0
180 203 0
180 202 0
180 202 0
183 204 0
182 204 0
180 202 38
181 203 38
181 203 38
180 202 0
183 205 97
184 205 89
182 204 69
188 208 97
189 209 124
184 205 69
186 206 80
189 209 118
188 208 111
186 206 111
187 208 97
189 208 111
185 206 80
191 211 129
185 206 97
185 206 89
190 210 124
187 208 104
189 209 118
185 206 69
178 200 0
178 201 0
180 202 0
182 203 0
179 201 0
180 202 0
182 203 0
177 199 0
181 203 0
182 204 0
182 204 0
180 201 0
180 202 0
180 202 0
179 201 0
179 201 0
183 204 0
183 204 0
181 203 0
180 202 0
174 197 0
178 199 0
181 202 0
178 199 0
183 204 0
182 204 0
183 204 0
182 204 0
181 202 0
179 202 0
181 203 0
179 201 0
179 201 0
181 202 0
180 201 0
184 205 0
179 201 0
179 201 0
179 201 0
181 203 0
180 202 0
181 202 0
180 202 0
181 202 0
183 204 0
181 203 0
177 199 0
179 201 0
180 202 0
180 202 0
183 204 0
181 202 0
182 204 0
180 203 0
181 203 0
177 199 0
180 202 0
178 201 0
180 203 0
181 202 0
178 200 0
182 203 0
184 205 0
181 203 0
181 203 0
184 205 0
181 203 0
181 203 0
179 202 0
183 204 0
182 204 0
182 204 0
181 203 0
181 203 0
181 203 0
180 202 0
180 202 0
181 202 0
183 204 0
183 204 0
181 202 0
182 203 0
182 204 0
182 203 0
182 204 0
180 202 0
180 201 0
182 204 0
179 202 0
180 203 0
181 203 0
182 204 0
181 203 0
180 203 0
180 203 0
181 203 0
184 205 0
181 203 0
184 205 0
182 204 0
183 204 0
183 204 0
182 203 0
181 202 0
181 202 0
178 200 0
181 203 0
183 204 0
180 203 0
184 205 0
181 203 0
182 204 0
183 204 0
182 203 0
179 202 0
183 204 0
180 203 0
181 202 0
181 203 0
183 204 0
181 203 0
179 201 0
182 204 0
180 203 0
183 204 0
182 204 0
184 205 0
182 203 0
180 203 0
181 203 0
183 204 0
181 203 0
183 204 0
182 204 0
179 202 0
183 204 0
181 203 0
180 203 0
185 205 0
183 204 0
181 203 0
181 203 0
180 203 0
181 202 0
182 204 0
181 203 0
183 204 0
180 203 0
182 203 0
184 205 0
182 204 0
181 203 0
182 204 0
182 203 0
183 204 0
183 204 0
183 204 0
183 204 0
183 204 0
181 203 0
182 204 0
182 204 0
182 204 0
183 204 0
181 203 0
182 204 0
180 202 0
182 203 0
181 203 0
182 204 0
181 203 0
184 205 0
180 202 0
182 204 0
181 203 0
182 204 0
181 202 0
183 204 0
180 203 0
181 203 0
182 204 0
179 202 0
182 204 0
182 204 0
183 204 0
180 203 0
181 203 0
181 203 0
180 203 0
181 203 0
179 201 0
179 202 0
181 203 0
183 204 0
181 202 0
183 204 0
181 203 0
184 205 0
182 204 0
183 204 0
178 201 0
181 203 0
183 204 0
183 204 0
181 203 0
181 203 0
183 204 0
180 203 0
179 202 0
181 203 0
181 203 0
181 203 0
183 204 0
182 204 0
180 202 0
181 203 0
182 203 0
182 204 0
183 204 0
181 203 0
183 204 0
181 202 0
181 203 0
180 203 0
180 203 0
179 202 0
180 202 0
179 201 0
181 202 0
182 204 0
181 203 0
181 202 0
183 204 0
181 203 0
181 203 0
180 202 0
181 203 0
183 204 0
180 202 0
181 203 0
182 203 0
181 203 0
182 203 0
180 202 0
181 203 0
181 203 0
182 204 0
181 203 0
182 204 0
180 203 0
181 203 0
181 203 0
181 203 0
181 203 0
182 204 0
179 201 0
183 204 0
181 202 0
183 204 0
180 203 0
178 201 0
179 202 0
180 202 0
181 202 0
183 204 0
180 202 0
182 203 0
181 202 0
175 199 0
182 203 0
180 203 0
182 204 0
181 203 0
181 202 0
182 203 0
183 204 0
182 203 0
181 203 0
179 200 0
182 204 0
180 202 0
182 203 0
182 204 0
181 202 0
181 203 0
180 202 0
183 204 0
180 202 0
181 202 0
180 202 0
177 199 0
180 202 0
178 200 0
181 203 0
180 203 0
179 201 0
181 203 0
181 203 0
179 202 0
181 202 0
178 200 0
174 197 0
178 200 0
182 204 0
179 201 0
182 204 0
179 202 0
176 199 0
177 199 0
180 202 0
180 202 0
182 203 0
180 201 0
179 202 0
180 202 0
182 204 0
182 203 0
180 201 0
180 203 0
179 202 0
179 200 0
184 205 0
180 203 0
178 201 0
179 201 0
182 204 0
179 202 0
181 202 0
183 204 0
180 202 0
179 201 0
178 200 0
177 200 0
182 204 0
181 203 0
179 201 0
182 204 0
182 204 0
181 202 0
179 200 0
180 201 0
180 201 0
182 203 0
182 203 0
179 201 0
179 200 0
182 203 0
178 200 0
183 204 0
181 203 0
178 200 0
183 204 0
176 199 0
179 201 0
179 202 0
182 204 0
179 201 0
178 200 0
179 202 0
182 203 0
182 204 0
176 198 0
181 203 0
181 203 0
179 201 0
179 201 0
181 202 0
182 203 0
181 203 0
180 202 0
182 204 0
181 202 0
181 202 0
180 202 38
180 203 38
180 203 0
182 203 0
182 204 0
187 208 97
191 211 124
187 208 104
190 210 118
190 210 134
189 210 124
188 209 129
186 207 69
187 208 104
186 207 97
183 204 104
186 207 97
187 208 97
181 203 69
185 206 80
188 209 111
188 209 118
183 204 69
188 208 104
188 209 111
188 209 118
184 204 97
183 204 108
183 204 69
178 200 75
176 199 0
181 203 0
181 202 0
181 202 0
180 202 0
182 204 0
181 202 0
179 201 0
177 200 0
181 202 0
182 204 0
178 200 0
182 204 0
182 203 0
180 202 0
177 200 0
179 200 0
181 202 0
177 200 0
179 201 0
179 201 0
178 200 0
180 201 0
175 196 0
180 202 0
182 204 0
182 204 0
181 203 0
177 200 0
181 203 0
181 203 0
181 202 0
182 203 0
179 201 0
180 202 0
183 204 0
180 201 0
180 203 0
178 201 0
182 204 0
181 202 0
182 203 0
179 201 0
180 202 0
179 201 0
178 202 0
177 200 0
180 201 0
180 201 0
176 199 0
182 204 0
180 202 0
182 203 0
181 203 0
184 205 0
179 202 0
181 203 0
182 204 0
179 202 0
180 202 0
178 201 0
180 202 0
179 201 0
179 201 0
181 203 0
182 203 0
182 204 0
181 203 0
180 202 0
181 203 0
180 203 0
183 204 0
180 202 0
183 204 0
181 203 0
180 201 0
182 204 0
184 205 0
182 204 0
179 202 0
180 203 0
182 204 0
179 202 0
183 204 0
178 200 0
177 200 0
181 203 0
180 203 0
180 202 0
179 201 0
181 203 0
182 204 0
181 203 0
181 203 0
181 203 0
183 204 0
180 202 0
181 203 0
180 202 0
181 202 0
184 205 0
181 203 0
181 203 0
182 204 0
181 203 0
182 204 0
183 204 0
179 202 0
180 202 0
180 202 0
182 204 0
181 203 0
180 202 0
183 204 0
181 203 0
181 203 0
183 204 0
180 202 0
182 204 0
180 203 0
181 203 0
183 204 0
178 201 0
182 203 0
182 204 0
182 204 0
184 204 0
182 204 0
185 205 0
182 203 0
181 203 0
182 204 0
184 205 0
182 204 0
185 205 0
182 204 0
182 204 0
181 203 0
182 204 0
182 204 0
182 204 0
183 204 0
183 204 0
184 205 0
180 203 0
181 203 0
182 203 0
181 203 0
180 203 0
184 205 0
180 202 0
182 204 0
180 203 0
182 204 0
180 202 0
181 203 0
184 205 0
180 203 0
181 203 0
183 204 0
184 205 0
184 205 0
182 204 0
179 201 0
183 204 0
181 203 0
181 203 0
178 201 0
181 203 0
181 203 0
182 204 0
181 203 0
180 203 0
178 201 0
184 205 0
180 203 0
182 204 0
181 203 0
180 203 0
180 202 0
180 203 0
182 204 0
182 203 0
180 203 0
181 203 0
182 204 0
180 202 0
182 204 0
180 203 0
182 204 0
181 203 0
183 204 0
183 204 0
183 204 0
182 204 0
183 204 0
182 204 0
180 203 0
180 202 0
182 203 0
180 203 0
183 204 0
184 205 0
181 203 0
181 203 0
183 204 0
181 203 0
181 203 0
181 203 0
182 204 0
182 204 0
181 203 0
182 204 0
180 202 0
182 204 0
183 204 0
182 203 0
178 201 0
183 204 0
183 204 0
177 200 0
183 204 0
183 204 0
182 204 0
183 204 0
181 203 0
184 204 0
182 203 0
178 201 0
184 205 0
183 204 0
182 204 0
179 201 0
183 204 0
181 203 0
180 201 0
181 203 0
182 204 0
180 202 0
182 204 0
184 205 0
180 202 0
181 203 0
179 201 0
183 204 0
182 204 0
183 204 0
183 204 0
183 204 0
180 203 0
181 203 0
180 202 0
182 203 0
182 204 0
181 203 0
180 202 0
181 203 0
181 202 0
181 203 0
183 204 0
182 204 0
184 205 0
181 203 0
182 203 0
183 204 0
181 202 0
179 202 0
181 203 0
180 201 0
183 204 0
178 201 0
181 203 0
181 203 0
185 205 0
183 204 0
183 204 0
180 203 0
182 204 0
183 204 0
180 202 0
180 203 0
180 203 0
182 204 0
180 202 0
182 203 0
180 203 0
179 201 0
183 204 0
182 204 0
180 203 0
182 204 0
181 203 0
180 201 0
180 202 0
179 201 0
181 203 0
184 205 0
181 203 0
182 204 0
181 203 0
182 203 0
179 202 0
183 204 0
183 204 0
182 204 0
180 202 0
180 202 0
182 204 0
179 201 0
183 204 0
180 202 0
180 202 0
179 201 0
180 203 0
183 204 0
181 202 0
174 198 0
178 201 0
181 203 0
180 202 0
179 200 0
180 202 0
181 203 0
184 205 0
179 202 0
182 203 0
182 204 0
181 203 0
177 199 0
177 200 0
181 203 0
179 201 0
181 203 0
182 204 0
185 205 0
181 203 0
180 202 0
182 204 0
183 204 0
179 202 0
180 202 0
179 201 0
179 201 0
182 204 0
181 203 0
179 201 0
180 202 0
179 201 0
178 201 0
181 202 0
180 202 0
180 203 0
183 204 0
183 204 0
181 203 0
179 201 0
181 203 0
179 201 0
181 202 0
181 203 0
182 204 0
183 203 0
180 202 0
181 201 0
182 203 0
183 204 0
184 205 0
180 203 0
182 204 0
180 201 0
181 203 38
183 204 38
186 207 80
186 207 104
190 210 118
187 207 97
191 211 124
184 205 89
189 209 118
186 207 97
190 210 124
186 207 104
187 208 97
185 206 69
185 206 89
186 207 89
187 208 111
188 208 104
184 205 69
182 204 69
186 207 97
187 208 111
186 207 111
181 203 69
186 207 124
185 206 97
186 207 97
186 206 89
181 202 80
181 203 104
188 207 97
176 198 25
173 196 25
179 202 0
183 204 0
182 203 0
182 204 0
179 201 0
179 201 0
184 205 0
180 202 0
179 201 0
183 204 0
181 203 0
180 202 0
182 203 0
180 202 0
181 203 0
178 200 0
180 202 0
183 204 0
181 202 0
180 201 0
184 204 0
178 200 0
183 204 0
180 203 0
181 203 0
179 201 0
179 201 0
179 201 0
181 202 0
181 203 0
183 204 0
182 203 0
176 199 0
181 202 0
183 204 0
182 204 0
182 203 0
180 202 0
181 202 0
178 201 0
180 202 0
179 202 0
180 201 0
179 201 0
178 200 0
180 202 0
178 200 0
178 199 0
180 203 0
180 202 0
181 203 0
183 204 0
181 202 0
180 202 0
182 204 0
182 203 0
181 202 0
179 200 0
182 204 0
184 205 0
183 204 0
181 202 0
179 202 0
182 203 0
183 204 0
182 204 0
180 202 0
181 203 0
182 204 0
181 203 0
182 204 0
181 203 0
179 201 0
178 200 0
179 202 0
178 200 0
178 200 0
181 203 0
181 203 0
182 203 0
181 203 0
183 204 0
182 204 0
182 203 0
180 202 0
181 203 0
179 200 0
180 203 0
179 201 0
181 203 0
181 203 0
181 203 0
182 204 0
182 204 0
180 202 0
182 203 0
182 203 0
182 203 0
180 202 0
181 203 0
180 203 0
182 203 0
184 205 0
182 204 0
179 202 0
179 201 0
182 203 0
183 204 0
180 202 0
181 203 0
181 202 0
181 202 0
183 204 0
181 202 0
183 204 0
178 200 0
180 203 0
181 203 0
181 203 0
180 203 0
181 203 0
182 204 0
180 202 0
181 203 0
180 203 0
182 204 0
183 204 0
183 204 0
182 204 0
181 203 0
182 204 0
183 204 0
183 204 0
183 204 0
181 203 0
182 204 0
182 204 0
183 204 0
181 203 0
183 204 0
182 204 0
181 203 0
182 204 0
183 204 0
183 204 0
183 204 0
182 204 0
182 204 0
180 202 0
181 203 0
184 205 0
182 204 0
182 204 0
183 204 0
180 202 0
182 203 0
180 203 0
182 204 0
181 203 0
180 203 0
183 204 0
181 203 0
183 204 0
181 203 0
182 204 0
183 204 0
181 203 0
182 204 0
182 204 0
183 204 0
184 205 0
180 203 0
183 204 0
182 204 0
181 203 0
180 203 0
183 204 0
182 203 0
182 204 0
183 204 0
180 203 0
182 204 0
181 203 0
182 204 0
182 204 0
182 203 0
179 201 0
182 203 0
183 204 0
183 204 0
181 203 0
184 205 0
182 204 0
180 202 0
182 204 0
180 203 0
183 204 0
181 203 0
181 203 0
182 203 0
181 203 0
182 204 0
184 205 0
180 202 0
184 205 0
182 204 0
181 203 0
182 204 0
182 204 0
179 202 0
182 203 0
180 201 0
183 204 0
181 203 0
183 204 0
182 204 0
180 202 0
182 204 0
183 204 0
180 203 0
182 203 0
180 202 0
182 204 0
183 204 0
183 204 0
182 204 0
180 202 0
182 203 0
180 203 0
182 204 0
181 202 0
180 203 0
180 203 0
183 204 0
182 204 0
181 202 0
181 203 0
178 200 0
182 203 0
182 204 0
180 202 0
181 202 0
180 202 0
182 204 0
182 203 0
181 203 0
182 204 0
183 204 0
183 204 0
179 201 0
184 205 0
184 205 0
182 202 0
180 202 0
180 202 0
182 202 0
181 203 0
180 201 0
182 203 0
180 203 0
183 204 0
182 203 0
180 202 0
183 204 0
186 206 0
181 203 0
182 204 0
184 205 0
181 203 0
180 202 0
182 204 0
181 203 0
180 203 0
180 202 0
181 203 0
181 203 0
176 199 0
178 200 0
179 202 0
180 202 0
181 203 0
181 202 0
183 204 0
181 202 0
182 204 0
182 203 0
179 202 0
183 204 0
180 201 0
180 202 0
183 204 0
182 204 0
182 204 0
178 200 0
182 203 0
179 201 0
181 203 0
179 201 0
182 203 0
183 204 0
180 201 0
180 202 0
179 201 0
181 202 0
179 202 0
180 203 0
180 202 0
180 202 0
181 203 0
179 201 0
180 202 0
178 200 0
180 202 0
184 205 0
182 204 0
178 200 0
181 202 0
180 202 0
179 201 0
183 204 0
179 201 0
176 198 0
181 202 0
184 205 0
180 202 0
181 203 0
178 199 0
180 203 0
179 201 0
182 204 0
183 204 0
179 201 0
182 204 0
176 199 0
182 203 0
179 201 0
179 201 0
179 201 0
180 202 0
179 202 0
183 204 0
180 202 0
179 201 0
183 204 0
179 201 0
182 204 0
179 202 0
182 203 0
181 203 0
179 201 0
180 202 0
183 204 0
181 203 0
182 203 0
180 201 0
181 202 0
182 204 0
179 201 0
181 203 0
179 201 0
179 200 0
182 204 0
178 199 0
183 204 0
180 201 0
180 202 0
179 201 0
178 201 0
183 204 97
186 206 97
187 208 129
187 207 89
187 208 104
188 208 111
183 204 69
187 208 97
187 208 111
187 207 89
186 208 104
184 205 80
183 205 69
185 206 80
186 208 104
185 206 80
186 207 89
185 206 89
188 209 111
184 205 69
184 205 69
184 205 69
184 205 69
186 206 97
187 208 111
180 202 0
180 201 97
182 203 89
178 200 80
186 206 124
189 208 108
188 208 97
183 204 63
177 200 38
178 200 25
180 202 0
184 205 0
180 202 0
181 203 0
181 203 0
181 202 0
181 203 0
181 203 0
181 202 0
182 203 0
182 203 0
176 198 0
182 204 0
175 197 0
179 201 0
177 199 0
182 204 0
179 201 0
181 203 0
179 200 0
177 200 0
179 202 0
180 202 0
180 202 0
182 203 0
175 197 0
178 200 0
181 202 0
183 204 0
182 204 0
178 200 0
182 204 0
181 203 0
179 201 0
178 200 0
181 203 0
181 202 0
179 201 0
178 200 0
181 202 0
181 203 0
182 204 0
182 204 0
180 202 0
182 204 0
182 203 0
182 204 0
179 201 0
179 201 0
180 202 0
181 203 0
182 204 0
182 203 0
183 204 0
181 202 0
180 202 0
180 202 0
179 202 0
180 202 0
182 204 0
180 202 0
181 203 0
180 203 0
180 203 0
180 203 0
181 202 0
181 203 0
181 202 0
180 202 0
179 201 0
179 201 0
182 204 0
183 204 0
183 204 0
181 203 0
178 200 0
180 202 0
180 203 0
179 201 0
180 202 0
184 205 0
181 203 0
183 204 0
182 204 0
180 202 0
182 204 0
181 203 0
182 204 0
183 204 0
182 203 0
181 203 0
182 204 0
183 204 0
183 204 0
183 204 0
181 203 0
179 202 0
182 204 0
176 199 0
183 204 0
180 203 0
181 203 0
182 204 0
182 204 0
180 202 0
183 204 0
185 205 0
181 203 0
180 203 0
181 203 0
183 204 0
185 205 0
182 204 0
183 204 0
183 204 0
180 203 0
183 204 0
181 202 0
181 202 0
182 203 0
182 204 0
182 203 0
181 203 0
182 204 0
183 204 0
184 205 0
182 204 0
184 205 0
183 204 0
184 205 0
182 204 0
181 203 0
181 203 0
184 205 0
180 203 0
183 204 0
183 204 0
182 204 0
183 204 0
182 204 0
182 204 0
181 203 0
182 204 0
181 203 0
182 204 0
180 203 0
180 203 0
184 205 0
182 204 0
182 203 0
183 204 0
181 203 0
185 205 0
181 203 0
181 203 0
183 204 0
183 204 0
184 205 0
184 205 0
182 204 0
182 204 0
180 203 0
181 203 0
183 204 0
183 204 0
183 204 0
183 204 0
181 202 0
183 204 0
182 203 0
183 204 0
180 203 0
182 204 0
183 204 0
181 203 0
182 204 0
183 204 0
181 203 0
183 204 0
179 201 0
182 203 0
184 205 0
181 203 0
181 203 0
181 203 0
181 203 0
182 204 0
183 204 0
181 203 0
183 203 0
181 202 0
183 204 0
182 204 0
184 205 0
183 204 0
182 203 0
182 204 0
181 203 0
180 203 0
180 203 0
183 204 0
185 205 0
181 203 0
183 204 0
179 201 0
182 204 0
175 198 0
180 202 0
182 203 0
181 202 0
182 204 0
183 204 0
183 204 0
182 204 0
181 203 0
181 202 0
183 204 0
182 204 0
181 203 0
180 202 0
179 201 0
181 203 0
182 203 0
182 204 0
182 203 0
180 203 0
179 202 0
181 203 0
183 204 0
182 204 0
179 201 0
182 204 0
180 201 0
181 203 0
182 204 0
182 204 0
181 203 0
182 203 0
182 204 0
181 203 0
182 204 0
182 204 0
182 204 0
180 202 0
182 203 0
181 203 0
182 204 0
178 200 0
182 204 0
182 204 0
181 203 0
178 201 0
181 202 0
177 199 0
182 204 0
183 204 0
181 203 0
178 200 0
179 201 0
180 203 0
179 202 0
181 203 0
181 203 0
183 204 0
181 203 0
181 203 0
179 202 0
182 203 0
181 203 0
180 202 0
178 201 0
181 203 0
180 201 0
182 204 0
184 205 0
182 203 0
180 202 0
182 203 0
179 201 0
183 204 0
180 201 0
181 202 0
184 205 0
182 203 0
179 200 0
183 204 0
181 203 0
182 203 0
181 203 0
179 201 0
182 203 0
180 203 0
178 201 0
181 203 0
182 203 0
181 203 0
181 201 0
182 203 0
183 204 0
181 203 0
180 201 0
179 202 0
182 203 0
179 202 0
180 202 0
181 202 0
179 201 0
180 202 0
178 200 0
181 203 0
181 203 0
179 201 0
182 204 0
181 203 0
182 204 0
180 201 0
181 202 0
181 203 0
182 204 0
180 202 0
179 201 0
179 201 0
183 204 0
183 203 0
180 203 0
180 200 0
182 203 0
181 202 0
175 197 0
177 200 0
177 199 0
185 205 0
181 203 0
183 204 0
180 202 0
178 199 0
180 203 0
179 202 0
183 204 0
182 203 0
182 204 0
182 204 0
179 200 0
183 204 0
183 204 0
180 202 0
179 202 0
183 204 0
181 202 0
182 203 0
182 203 0
183 204 0
179 200 0
180 203 0
183 204 0
181 203 0
180 203 0
183 204 0
180 203 0
179 202 0
180 202 0
178 201 0
182 204 38
180 202 56
187 208 111
188 208 104
189 209 111
186 207 89
185 207 89
182 204 56
186 207 89
187 208 89
184 205 80
184 205 80
186 207 97
185 206 89
182 203 69
184 206 89
180 202 89
181 202 0
185 205 56
184 205 69
183 205 80
185 206 89
184 206 80
183 205 56
183 204 80
183 205 69
185 206 80
181 203 84
179 200 75
180 202 38
184 205 93
183 204 104
185 206 97
185 205 101
184 204 97
181 202 56
181 203 75
179 201 25
176 198 25
177 199 0
180 203 0
180 202 0
181 203 0
182 204 0
179 201 0
183 204 0
180 203 0
179 202 0
181 203 0
181 203 0
179 201 0
179 201 0
174 198 0
179 201 0
175 199 0
176 198 0
179 202 0
181 202 0
180 202 0
180 201 0
181 202 0
175 197 0
176 199 0
181 203 0
179 202 0
183 204 0
180 202 0
179 201 0
177 199 0
178 200 0
182 203 0
182 203 0
181 203 0
177 200 0
183 204 0
179 202 0
182 203 0
177 200 0
179 202 0
179 202 0
180 202 0
179 201 0
180 202 0
180 201 0
183 204 0
180 201 0
180 202 0
181 203 0
181 203 0
179 202 0
181 203 0
177 200 0
181 203 0
182 204 0
180 202 0
181 203 0
182 203 0
181 203 0
181 203 0
180 202 0
181 203 0
183 204 0
180 201 0
179 202 0
181 203 0
180 202 0
182 204 0
184 205 0
179 201 0
180 202 0
181 203 0
181 203 0
183 204 0
180 203 0
182 204 0
181 203 0
182 203 0
181 203 0
181 203 0
186 206 0
185 205 0
182 203 0
179 201 0
178 200 0
183 204 0
182 204 0
182 204 0
182 204 0
183 204 0
181 203 0
181 203 0
183 204 0
182 203 0
183 204 0
181 203 0
183 204 0
180 202 0
183 204 0
182 204 0
183 204 0
181 202 0
181 203 0
184 205 0
181 203 0
182 204 0
185 205 0
182 204 0
182 204 0
183 204 0
181 203 0
181 202 0
181 202 0
182 203 0
182 204 0
182 204 0
184 205 0
179 201 0
180 202 0
182 204 0
181 203 0
182 204 0
182 204 0
183 204 0
182 204 0
180 202 0
183 204 0
183 204 0
186 206 0
185 205 0
182 204 0
181 203 0
182 204 0
182 204 0
182 204 0
182 204 0
181 203 0
183 204 0
179 202 0
181 203 0
182 204 0
183 204 0
182 204 0
183 204 0
184 205 0
182 204 0
184 205 0
181 203 0
181 203 0
181 203 0
182 204 0
182 204 0
184 205 0
181 203 0
182 204 0
181 203 0
183 204 0
182 204 0
182 204 0
182 204 0
181 203 0
180 203 0
181 203 0
183 204 0
180 203 0
183 204 0
182 204 0
182 203 0
182 204 0
178 200 0
181 203 0
182 204 0
180 203 0
181 203 0
182 204 0
182 204 0
180 203 0
183 204 0
181 203 0
182 204 0
183 204 0
182 204 0
182 204 0
181 203 0
181 203 0
180 203 0
181 203 0
182 204 0
182 203 0
181 203 0
179 202 0
181 203 0
180 202 0
183 204 0
183 204 0
182 204 0
180 202 0
183 204 0
181 203 0
181 203 0
183 204 0
182 204 0
182 204 0
181 202 0
183 204 0
181 202 0
183 204 0
183 204 0
180 203 0
183 204 0
180 203 0
182 203 0
180 202 0
180 202 0
183 204 0
180 203 0
181 202 0
181 203 0
181 203 0
182 204 0
183 203 0
181 203 0
181 203 0
181 203 0
183 204 0
182 204 0
184 205 0
182 204 0
181 203 0
180 202 0
183 204 0
182 204 0
181 203 0
183 204 0
182 204 0
183 204 0
183 204 0
181 202 0
181 201 0
180 202 0
182 204 0
184 205 0
182 204 0
182 203 0
183 204 0
180 203 0
183 204 0
182 203 0
182 203 0
177 199 0
182 204 0
182 204 0
181 203 0
183 204 0
179 202 0
182 204 0
181 203 0
178 201 0
180 202 0
182 204 0
177 199 0
180 202 0
181 203 0
180 203 0
181 203 0
179 201 0
177 199 0
182 203 0
182 204 0
181 202 0
177 200 0
182 203 0
178 200 0
178 200 0
179 201 0
181 202 0
181 203 0
180 202 0
180 203 0
181 203 0
181 203 0
180 203 0
177 200 0
183 204 0
184 205 0
180 202 0
180 202 0
181 202 0
181 202 0
180 202 0
177 199 0
181 201 0
182 204 0
181 202 0
178 201 0
180 202 0
179 201 0
180 201 0
181 202 0
183 204 0
179 201 0
180 202 0
182 204 0
177 199 0
180 203 0
181 202 0
181 202 0
182 204 0
177 200 0
178 200 0
181 202 0
180 202 0
178 200 0
181 202 0
181 203 0
180 202 0
180 202 0
182 204 0
179 200 0
182 204 0
181 203 0
182 203 0
181 203 0
180 202 0
183 204 0
182 204 0
180 201 0
183 204 0
180 202 0
180 202 0
179 201 0
179 200 0
177 199 0
181 202 0
179 201 0
180 201 0
181 203 0
180 203 0
182 204 0
179 201 0
175 197 0
176 198 0
182 204 0
180 202 0
178 200 0
180 202 0
181 202 0
178 200 0
179 202 0
176 198 0
179 202 0
181 202 0
179 201 0
181 203 0
179 201 0
183 203 0
182 203 0
180 202 0
182 204 38
180 202 0
179 201 38
185 206 69
189 209 104
187 207 89
187 208 89
187 208 104
187 207 104
183 204 69
187 208 111
182 203 0
185 206 89
182 204 0
184 205 56
185 206 69
185 206 89
183 205 89
185 207 89
179 201 56
183 204 56
184 206 97
184 205 80
185 206 69
181 203 69
183 204 69
184 205 69
184 206 69
184 205 80
185 206 69
185 206 69
182 203 38
181 202 56
182 202 56
183 204 101
184 205 89
182 203 56
187 207 108
176 197 75
183 204 84
182 203 63
177 200 25
180 203 0
182 204 0
182 204 0
180 202 0
181 202 0
180 203 0
181 203 0
178 200 0
181 203 0
180 202 0
179 202 0
182 202 0
178 200 0
180 202 0
176 198 0
178 200 0
177 200 0
181 203 0
177 198 0
174 196 0
183 204 0
179 200 0
179 202 0
177 199 0
178 199 0
179 201 0
177 199 0
180 202 0
179 202 0
181 202 0
184 205 0
179 201 0
178 199 0
181 203 0
179 202 0
181 203 0
180 202 0
177 201 0
181 203 0
180 202 0
182 204 0
182 204 0
178 200 0
184 205 0
181 203 0
181 203 0
180 202 0
180 203 0
174 197 0
179 200 0
180 202 0
182 203 0
179 200 0
182 204 0
178 201 0
182 204 0
182 203 0
179 201 0
181 203 0
178 200 0
181 202 0
185 205 0
179 202 0
179 201 0
178 200 0
181 202 0
179 201 0
181 203 0
183 204 0
183 204 0
180 203 0
183 204 0
180 203 0
181 202 0
183 204 0
180 203 0
181 202 0
181 203 0
182 204 0
182 203 0
184 205 0
179 201 0
182 203 0
180 202 0
181 203 0
180 203 0
182 204 0
182 204 0
180 201 0
180 202 0
182 204 0
179 201 0
182 203 0
181 203 0
181 203 0
181 203 0
182 204 0
180 202 0
184 205 0
182 204 0
181 203 0
183 204 0
183 204 0
182 204 0
183 204 0
180 203 0
182 204 0
181 203 0
181 203 0
181 203 0
182 203 0
184 205 0
182 204 0
184 205 0
179 202 0
181 202 0
181 203 0
180 201 0
183 204 0
179 202 0
179 202 0
183 204 0
181 202 0
181 203 0
182 203 0
181 202 0
180 203 0
182 203 0
182 204 0
180 203 0
181 203 0
181 203 0
182 204 0
181 203 0
181 203 0
179 201 0
183 204 0
181 203 0
179 202 0
182 203 0
180 203 0
181 203 0
181 203 0
182 204 0
180 202 0
183 204 0
182 204 0
181 203 0
181 203 0
178 202 0
181 203 0
184 205 0
181 203 0
183 204 0
181 203 0
182 204 0
182 203 0
182 204 0
182 204 0
183 204 0
182 204 0
180 203 0
182 204 0
183 204 0
183 204 0
183 204 0
184 205 0
181 203 0
180 203 0
183 204 0
183 204 0
181 203 0
180 203 0
182 204 0
181 203 0
183 204 0
181 203 0
181 203 0
181 203 0
180 202 0
182 204 0
180 203 0
184 205 0
181 203 0
180 202 0
179 202 0
182 204 0
182 204 0
183 204 0
182 204 0
181 203 0
183 204 0
181 203 0
182 204 0
183 204 0
181 203 0
180 202 0
183 203 0
183 204 0
182 203 0
181 203 0
181 203 0
179 201 0
180 201 0
183 204 0
179 201 0
182 204 0
181 203 0
180 203 0
185 205 0
182 204 0
182 204 0
182 203 0
178 200 0
182 204 0
178 200 0
179 202 0
183 204 0
183 204 0
182 203 0
179 201 0
180 203 0
180 203 0
181 203 0
183 204 0
183 204 0
181 203 0
180 202 0
180 203 0
181 203 0
182 204 0
182 204 0
183 204 0
181 203 0
180 202 0
183 204 0
181 203 0
182 204 0
181 202 0
182 203 0
181 203 0
181 203 0
182 203 0
179 201 0
180 202 0
182 204 0
180 203 0
182 204 0
183 204 0
183 204 0
181 202 0
182 203 0
179 201 0
178 200 0
181 203 0
178 200 0
182 204 0
181 203 0
183 204 0
178 201 0
182 204 0
178 199 0
182 204 0
179 201 0
179 201 0
184 205 0
182 204 0
180 203 0
183 204 0
178 200 0
184 205 0
181 201 0
179 202 0
182 203 0
179 201 0
180 202 0
184 205 0
182 204 0
182 204 0
183 204 0
179 202 0
182 204 0
180 201 0
179 202 0
181 202 0
182 204 0
183 204 0
181 203 0
179 200 0
181 203 0
180 203 0
178 200 0
178 201 0
181 203 0
179 201 0
183 204 0
181 203 0
182 203 0
183 204 0
179 202 0
182 203 0
180 202 0
178 200 0
176 198 0
181 203 0
180 202 0
181 203 0
181 203 0
181 202 0
177 200 0
182 204 0
179 201 0
180 202 0
179 200 0
179 201 0
180 202 0
181 202 0
181 203 0
180 203 0
179 201 0
181 203 0
182 203 0
179 201 0
180 202 0
177 200 0
178 200 0
179 201 0
180 201 0
178 199 0
179 201 0
177 200 0
180 202 0
181 203 0
179 201 0
184 205 0
178 200 0
179 200 0
180 203 0
180 202 0
180 202 0
179 201 0
178 199 0
182 204 0
177 199 0
178 200 0
181 203 0
182 204 0
182 204 0
180 201 0
178 200 0
180 202 0
182 204 0
179 202 0
184 205 0
183 203 0
181 202 0
180 201 0
182 204 56
182 204 69
181 203 38
184 206 69
191 210 118
188 208 97
189 209 104
188 208 97
187 208 111
186 207 104
184 205 69
186 207 89
185 206 97
184 205 56
185 206 80
184 205 56
184 206 89
185 206 80
185 206 80
184 206 89
184 205 56
183 204 89
185 206 80
185 206 89
182 204 69
184 206 89
186 207 104
185 207 89
185 205 38
188 209 111
185 206 69
179 200 80
181 202 104
181 202 69
186 207 97
181 203 56
185 205 93
182 204 89
182 203 75
180 202 84
183 204 84
184 204 108
186 205 111
183 204 0
180 202 0
183 204 0
185 205 0
183 204 0
176 197 0
181 202 0
176 199 0
177 199 0
179 201 0
181 203 0
175 196 0
178 200 0
179 202 0
178 201 0
176 197 0
180 202 0
176 198 0
180 202 0
182 203 0
178 199 0
178 200 0
179 201 0
183 204 0
179 201 0
179 201 0
180 202 0
181 203 0
180 200 0
178 200 0
179 201 0
181 202 0
180 202 0
181 203 0
179 201 0
184 205 0
182 204 0
181 203 0
181 203 0
181 201 0
179 202 0
178 201 0
181 203 0
182 204 0
181 201 0
181 203 0
182 204 0
184 205 0
183 203 0
181 203 0
180 202 0
184 205 0
181 203 0
182 204 0
181 203 0
183 204 0
182 204 0
180 203 0
179 201 0
182 204 0
183 203 0
183 204 0
181 203 0
180 203 0
184 205 0
176 199 0
182 203 0
181 203 0
180 202 0
178 200 0
179 201 0
183 204 0
179 201 0
181 203 0
181 203 0
182 204 0
180 203 0
181 203 0
183 204 0
180 203 0
181 203 0
181 203 0
182 204 0
179 202 0
180 202 0
182 204 0
182 204 0
178 200 0
178 200 0
181 203 0
181 203 0
181 203 0
183 204 0
182 204 0
182 204 0
181 203 0
183 204 0
183 204 0
181 203 0
182 204 0
182 203 0
183 204 0
183 204 0
182 203 0
182 204 0
180 203 0
182 203 0
181 203 0
182 204 0
181 203 0
179 202 0
182 203 0
181 203 0
182 203 0
181 203 0
181 203 0
182 204 0
180 203 0
182 204 0
182 204 0
178 200 0
184 205 0
180 203 0
179 202 0
182 204 0
180 203 0
180 203 0
185 205 0
181 203 0
183 204 0
183 204 0
184 205 0
183 204 0
183 204 0
184 205 0
183 204 0
183 204 0
181 203 0
180 203 0
181 203 0
180 202 0
182 204 0
181 203 0
181 202 0
182 204 0
181 203 0
182 204 0
184 205 0
182 204 0
181 203 0
183 204 0
183 204 0
182 203 0
182 203 0
183 204 0
185 205 0
183 204 0
181 203 0
184 205 0
182 203 0
181 203 0
181 203 0
180 202 0
182 204 0
183 204 0
180 203 0
181 203 0
182 204 0
183 204 0
182 204 0
180 202 0
183 204 0
182 203 0
181 203 0
183 204 0
183 204 0
182 204 0
178 200 0
182 204 0
182 203 0
183 204 0
181 203 0
184 205 0
182 204 0
181 203 0
183 204 0
182 204 0
181 203 0
182 204 0
183 204 0
181 203 0
181 203 0
181 202 0
182 203 0
180 203 0
185 205 0
179 201 0
180 203 0
182 204 0
183 204 0
181 203 0
179 201 0
182 204 0
180 202 0
180 202 0
181 203 0
182 203 0
181 203 0
183 204 0
182 204 0
183 204 0
182 204 0
184 205 0
182 204 0
183 204 0
182 203 0
180 202 0
181 203 0
181 203 0
182 204 0
181 203 0
180 202 0
181 202 0
178 200 0
180 203 0
183 204 0
184 205 0
177 201 0
181 203 0
182 204 0
182 204 0
181 203 0
182 204 0
180 203 0
182 204 0
179 202 0
181 203 0
176 199 0
180 202 0
182 203 0
181 203 0
183 204 0
181 202 0
182 204 0
179 202 0
178 200 0
179 201 0
183 204 0
180 203 0
179 201 0
180 202 0
180 202 0
180 201 0
180 202 0
179 201 0
180 203 0
183 204 0
182 204 0
180 201 0
181 202 0
182 204 0
181 203 0
182 204 0
182 204 0
175 198 0
182 204 0
182 204 0
180 202 0
181 202 0
184 205 0
182 204 0
178 201 0
182 204 0
181 203 0
180 203 0
182 204 0
176 199 0
179 201 0
180 202 0
182 203 0
181 203 0
183 204 0
177 200 0
179 202 0
179 201 0
181 203 0
180 202 0
180 203 0
183 204 0
182 204 0
178 200 0
180 203 0
182 204 0
183 204 0
180 203 0
182 204 0
182 204 0
184 205 0
180 201 0
181 203 0
178 200 0
180 202 0
181 202 0
182 203 0
181 203 0
174 197 0
179 202 0
180 202 0
180 201 0
176 198 0
178 200 0
179 201 0
179 202 0
182 203 0
179 201 0
182 203 0
179 200 0
176 198 0
181 202 0
178 200 0
180 202 0
180 201 0
176 198 0
183 204 0
180 202 0
179 201 0
181 202 0
182 204 0
181 203 0
180 203 0
182 204 0
177 200 0
182 203 0
178 200 0
178 201 0
180 202 0
180 203 0
179 201 0
182 204 0
183 204 0
179 201 0
181 202 0
181 202 0
182 203 0
183 204 0
182 203 0
178 201 0
179 202 0
184 205 0
180 201 0
180 202 0
177 199 0
183 204 0
181 203 0
181 202 0
179 201 38
182 204 56
180 203 0
183 205 69
184 205 80
187 208 89
185 207 89
188 208 104
183 205 56
185 206 80
184 205 56
186 207 89
186 206 80
185 206 56
185 207 89
185 206 69
184 205 69
187 208 104
182 203 56
187 207 89
183 204 69
182 204 80
185 206 80
185 206 89
184 205 69
183 205 80
182 202 69
184 205 56
186 207 97
186 207 111
183 204 69
182 204 38
179 201 80
178 199 84
180 203 63
181 202 84
185 206 80
179 201 75
181 203 56
183 203 48
178 199 75
182 203 56
180 200 80
188 208 129
187 207 118
189 209 121
177 199 25
179 200 25
181 203 25
180 202 0
180 202 0
182 204 0
177 198 0
184 205 0
175 198 0
179 201 0
179 201 0
181 203 0
176 198 0
179 200 0
174 195 0
181 203 0
177 198 0
179 201 0
180 202 0
182 202 0
177 200 0
184 205 0
182 203 0
181 203 0
178 200 0
183 204 0
176 198 0
179 202 0
181 202 0
184 205 0
180 201 0
182 204 0
180 201 0
180 201 0
180 202 0
178 200 0
175 198 0
177 199 0
181 202 0
180 201 0
182 204 0
179 201 0
178 198 0
182 204 0
181 203 0
178 200 0
183 204 0
179 202 0
181 202 0
182 204 0
181 203 0
183 204 0
181 202 0
183 203 0
182 204 0
183 203 0
183 203 0
182 203 0
180 202 0
183 204 0
183 204 0
181 202 0
183 204 0
182 203 0
179 201 0
182 203 0
181 203 0
180 203 0
181 202 0
181 203 0
178 200 0
181 202 0
184 205 0
182 204 0
178 201 0
184 204 0
179 202 0
181 203 0
184 205 0
180 202 0
182 204 0
180 202 0
182 203 0
180 203 0
179 201 0
179 201 0
181 203 0
180 203 0
184 205 0
184 205 0
183 203 0
181 203 0
182 204 0
181 203 0
181 202 0
183 204 0
180 202 0
182 204 0
182 203 0
182 204 0
185 205 0
178 201 0
181 203 0
182 204 0
182 204 0
180 202 0
182 203 0
183 204 0
181 203 0
179 201 0
183 204 0
181 203 0
180 203 0
182 204 0
183 204 0
181 203 0
180 203 0
183 204 0
182 204 0
182 204 0
181 203 0
180 203 0
181 203 0
183 204 0
179 201 0
183 204 0
181 203 0
183 204 0
183 204 0
184 205 0
178 201 0
180 203 0
180 203 0
181 203 0
181 203 0
180 203 0
180 203 0
182 204 0
181 203 0
183 204 0
182 204 0
183 204 0
185 205 0
180 202 0
183 204 0
182 203 0
181 203 0
183 204 0
183 204 0
183 204 0
181 202 0
180 202 0
182 203 0
182 204 0
183 204 0
179 201 0
181 203 0
182 204 0
183 204 0
180 203 0
183 204 0
184 205 0
181 203 0
183 204 0
180 203 0
181 203 0
182 204 0
184 205 0
180 202 0
181 203 0
182 204 0
182 204 0
181 203 0
181 203 0
182 203 0
183 203 0
185 205 0
182 203 0
181 203 0
183 204 0
185 205 0
182 204 0
180 203 0
182 204 0
182 204 0
184 205 0
180 202 0
178 201 0
182 204 0
178 200 0
181 203 0
182 204 0
182 204 0
179 202 0
184 205 0
182 204 0
182 204 0
182 204 0
182 204 0
182 204 0
182 203 0
182 204 0
181 203 0
183 204 0
180 203 0
181 203 0
182 204 0
179 201 0
181 203 0
180 203 0
182 204 0
180 203 0
181 202 0
182 204 0
184 205 0
182 204 0
181 203 0
183 204 0
178 201 0
182 204 0
181 203 0
181 203 0
178 200 0
183 204 0
181 203 0
180 203 0
178 201 0
180 202 0
183 204 0
181 203 0
181 203 0
178 200 0
181 202 0
181 203 0
183 204 0
181 202 0
182 204 0
177 199 0
183 204 0
182 204 0
182 204 0
180 202 0
179 202 0
181 203 0
181 203 0
181 203 0
181 203 0
181 203 0
183 204 0
182 204 0
183 204 0
182 204 0
181 203 0
182 204 0
180 203 0
181 202 0
176 197 0
182 204 0
180 202 0
182 204 0
183 204 0
182 204 0
179 201 0
178 200 0
180 203 0
181 203 0
181 203 0
180 203 0
177 199 0
179 201 0
182 204 0
182 203 0
182 204 0
184 205 0
179 201 0
183 204 0
184 205 0
181 203 0
181 203 0
180 202 0
182 204 0
180 202 0
179 202 0
183 204 0
183 204 0
176 199 0
182 203 0
178 201 0
179 201 0
181 203 0
182 204 0
179 201 0
180 202 0
183 204 0
179 201 0
181 203 0
183 203 0
180 203 0
179 202 0
179 201 0
178 200 0
183 204 0
174 196 0
182 203 0
176 199 0
178 200 0
180 202 0
182 203 0
181 203 0
176 198 0
178 200 0
182 204 0
176 199 0
177 200 0
180 202 0
180 202 0
180 201 0
180 202 0
182 203 0
180 202 0
180 202 0
179 200 0
182 203 0
180 203 0
184 205 0
180 201 0
178 200 0
182 203 0
179 201 0
181 203 0
178 200 0
179 201 0
181 202 0
181 202 0
181 202 0
181 202 0
186 206 0
181 202 0
180 201 0
180 202 0
180 202 0
181 203 0
177 200 0
181 203 0
183 204 0
180 203 0
181 202 0
182 203 0
182 204 0
179 202 0
180 202 0
181 203 0
184 204 0
182 204 0
182 204 56
181 203 0
183 205 69
186 206 97
187 208 104
190 210 124
187 208 97
185 206 89
185 206 80
186 207 97
186 206 80
185 206 80
185 206 80
185 206 89
187 208 104
183 204 69
186 207 89
187 208 104
183 205 89
185 205 56
181 203 0
185 206 89
182 205 80
184 205 69
185 206 69
183 205 56
183 205 89
187 208 97
183 205 80
183 205 69
183 204 69
186 207 118
177 198 38
180 201 25
180 202 48
182 204 0
180 202 80
179 201 48
183 204 69
180 201 56
182 203 63
180 201 63
180 200 97
181 202 93
184 205 108
183 204 84
182 203 69
178 200 25
183 204 0
172 195 0
176 199 0
180 202 0
181 202 0
180 202 0
180 202 0
180 201 0
177 199 0
182 203 0
178 200 0
180 202 0
183 204 0
176 198 0
174 196 0
179 201 0
177 199 0
181 203 0
179 200 0
182 204 0
178 200 0
182 204 0
183 204 0
175 196 0
179 201 0
181 203 0
179 200 0
183 204 0
178 200 0
180 201 0
183 204 0
178 200 0
182 203 0
183 204 0
179 201 0
183 204 0
178 199 0
181 203 0
179 201 0
180 203 0
178 200 0
181 203 0
182 204 0
179 201 0
182 203 0
180 202 0
178 201 0
180 201 0
181 202 0
181 203 0
181 202 0
182 204 0
182 203 0
179 201 0
181 202 0
181 202 0
181 203 0
181 202 0
183 204 0
183 203 0
180 202 0
180 202 0
181 203 0
182 204 0
182 203 0
181 202 0
179 202 0
182 204 0
180 201 0
182 204 0
181 203 0
182 204 0
181 203 0
183 204 0
181 203 0
181 203 0
181 203 0
180 203 0
184 205 0
181 203 0
181 203 0
182 203 0
178 200 0
182 204 0
180 203 0
179 202 0
182 203 0
182 203 0
182 203 0
181 203 0
181 203 0
180 203 0
182 203 0
179 202 0
183 204 0
181 203 0
182 204 0
182 204 0
179 202 0
179 201 0
180 203 0
182 204 0
181 203 0
179 202 0
181 203 0
182 204 0
181 203 0
181 203 0
182 204 0
182 204 0
184 204 0
183 204 0
182 203 0
182 203 0
179 201 0
182 204 0
183 204 0
184 205 0
183 204 0
181 203 0
180 202 0
182 203 0
181 203 0
181 203 0
182 203 0
181 203 0
182 204 0
180 202 0
181 203 0
181 203 0
182 204 0
182 204 0
182 204 0
182 204 0
182 204 0
182 204 0
183 204 0
181 203 0
181 203 0
182 204 0
182 204 0
184 205 0
182 204 0
183 204 0
185 205 0
182 203 0
183 204 0
181 203 0
182 204 0
181 203 0
180 203 0
183 204 0
183 204 0
180 202 0
180 203 0
182 204 0
183 204 0
181 203 0
181 203 0
182 204 0
181 203 0
181 203 0
184 205 0
182 204 0
180 203 0
182 204 0
183 204 0
182 204 0
180 203 0
182 204 0
182 204 0
184 205 0
180 202 0
184 205 0
181 203 0
183 204 0
183 204 0
183 204 0
182 204 0
181 203 0
179 201 0
180 203 0
183 204 0
181 203 0
179 202 0
181 203 0
183 204 0
180 203 0
180 203 0
182 204 0
181 203 0
180 203 0
181 203 0
180 202 0
183 204 0
183 204 0
181 203 0
182 204 0
183 204 0
183 204 0
182 204 0
182 204 0
182 204 0
181 203 0
179 202 0
177 199 0
182 204 0
180 202 0
184 205 0
180 202 0
182 203 0
181 203 0
180 203 0
184 205 0
182 204 0
182 204 0
181 202 0
180 203 0
182 204 0
180 202 0
179 201 0
180 202 0
182 203 0
181 202 0
181 203 0
181 203 0
180 202 0
183 204 0
182 204 0
181 203 0
179 201 0
183 204 0
180 203 0
181 203 0
183 204 0
181 203 0
180 203 0
182 203 0
181 202 0
181 203 0
184 205 0
181 202 0
183 204 0
181 203 0
182 203 0
180 203 0
180 203 0
180 202 0
182 204 0
182 204 0
181 203 0
181 203 0
180 202 0
181 203 0
180 202 0
184 205 0
181 203 0
180 202 0
182 204 0
181 203 0
180 201 0
181 203 0
182 204 0
182 204 0
177 200 0
180 203 0
182 203 0
180 203 0
180 202 0
183 204 0
181 203 0
181 203 0
181 202 0
179 201 0
179 201 0
183 204 0
182 204 0
180 202 0
181 202 0
176 198 0
182 203 0
182 203 0
183 204 0
182 203 0
181 203 0
183 204 0
177 199 0
180 202 0
179 201 0
181 203 0
180 203 0
175 197 0
180 202 0
181 203 0
180 201 0
183 203 0
178 199 0
181 202 0
181 203 0
178 200 0
180 203 0
180 202 0
181 202 0
173 195 0
181 203 0
179 201 0
179 201 0
177 200 0
178 200 0
181 202 0
181 203 0
182 204 0
181 202 0
182 203 0
176 199 0
177 199 0
181 201 0
179 201 0
181 202 0
182 204 0
183 204 0
179 201 0
179 202 0
179 200 0
180 202 0
179 202 0
179 201 0
176 198 0
181 203 0
179 202 0
180 201 0
180 203 0
178 199 0
179 201 0
180 202 0
179 200 0
181 202 0
181 202 0
181 203 0
182 204 0
176 198 0
181 202 0
181 203 0
180 202 0
180 202 0
179 200 0
180 202 0
182 204 0
180 202 0
175 198 0
181 202 0
181 204 56
183 205 69
183 205 80
184 205 69
186 207 80
190 210 124
188 209 104
182 204 38
186 207 89
183 204 118
186 206 80
187 208 104
182 204 69
183 205 80
186 207 97
183 205 89
182 203 80
186 207 97
183 205 69
184 205 56
183 205 89
181 203 56
183 204 80
181 202 80
182 204 69
184 205 56
185 206 80
187 208 111
181 202 0
183 204 38
185 207 97
184 206 111
183 205 56
179 201 56
177 199 56
176 198 63
180 202 56
181 202 63
183 205 80
184 205 104
180 201 69
182 204 69
180 202 56
178 199 63
180 202 95
179 201 63
184 205 84
179 200 111
180 202 89
179 202 25
183 204 0
182 204 0
180 202 0
173 195 0
179 201 0
176 198 0
178 200 0
182 203 0
178 200 0
181 202 0
178 201 0
177 199 0
179 201 0
182 204 0
178 201 0
179 201 0
177 199 0
177 198 0
181 202 0
178 200 0
181 203 0
183 204 0
178 200 0
181 203 0
183 204 0
179 201 0
178 200 0
179 201 0
178 199 0
182 203 0
176 199 0
177 200 0
176 198 0
180 203 0
179 202 0
180 203 0
180 202 0
176 199 0
180 202 0
179 200 0
183 204 0
180 202 0
181 202 0
180 202 0
178 200 0
181 202 0
181 203 0
180 202 0
182 204 0
180 202 0
179 202 0
176 199 0
181 203 0
182 204 0
182 203 0
177 198 0
181 203 0
182 204 0
180 202 0
181 203 0
180 202 0
181 202 0
182 204 0
182 204 0
179 201 0
181 203 0
179 200 0
176 199 0
177 200 0
180 202 0
184 204 0
180 203 0
182 203 0
183 204 0
179 201 0
183 204 0
182 204 0
181 202 0
183 204 0
181 203 0
184 204 0
184 205 0
180 202 0
182 204 0
183 203 0
183 204 0
184 205 0
183 204 0
181 203 0
183 204 0
183 204 0
180 202 0
181 203 0
183 204 0
182 204 0
182 204 0
179 202 0
182 204 0
182 204 0
179 201 0
181 203 0
180 203 0
184 205 0
183 204 0
181 203 0
182 204 0
180 202 0
181 203 0
182 204 0
181 203 0
185 205 0
182 204 0
182 203 0
180 202 0
181 203 0
181 202 0
182 204 0
183 204 0
182 204 0
183 204 0
181 203 0
183 204 0
181 203 0
181 203 0
181 203 0
181 203 0
182 204 0
181 203 0
181 203 0
180 202 0
180 203 0
183 204 0
181 203 0
181 203 0
182 204 0
185 205 0
183 204 0
181 203 0
181 202 0
183 204 0
181 203 0
184 205 0
181 203 0
181 203 0
182 204 0
179 202 0
181 203 0
183 204 0
182 204 0
184 205 0
182 204 0
182 204 0
180 203 0
183 204 0
180 202 0
182 204 0
181 203 0
181 203 0
184 205 0
181 203 0
181 203 0
182 204 0
182 204 0
180 202 0
180 203 0
183 204 0
182 204 0
181 203 0
180 202 0
182 204 0
184 205 0
181 203 0
182 204 0
183 204 0
183 204 0
186 206 0
180 202 0
182 204 0
181 203 0
182 204 0
182 204 0
182 204 0
182 204 0
184 204 0
183 204 0
181 203 0
182 204 0
179 202 0
183 204 0
183 204 0
182 204 0
181 203 0
179 202 0
183 204 0
182 204 0
183 204 0
181 203 0
181 203 0
181 203 0
185 205 0
181 203 0
182 204 0
182 204 0
183 204 0
181 202 0
181 203 0
184 205 0
180 203 0
183 204 0
180 203 0
183 204 0
181 203 0
182 204 0
183 204 0
181 203 0
179 202 0
182 203 0
179 201 0
183 204 0
182 204 0
184 205 0
180 202 0
181 203 0
180 203 0
183 204 0
182 204 0
182 203 0
181 202 0
179 202 0
177 200 0
180 202 0
180 203 0
180 203 0
183 204 0
182 203 0
182 204 0
180 203 0
180 202 0
180 202 0
179 201 0
181 203 0
181 203 0
180 201 0
182 204 0
179 201 0
180 202 0
178 200 0
182 203 0
178 200 0
181 203 0
183 204 0
179 201 0
182 204 0
181 203 0
178 200 0
183 204 0
183 204 0
179 202 0
180 203 0
181 202 0
182 204 0
182 203 0
178 201 0
181 203 0
179 200 0
184 205 0
182 204 0
182 203 0
178 201 0
182 202 0
181 202 0
178 199 0
180 202 0
177 200 0
180 203 0
182 204 0
180 203 0
182 203 0
178 200 0
182 203 0
179 202 0
184 205 0
177 199 0
180 203 0
181 203 0
180 202 0
178 201 0
181 203 0
180 203 0
180 202 0
180 202 0
180 201 0
182 204 0
176 198 0
178 199 0
179 201 0
177 200 0
183 204 0
179 200 0
180 201 0
180 202 0
179 201 0
179 201 0
181 202 0
181 203 0
176 199 0
179 201 0
179 201 0
176 198 0
174 197 0
178 200 0
177 199 0
177 200 0
179 201 0
178 200 0
182 204 0
181 203 0
182 204 0
176 198 0
179 201 0
183 204 0
181 203 0
182 204 0
181 203 0
179 201 0
181 202 0
183 204 0
180 201 0
182 204 0
179 201 0
180 203 0
179 201 0
174 196 0
180 202 0
178 200 0
178 200 0
182 204 0
179 200 0
180 201 0
180 202 0
180 202 0
181 202 0
181 203 0
185 205 0
181 203 0
183 204 0
178 200 0
180 202 0
183 204 0
182 204 0
185 206 69
182 204 80
184 206 89
186 207 89
186 207 97
185 206 89
186 207 97
184 205 89
182 204 80
181 203 0
186 207 80
182 204 80
183 205 89
186 206 56
181 204 69
182 203 56
179 202 56
181 203 69
184 205 69
184 205 80
184 205 89
185 205 56
183 205 80
183 205 56
183 205 69
183 205 89
185 207 104
184 206 104
183 204 80
185 207 97
183 205 80
184 206 89
184 205 89
180 201 48
174 196 63
179 200 69
182 204 80
180 201 56
177 197 56
177 199 63
182 203 84
175 197 48
184 206 80
178 200 48
181 202 101
179 201 80
184 205 93
187 208 97
187 207 124
182 203 84
182 204 0
177 199 25
178 200 0
180 202 0
177 199 0
182 203 0
181 203 0
176 198 0
181 201 0
179 201 0
177 199 0
178 199 0
171 192 0
174 197 0
177 199 0
175 198 0
180 202 0
180 202 0
179 201 0
178 200 0
178 200 0
178 200 0
180 202 0
181 203 0
176 198 0
180 203 0
183 204 0
179 201 0
177 199 0
178 201 0
181 203 0
180 202 0
178 200 0
179 201 0
176 198 0
178 199 0
181 203 0
177 199 0
179 201 0
179 201 0
183 204 0
180 201 0
178 200 0
181 203 0
178 200 0
179 202 0
178 200 0
180 201 0
181 203 0
179 201 0
180 202 0
178 200 0
181 202 0
180 202 0
182 204 0
184 205 0
178 199 0
183 204 0
179 201 0
182 204 0
182 204 0
182 204 0
180 202 0
183 204 0
176 197 0
183 204 0
181 203 0
181 203 0
183 204 0
181 203 0
180 202 0
177 199 0
182 204 0
181 202 0
181 203 0
179 201 0
179 202 0
180 202 0
182 204 0
181 203 0
183 204 0
181 203 0
182 204 0
181 203 0
182 204 0
180 202 0
182 204 0
181 203 0
180 203 0
184 205 0
181 203 0
183 204 0
180 202 0
179 202 0
182 204 0
182 204 0
181 203 0
181 203 0
184 205 0
183 204 0
179 201 0
182 204 0
183 204 0
183 204 0
179 201 0
180 202 0
182 204 0
183 204 0
183 204 0
182 204 0
180 202 0
180 202 0
182 204 0
179 202 0
182 203 0
183 204 0
180 203 0
183 204 0
183 204 0
181 203 0
181 203 0
183 204 0
179 202 0
181 203 0
180 202 0
181 203 0
178 201 0
181 203 0
183 204 0
179 202 0
180 203 0
183 204 0
183 204 0
180 203 0
181 203 0
182 204 0
181 203 0
183 204 0
180 203 0
181 203 0
182 203 0
182 204 0
182 204 0
183 204 0
182 204 0
184 205 0
182 203 0
183 204 0
184 205 0
184 205 0
182 204 0
183 204 0
181 203 0
184 205 0
180 203 0
182 204 0
184 205 0
182 203 0
183 204 0
182 203 0
181 203 0
182 204 0
181 203 0
180 203 0
182 204 0
181 203 0
182 204 0
182 204 0
184 205 0
183 204 0
181 203 0
183 204 0
182 203 0
181 203 0
182 204 0
182 203 0
181 203 0
184 205 0
182 204 0
180 203 0
183 204 0
182 204 0
183 204 0
180 202 0
183 204 0
181 203 0
183 204 0
182 204 0
181 203 0
181 203 0
182 204 0
182 204 0
181 203 0
180 202 0
183 204 0
182 204 0
184 205 0
182 204 0
180 203 0
182 203 0
182 204 0
182 204 0
181 203 0
182 204 0
183 204 0
180 203 0
183 204 0
181 203 0
181 202 0
183 204 0
181 202 0
179 202 0
183 204 0
181 203 0
182 204 0
180 202 0
180 203 0
182 204 0
182 204 0
181 203 0
181 203 0
183 204 0
181 203 0
181 203 0
180 203 0
181 203 0
181 203 0
183 204 0
181 203 0
181 203 0
177 200 0
176 199 0
181 203 0
182 204 0
180 202 0
184 205 0
180 202 0
181 203 0
183 204 0
182 204 0
181 203 0
180 202 0
183 204 0
179 202 0
180 202 0
179 201 0
181 202 0
180 202 0
182 204 0
181 202 0
182 204 0
179 201 0
180 202 0
182 203 0
180 202 0
181 202 0
181 203 0
181 202 0
182 204 0
181 203 0
181 203 0
183 204 0
176 199 0
180 202 0
182 204 0
175 197 0
174 196 0
179 201 0
182 203 0
180 202 0
181 203 0
179 201 0
179 201 0
184 205 0
182 204 0
180 202 0
179 201 0
179 202 0
183 204 0
182 203 0
181 201 0
181 202 0
177 199 0
181 203 0
181 203 0
179 201 0
181 202 0
179 201 0
180 203 0
180 201 0
180 202 0
180 201 0
180 202 0
181 203 0
181 202 0
180 202 0
182 204 0
182 203 0
180 201 0
178 200 0
180 202 0
179 201 0
181 202 0
179 201 0
181 203 0
182 203 0
180 202 0
177 199 0
180 201 0
182 203 0
174 197 0
178 199 0
182 204 0
178 201 0
178 200 0
178 201 0
179 202 0
183 204 0
180 202 0
178 200 0
180 201 0
183 204 0
179 201 0
176 197 0
179 201 0
172 194 0
178 200 0
182 204 0
180 202 0
174 197 0
177 199 0
175 197 0
178 200 0
179 201 0
183 204 0
180 201 0
181 202 0
178 201 0
180 201 0
182 204 0
179 200 0
181 202 0
179 201 0
181 203 0
180 202 0
182 204 0
184 205 0
179 200 0
180 202 38
180 203 56
183 204 56
184 205 80
188 208 97
188 208 89
182 204 56
183 204 97
186 207 89
188 208 97
186 207 89
182 204 56
183 205 89
186 207 80
183 205 80
185 206 69
185 206 89
182 203 0
183 204 38
182 203 69
185 207 97
183 204 38
185 207 89
184 205 38
184 205 69
183 205 97
184 205 56
186 207 104
183 205 56
183 205 69
184 205 56
183 205 80
185 206 80
184 205 89
182 203 101
183 205 56
181 204 80
180 202 25
178 200 48
177 199 56
180 202 97
186 207 80
182 204 56
176 198 63
182 203 69
180 201 25
182 203 69
184 205 63
182 204 38
188 208 104
179 201 69
186 205 118
184 204 69
177 199 48
176 198 25
179 202 0
178 200 0
176 198 0
178 200 0
180 202 0
182 203 0
178 200 0
181 202 0
180 203 0
177 199 0
181 202 0
177 199 0
181 203 0
179 201 0
181 203 0
177 199 0
177 199 0
178 200 0
182 204 0
179 201 0
179 201 0
179 201 0
181 203 0
178 200 0
183 204 0
176 198 0
178 200 0
176 199 0
181 203 0
179 201 0
179 200 0
177 200 0
178 199 0
182 204 0
179 202 0
183 204 0
178 199 0
179 201 0
178 200 0
181 203 0
181 203 0
177 200 0
180 202 0
181 202 0
178 201 0
179 202 0
178 200 0
181 203 0
183 204 0
178 199 0
180 202 0
184 205 0
185 205 0
182 204 0
182 203 0
181 203 0
182 204 0
180 203 0
183 204 0
184 205 0
183 204 0
182 203 0
181 203 0
179 200 0
182 203 0
180 203 0
180 203 0
182 204 0
176 198 0
181 202 0
180 203 0
181 202 0
182 204 0
182 204 0
183 204 0
182 203 0
180 202 0
182 203 0
181 203 0
179 201 0
180 203 0
183 204 0
184 204 0
184 205 0
184 205 0
182 203 0
183 203 0
180 202 0
181 203 0
184 205 0
183 204 0
182 204 0
180 202 0
182 204 0
183 204 0
182 204 0
183 204 0
184 205 0
180 202 0
183 204 0
183 204 0
181 203 0
183 204 0
177 199 0
181 203 0
182 203 0
182 204 0
181 203 0
183 204 0
181 203 0
182 203 0
182 203 0
182 203 0
181 203 0
181 203 0
180 203 0
182 203 0
181 203 0
180 201 0
182 204 0
180 203 0
183 204 0
182 204 0
183 204 0
184 205 0
183 204 0
184 205 0
181 203 0
183 204 0
183 204 0
185 205 0
180 202 0
182 204 0
182 204 0
183 204 0
181 203 0
184 205 0
183 204 0
180 202 0
180 203 0
183 204 0
180 203 0
181 203 0
180 203 0
185 205 0
182 204 0
181 203 0
182 204 0
182 204 0
182 204 0
182 204 0
182 204 0
182 203 0
180 202 0
183 204 0
183 204 0
181 203 0
182 204 0
182 204 0
184 204 0
181 203 0
180 203 0
180 203 0
182 204 0
183 204 0
181 203 0
181 203 0
183 204 0
182 204 0
184 205 0
180 203 0
181 203 0
179 202 0
182 203 0
180 203 0
182 204 0
183 204 0
180 203 0
181 203 0
183 204 0
182 204 0
182 204 0
181 202 0
183 203 0
181 202 0
183 204 0
180 203 0
183 204 0
183 204 0
181 203 0
183 204 0
183 204 0
181 203 0
181 203 0
181 203 0
183 204 0
180 203 0
180 202 0
182 204 0
184 205 0
181 203 0
180 202 0
184 205 0
185 205 0
183 204 0
184 205 0
183 204 0
182 203 0
180 203 0
182 204 0
182 204 0
181 202 0
180 202 0
184 205 0
182 203 0
181 203 0
179 201 0
185 205 0
181 203 0
184 205 0
182 203 0
181 203 0
181 203 0
186 206 0
181 203 0
182 204 0
179 202 0
182 203 0
181 203 0
182 204 0
181 203 0
183 204 0
181 203 0
180 202 0
183 204 0
180 202 0
183 204 0
181 203 0
181 203 0
183 204 0
179 202 0
181 202 0
180 203 0
180 203 0
179 201 0
181 203 0
178 200 0
177 200 0
181 202 0
181 203 0
180 202 0
185 205 0
180 201 0
181 203 0
183 204 0
183 204 0
176 198 0
183 203 0
181 203 0
182 203 0
180 202 0
179 201 0
183 204 0
179 201 0
179 201 0
181 202 0
180 203 0
179 201 0
181 203 0
183 204 0
178 200 0
183 204 0
179 201 0
182 204 0
176 198 0
179 201 0
177 200 0
180 202 0
179 201 0
182 204 0
182 203 0
181 202 0
179 201 0
181 203 0
177 201 0
183 204 0
181 203 0
181 203 0
179 201 0
183 204 0
179 200 0
181 203 0
180 202 0
179 201 0
180 202 0
177 199 0
180 201 0
182 203 0
180 202 0
179 201 0
183 204 0
180 200 0
178 199 0
178 200 0
178 200 0
177 198 0
183 204 0
180 202 0
180 201 0
179 201 0
180 202 0
178 201 0
181 203 0
180 201 0
179 200 0
181 202 0
179 201 0
177 199 0
182 204 0
182 204 0
178 199 0
183 204 0
176 198 0
179 202 0
180 201 0
180 202 0
179 201 0
181 202 0
181 203 0
180 201 0
184 204 0
181 202 0
177 199 0
181 203 0
179 201 0
181 202 0
178 200 0
174 196 0
180 202 0
179 201 0
176 199 0
179 200 0
181 203 0
182 203 0
181 202 38
183 204 0
180 202 38
182 204 38
186 207 80
187 207 80
186 207 104
186 206 80
185 206 89
184 206 97
185 207 97
187 208 97
186 206 69
185 206 80
185 206 97
184 205 69
185 206 56
184 205 69
185 207 97
186 207 89
186 207 80
182 204 56
183 205 56
185 206 89
186 207 111
184 205 56
182 204 69
183 205 69
183 205 80
185 206 69
184 206 80
187 207 89
184 205 69
184 205 69
183 204 56
180 202 56
181 202 56
181 202 56
180 202 84
178 201 56
178 200 75
181 202 63
182 203 48
181 202 63
179 200 48
183 204 38
183 204 89
181 202 84
178 201 63
182 204 93
181 202 80
181 203 48
186 206 121
186 206 56
175 197 38
178 199 0
177 199 48
182 204 0
176 199 0
178 200 0
180 202 0
178 199 0
180 202 0
176 198 0
178 200 0
181 203 0
181 203 0
176 198 0
179 201 0
175 197 0
174 196 0
181 203 0
176 197 0
180 203 0
183 204 0
176 199 0
177 199 0
177 200 0
176 199 0
180 203 0
178 200 0
178 200 0
179 201 0
181 202 0
177 199 0
178 200 0
183 204 0
176 198 0
177 200 0
177 200 0
179 201 0
176 198 0
178 200 0
177 199 0
182 204 0
177 199 0
183 204 0
181 202 0
182 204 0
182 203 0
178 201 0
179 202 0
177 200 0
181 203 0
182 204 0
182 204 0
178 200 0
181 203 0
180 202 0
182 204 0
181 201 0
181 202 0
179 202 0
178 199 0
182 203 0
183 204 0
184 205 0
182 204 0
181 203 0
183 204 0
181 203 0
178 200 0
183 204 0
181 203 0
179 201 0
181 203 0
182 204 0
182 203 0
181 203 0
181 203 0
183 204 0
176 199 0
179 201 0
183 204 0
180 203 0
181 203 0
179 201 0
180 202 0
179 201 0
184 205 0
183 204 0
181 203 0
181 203 0
180 201 0
180 201 0
179 201 0
180 202 0
181 203 0
181 203 0
180 201 0
181 203 0
182 204 0
182 204 0
181 203 0
181 202 0
179 201 0
178 201 0
182 204 0
180 203 0
183 204 0
183 204 0
183 204 0
184 205 0
182 204 0
180 203 0
181 203 0
182 203 0
182 204 0
180 202 0
183 204 0
182 204 0
183 204 0
181 203 0
181 202 0
178 201 0
181 203 0
182 204 0
180 203 0
181 203 0
180 202 0
181 203 0
181 203 0
182 204 0
181 203 0
181 203 0
180 202 0
180 203 0
182 204 0
182 203 0
184 205 0
181 202 0
181 203 0
183 204 0
185 205 0
180 202 0
184 205 0
181 203 0
183 204 0
184 205 0
183 204 0
180 203 0
179 202 0
183 204 0
183 204 0
183 204 0
182 204 0
180 202 0
182 204 0
182 204 0
181 203 0
181 203 0
180 203 0
181 203 0
181 203 0
181 203 0
181 203 0
181 203 0
183 204 0
182 204 0
181 202 0
181 203 0
180 203 0
182 204 0
180 202 0
181 203 0
183 204 0
181 203 0
181 203 0
182 204 0
181 202 0
182 204 0
182 204 0
184 205 0
181 203 0
183 204 0
180 203 0
182 203 0
184 204 0
183 204 0
184 205 0
181 203 0
183 204 0
181 203 0
183 204 0
181 202 0
182 204 0
182 204 0
181 203 0
180 201 0
182 204 0
181 203 0
182 204 0
180 203 0
182 203 0
183 204 0
183 204 0
182 204 0
180 202 0
181 203 0
180 202 0
184 205 0
181 203 0
181 203 0
181 203 0
182 204 0
179 201 0
181 203 0
183 204 0
181 203 0
177 199 0
181 203 0
181 203 0
183 204 0
182 204 0
180 203 0
181 203 0
183 204 0
181 203 0
182 204 0
180 203 0
181 203 0
181 203 0
181 202 0
183 204 0
181 203 0
180 203 0
184 204 0
181 203 0
181 203 0
180 203 0
182 204 0
178 199 0
182 203 0
181 203 0
180 201 0
183 204 0
179 201 0
180 201 0
181 203 0
177 199 0
180 203 0
182 204 0
179 202 0
182 204 0
180 203 0
182 203 0
182 203 0
183 204 0
183 204 0
180 202 0
178 200 0
180 203 0
182 204 0
179 201 0
181 202 0
179 201 0
178 200 0
182 203 0
183 203 0
180 202 0
181 203 0
180 202 0
180 201 0
181 203 0
178 201 0
180 202 0
181 202 0
180 202 0
181 203 0
183 204 0
179 201 0
182 204 0
184 205 0
181 203 0
179 201 0
181 202 0
178 200 0
182 203 0
181 203 0
181 203 0
180 202 0
178 199 0
181 203 0
184 205 0
180 202 0
177 200 0
180 202 0
182 203 0
176 198 0
178 200 0
174 196 0
178 200 0
178 200 0
182 204 0
181 203 0
179 201 0
181 202 0
182 204 0
176 198 0
180 201 0
177 199 0
177 199 0
181 202 0
181 203 0
178 200 0
183 204 0
183 204 0
179 200 0
178 201 0
179 201 0
182 202 0
181 202 0
178 200 0
179 201 0
176 197 0
181 203 0
181 203 0
179 201 0
181 203 0
179 201 0
181 202 0
178 200 0
180 202 0
178 200 0
181 202 0
183 204 0
184 204 0
179 200 0
180 202 0
181 202 0
180 202 0
179 201 0
181 202 0
180 202 0
183 204 0
181 203 0
182 204 0
176 198 0
178 199 0
180 203 0
180 202 56
180 202 69
183 205 56
183 204 69
186 207 97
183 205 80
184 205 69
184 205 80
188 208 104
183 204 69
182 203 38
184 205 38
183 205 80
183 205 69
183 204 56
184 206 80
185 206 89
183 205 97
180 202 69
185 207 89
185 206 80
183 204 80
185 206 69
183 205 56
184 205 69
181 201 0
183 205 80
183 206 89
185 206 89
182 204 69
181 204 56
183 204 69
182 204 89
185 206 69
186 207 97
179 201 63
182 203 38
176 199 69
183 205 69
175 197 75
181 204 75
180 201 63
183 204 84
179 200 56
179 200 69
183 204 38
183 204 75
182 203 69
180 202 97
178 199 69
183 204 69
181 201 93
180 200 48
185 205 89
182 203 75
177 200 38
178 200 25
176 198 25
178 200 0
179 202 0
178 200 0
176 199 0
177 199 0
180 202 0
179 200 0
179 200 0
177 200 0
181 202 0
178 200 0
175 196 0
177 200 0
178 200 0
174 196 0
180 201 0
177 200 0
183 204 0
181 203 0
181 203 0
179 201 0
174 197 0
181 202 0
178 200 0
177 199 0
183 204 0
177 201 0
183 204 0
179 201 0
183 204 0
181 202 0
180 202 0
178 200 0
182 204 0
182 204 0
179 201 0
179 202 0
182 204 0
178 200 0
184 205 0
179 201 0
176 199 0
179 201 0
182 204 0
184 205 0
183 204 0
181 203 0
180 202 0
180 202 0
181 203 0
182 204 0
184 205 0
182 204 0
183 204 0
181 203 0
180 201 0
182 203 0
181 203 0
180 203 0
177 200 0
182 204 0
181 203 0
182 204 0
183 204 0
179 200 0
181 203 0
183 204 0
181 203 0
181 203 0
180 202 0
180 202 0
181 202 0
180 201 0
181 202 0
177 199 0
182 203 0
181 203 0
184 204 0
182 204 0
182 204 0
181 203 0
179 202 0
183 204 0
182 204 0
180 202 0
183 204 0
180 202 0
181 202 0
182 204 0
181 203 0
182 204 0
183 204 0
182 204 0
181 203 0
181 203 0
182 203 0
181 203 0
183 204 0
184 205 0
186 206 0
181 202 0
182 204 0
181 203 0
181 203 0
181 203 0
180 202 0
180 202 0
181 203 0
180 203 0
181 203 0
182 203 0
183 204 0
179 201 0
182 204 0
182 204 0
181 203 0
182 204 0
181 203 0
182 204 0
182 204 0
183 204 0
182 204 0
183 204 0
182 204 0
183 204 0
180 203 0
183 204 0
182 204 0
183 204 0
179 201 0
180 202 0
181 203 0
180 203 0
183 204 0
178 202 0
180 203 0
181 203 0
181 203 0
181 203 0
182 204 0
181 203 0
182 203 0
181 203 0
179 202 0
180 203 0
180 203 0
182 203 0
183 204 0
181 203 0
181 203 0
183 204 0
182 204 0
183 204 0
183 204 0
180 201 0
181 203 0
183 204 0
183 204 0
180 203 0
180 203 0
181 203 0
179 201 0
182 203 0
182 204 0
182 204 0
184 205 0
182 204 0
183 204 0
182 204 0
182 204 0
179 202 0
180 203 0
182 204 0
182 204 0
182 204 0
181 203 0
180 202 0
183 203 0
183 204 0
181 203 0
181 203 0
182 204 0
181 203 0
181 203 0
182 204 0
182 203 0
180 203 0
182 204 0
181 203 0
183 204 0
183 204 0
181 203 0
183 204 0
181 203 0
182 204 0
181 203 0
180 203 0
182 204 0
180 203 0
182 204 0
180 202 0
182 204 0
182 203 0
175 198 0
183 204 0
180 203 0
181 202 0
180 202 0
180 202 0
183 204 0
178 200 0
178 200 0
181 203 0
180 203 0
183 204 0
183 204 0
181 202 0
180 203 0
178 200 0
182 204 0
183 204 0
180 202 0
180 202 0
182 204 0
180 202 0
181 203 0
181 202 0
180 203 0
184 205 0
177 200 0
181 202 0
182 203 0
179 202 0
182 204 0
180 202 0
182 203 0
184 205 0
180 203 0
184 205 0
181 202 0
182 204 0
182 203 0
182 203 0
178 201 0
182 204 0
181 203 0
181 203 0
180 202 0
180 202 0
179 202 0
183 204 0
178 200 0
182 203 0
182 203 0
183 204 0
178 200 0
182 204 0
180 203 0
183 204 0
180 202 0
179 201 0
182 204 0
177 199 0
181 203 0
178 200 0
181 203 0
180 202 0
179 201 0
178 199 0
180 202 0
182 203 0
180 201 0
181 202 0
182 203 0
181 202 0
180 202 0
182 204 0
178 201 0
184 205 0
181 203 0
180 202 0
180 202 0
178 200 0
178 201 0
180 202 0
179 202 0
182 203 0
184 205 0
182 204 0
178 201 0
182 203 0
180 202 0
177 200 0
178 200 0
175 197 0
180 202 0
181 202 0
177 200 0
180 203 0
183 204 0
181 203 0
181 203 0
179 202 0
184 205 0
178 201 0
184 205 0
176 199 0
179 200 0
180 202 0
180 202 0
178 200 0
181 202 0
179 201 0
182 203 0
180 201 0
178 201 0
182 203 0
181 202 0
176 199 0
176 198 0
179 200 0
173 196 0
179 201 0
179 200 0
179 201 0
178 199 0
177 198 0
179 201 0
179 201 0
183 204 0
178 199 0
177 199 0
178 200 0
178 200 0
182 203 0
178 199 0
177 200 0
177 198 0
183 204 0
182 203 0
180 203 38
180 202 0
181 203 56
185 206 89
181 203 56
184 205 104
182 204 69
186 208 104
183 204 38
185 207 97
183 204 89
185 206 69
185 207 89
190 210 118
182 204 56
182 204 69
183 205 69
185 207 97
184 205 69
184 205 69
185 206 80
183 205 56
181 203 97
184 205 38
181 202 38
184 205 69
185 206 80
187 208 104
184 205 89
184 206 111
185 206 69
183 204 0
183 204 38
184 205 56
184 205 38
183 205 80
183 205 38
181 203 63
177 198 69
180 202 75
181 202 80
182 203 38
175 198 56
182 203 84
178 201 80
182 203 38
181 203 63
183 204 38
182 203 89
177 198 56
179 201 69
180 201 75
179 201 80
177 198 56
184 205 80
182 203 38
179 200 97
176 198 0
180 202 25
177 200 0
180 201 0
179 202 0
180 202 0
179 201 0
181 203 0
178 200 0
180 201 0
177 198 0
178 200 0
176 198 0
181 202 0
173 196 0
179 201 0
181 202 0
172 196 0
178 200 0
178 200 0
180 201 0
174 196 0
179 201 0
179 201 0
181 203 0
180 202 0
180 201 0
181 203 0
178 200 0
181 203 0
175 198 0
182 204 0
178 200 0
179 201 0
178 200 0
183 203 0
180 201 0
181 203 0
180 202 0
181 202 0
180 202 0
181 203 0
180 203 0
177 200 0
180 201 0
182 203 0
181 203 0
177 200 0
179 202 0
175 197 0
179 202 0
181 203 0
183 204 0
180 202 0
178 200 0
182 204 0
183 204 0
183 204 0
181 202 0
182 204 0
183 204 0
183 204 0
182 203 0
180 202 0
179 201 0
182 204 0
181 203 0
183 204 0
181 203 0
182 204 0
175 197 0
182 203 0
182 204 0
180 203 0
180 202 0
182 203 0
182 203 0
181 203 0
182 203 0
182 204 0
183 204 0
184 205 0
181 203 0
181 202 0
182 204 0
179 202 0
181 203 0
180 202 0
183 204 0
179 202 0
184 205 0
182 204 0
182 204 0
180 202 0
180 203 0
177 200 0
181 203 0
181 203 0
179 201 0
179 201 0
182 204 0
179 202 0
181 203 0
181 203 0
180 202 0
180 202 0
183 204 0
181 203 0
183 204 0
183 204 0
181 203 0
182 204 0
180 203 0
182 204 0
182 204 0
179 202 0
183 204 0
182 204 0
182 203 0
180 203 0
181 203 0
182 204 0
182 204 0
179 202 0
182 204 0
181 203 0
182 204 0
182 204 0
180 203 0
180 202 0
179 202 0
183 204 0
182 204 0
182 204 0
182 204 0
182 204 0
181 203 0
181 203 0
181 203 0
182 204 0
183 204 0
183 204 0
180 203 0
182 204 0
183 204 0
183 204 0
182 204 0
181 203 0
183 204 0
180 203 0
181 203 0
182 204 0
182 204 0
182 204 0
182 204 0
183 204 0
184 205 0
182 204 0
183 204 0
179 201 0
182 204 0
180 203 0
180 203 0
181 203 0
185 205 0
182 204 0
180 201 0
183 204 0
181 203 0
182 204 0
183 204 0
183 204 0
180 202 0
182 204 0
180 202 0
181 203 0
182 204 0
180 202 0
182 204 0
184 205 0
180 202 0
182 204 0
180 203 0
180 203 0
181 203 0
184 205 0
181 203 0
182 203 0
182 204 0
179 202 0
183 204 0
181 203 0
181 203 0
183 204 0
181 203 0
185 205 0
182 204 0
177 199 0
179 202 0
181 203 0
183 204 0
183 204 0
180 201 0
180 202 0
182 203 0
182 204 0
181 203 0
182 204 0
180 203 0
182 204 0
182 204 0
179 201 0
181 202 0
181 203 0
181 203 0
181 202 0
182 204 0
178 201 0
182 204 0
181 203 0
180 202 0
182 204 0
181 203 0
182 203 0
183 204 0
181 202 0
180 203 0
182 204 0
179 201 0
181 203 0
182 204 0
180 203 0
180 201 0
182 203 0
183 204 0
182 204 0
184 205 0
181 202 0
182 204 0
184 205 0
181 203 0
179 201 0
182 204 0
179 202 0
179 201 0
181 203 0
178 200 0
180 203 0
181 203 0
176 199 0
180 202 0
180 202 0
177 199 0
183 204 0
181 203 0
179 202 0
183 204 0
181 203 0
183 204 0
182 204 0
178 200 0
181 203 0
181 203 0
178 200 0
180 201 0
182 204 0
180 201 0
180 202 0
181 202 0
183 204 0
182 204 0
180 202 0
178 201 0
181 203 0
182 203 0
180 202 0
182 204 0
181 203 0
181 203 0
180 202 0
179 201 0
183 204 0
181 202 0
179 202 0
183 204 0
177 199 0
180 202 0
182 203 0
177 199 0
181 202 0
180 202 0
181 201 0
178 201 0
180 202 0
179 202 0
178 200 0
180 202 0
179 202 0
181 203 0
185 205 0
182 204 0
180 202 0
179 201 0
182 203 0
175 197 0
179 199 0
180 203 0
178 200 0
175 198 0
178 200 0
179 202 0
178 200 0
178 199 0
180 202 0
181 202 0
183 204 0
178 200 0
181 202 0
182 203 0
179 201 0
179 200 0
172 194 0
179 200 0
181 202 0
178 199 0
179 201 0
178 201 0
177 198 0
178 199 0
180 202 0
173 196 0
176 198 0
180 201 0
177 199 0
181 202 0
178 200 0
180 202 0
175 198 0
180 202 0
181 203 0
181 202 0
181 203 0
180 201 0
181 203 0
181 203 38
182 203 38
181 203 38
182 203 38
189 209 118
186 207 97
184 205 97
185 206 89
183 204 80
183 204 89
184 206 80
187 208 118
184 205 89
184 205 69
183 206 111
186 206 80
185 205 56
184 205 69
184 205 56
183 204 80
182 204 69
184 205 56
183 205 69
184 206 104
184 205 97
181 203 80
183 204 69
183 204 69
182 205 69
184 205 80
182 203 80
180 201 56
184 206 80
182 204 69
180 203 56
184 205 80
178 200 63
182 204 56
179 201 56
181 203 48
178 201 75
178 200 38
177 200 25
177 199 63
185 205 84
178 199 75
180 203 69
179 200 38
176 199 38
182 203 38
185 206 80
180 202 48
182 203 63
186 207 80
184 204 93
180 202 63
182 203 84
178 200 25
178 201 25
180 202 0
180 201 0
174 196 0
178 199 0
173 195 0
176 198 0
180 203 0
177 199 0
179 201 0
179 201 0
176 199 0
180 202 0
178 200 0
178 199 0
176 199 0
181 202 0
178 200 0
179 201 0
177 200 0
180 202 0
182 204 0
175 197 0
179 201 0
181 202 0
181 203 0
173 195 0
179 202 0
181 203 0
178 201 0
178 201 0
172 196 0
180 202 0
178 200 0
176 198 0
179 202 0
179 201 0
179 201 0
177 199 0
180 202 0
181 202 0
185 205 0
181 203 0
181 202 0
182 204 0
183 204 0
178 201 0
183 204 0
182 203 0
179 201 0
182 204 0
179 201 0
180 202 0
180 202 0
182 203 0
175 197 0
180 202 0
181 203 0
178 200 0
182 204 0
182 204 0
181 203 0
179 202 0
181 202 0
179 202 0
183 204 0
180 202 0
181 202 0
179 202 0
179 201 0
177 200 0
181 203 0
180 202 0
184 205 0
182 204 0
182 203 0
178 200 0
183 204 0
181 203 0
182 204 0
181 203 0
183 204 0
179 202 0
180 202 0
182 204 0
182 204 0
182 203 0
183 204 0
185 205 0
182 204 0
180 202 0
182 203 0
182 204 0
180 203 0
181 203 0
183 204 0
181 203 0
181 203 0
181 203 0
184 205 0
180 203 0
182 204 0
180 202 0
182 203 0
182 203 0
182 203 0
181 203 0
181 203 0
182 204 0
181 203 0
183 204 0
181 203 0
183 204 0
180 202 0
181 203 0
180 203 0
183 204 0
179 202 0
183 204 0
181 203 0
180 203 0
181 203 0
180 203 0
182 204 0
183 204 0
181 203 0
181 203 0
179 202 0
182 204 0
180 203 0
183 204 0
181 203 0
179 202 0
182 204 0
182 204 0
183 204 0
182 203 0
182 203 0
181 203 0
182 204 0
181 203 0
181 203 0
184 204 0
184 205 0
179 201 0
183 204 0
179 202 0
181 203 0
182 204 0
183 204 0
181 202 0
182 204 0
181 202 0
183 203 0
182 204 0
180 203 0
182 204 0
182 204 0
181 203 0
182 204 0
183 204 0
183 204 0
181 203 0
183 204 0
180 202 0
181 203 0
182 204 0
181 203 0
184 204 0
178 201 0
179 202 0
182 204 0
181 203 0
182 204 0
179 202 0
183 204 0
179 201 0
181 203 0
183 204 0
182 204 0
183 204 0
180 203 0
182 204 0
181 203 0
182 203 0
181 202 0
181 202 0
183 204 0
183 203 0
181 203 0
182 204 0
179 202 0
182 204 0
183 204 0
181 203 0
184 205 0
182 204 0
181 203 0
182 204 0
183 204 0
180 202 0
181 203 0
182 204 0
183 204 0
182 204 0
182 203 0
181 203 0
183 204 0
182 203 0
179 201 0
184 205 0
180 202 0
180 202 0
182 203 0
182 203 0
183 204 0
177 200 0
182 204 0
183 204 0
177 199 0
181 202 0
181 203 0
179 202 0
178 201 0
180 202 0
182 204 0
181 202 0
180 202 0
181 203 0
183 204 0
181 203 0
181 203 0
182 203 0
180 202 0
183 203 0
183 204 0
180 202 0
181 203 0
181 203 0
181 203 0
181 203 0
179 202 0
180 202 0
184 204 0
179 202 0
178 200 0
181 203 0
183 204 0
180 202 0
181 203 0
179 200 0
182 204 0
179 200 0
181 203 0
178 201 0
179 200 0
180 202 0
182 204 0
182 204 0
181 202 0
182 203 0
180 202 0
184 205 0
178 201 0
181 203 0
182 204 0
179 202 0
181 202 0
180 202 0
183 204 0
180 202 0
179 202 0
179 200 0
179 202 0
181 203 0
176 197 0
183 204 0
181 202 0
182 203 0
181 203 0
176 197 0
183 204 0
180 202 0
183 204 0
176 197 0
183 203 0
180 202 0
179 201 0
177 200 0
180 202 0
179 200 0
178 200 0
179 201 0
180 202 0
178 200 0
179 201 0
177 199 0
181 202 0
180 202 0
181 203 0
185 205 0
176 198 0
176 198 0
181 203 0
177 199 0
180 201 0
182 203 0
182 204 0
179 201 0
176 198 0
182 203 0
178 199 0
179 201 0
173 195 0
179 202 0
179 201 0
181 202 0
179 200 0
175 197 0
185 205 0
182 204 0
183 204 0
176 198 0
177 199 0
182 203 0
178 200 0
178 200 0
180 202 0
181 203 0
181 202 0
180 201 0
177 199 0
177 198 0
181 203 0
175 198 0
178 200 0
183 204 0
180 202 0
182 204 0
181 202 0
181 203 0
183 203 0
184 206 80
183 204 56
182 204 56
184 205 69
184 206 97
185 206 97
184 205 69
185 205 80
186 207 89
184 205 56
185 206 80
184 206 80
184 206 89
185 207 104
181 203 38
181 203 56
184 206 89
183 204 38
184 205 80
187 207 38
185 207 97
182 204 80
182 205 89
183 205 97
183 205 80
185 205 0
183 205 69
185 207 97
184 205 38
184 206 89
184 205 56
186 207 80
181 203 38
186 208 104
183 205 80
180 202 56
181 202 69
178 200 63
178 199 63
183 204 56
179 201 0
179 201 25
180 201 80
179 202 69
178 200 93
182 203 56
182 203 60
183 204 48
179 200 84
181 203 97
183 205 56
181 202 48
182 203 84
180 202 75
183 204 80
184 205 84
187 208 97
175 197 25
182 204 0
180 202 0
179 201 0
181 203 0
179 201 0
181 201 0
182 203 0
179 201 0
177 200 0
176 198 0
172 195 0
178 200 0
180 201 0
176 198 0
179 201 0
177 199 0
172 194 0
180 201 0
177 199 0
180 203 0
182 203 0
179 201 0
179 201 0
182 203 0
178 199 0
177 199 0
179 201 0
180 202 0
178 200 0
176 198 0
178 199 0
180 203 0
181 203 0
180 201 0
176 198 0
181 203 0
181 203 0
180 201 0
184 205 0
180 203 0
177 200 0
181 202 0
181 203 0
182 204 0
178 200 0
177 200 0
182 203 0
181 203 0
178 200 0
181 203 0
180 202 0
180 203 0
181 202 0
178 200 0
180 202 0
180 202 0
181 203 0
180 202 0
182 204 0
180 202 0
183 204 0
180 201 0
179 201 0
181 202 0
182 204 0
181 203 0
181 203 0
182 204 0
182 203 0
182 204 0
178 201 0
182 204 0
182 204 0
183 204 0
178 200 0
184 205 0
181 203 0
182 204 0
179 202 0
182 204 0
184 205 0
181 203 0
180 203 0
183 204 0
183 204 0
181 203 0
181 202 0
182 204 0
181 203 0
180 203 0
181 203 0
181 203 0
182 204 0
182 204 0
182 204 0
182 203 0
182 204 0
181 203 0
182 204 0
182 203 0
179 201 0
182 204 0
181 203 0
182 204 0
181 203 0
183 204 0
180 202 0
182 204 0
181 203 0
182 204 0
181 202 0
183 203 0
183 204 0
184 204 0
182 204 0
183 204 0
183 204 0
183 204 0
180 203 0
182 204 0
181 203 0
182 204 0
181 203 0
181 203 0
180 202 0
182 203 0
181 203 0
182 204 0
182 204 0
182 203 0
181 203 0
182 203 0
181 203 0
182 204 0
181 203 0
181 203 0
182 204 0
180 203 0
182 204 0
182 204 0
183 204 0
183 204 0
183 204 0
183 204 0
183 204 0
180 202 0
181 203 0
181 202 0
182 204 0
183 204 0
182 203 0
182 204 0
182 204 0
183 204 0
182 204 0
180 203 0
181 203 0
182 204 0
183 204 0
183 203 0
179 201 0
182 204 0
183 204 0
182 204 0
183 204 0
180 203 0
181 203 0
181 203 0
182 204 0
182 204 0
183 204 0
183 204 0
180 202 0
182 204 0
182 204 0
181 203 0
181 203 0
181 203 0
181 202 0
181 203 0
178 201 0
181 203 0
183 204 0
185 205 0
184 205 0
183 204 0
178 201 0
183 204 0
181 203 0
184 205 0
182 204 0
182 204 0
183 204 0
181 203 0
182 203 0
179 201 0
181 203 0
182 203 0
183 204 0
181 203 0
181 203 0
181 203 0
182 203 0
180 202 0
181 203 0
181 203 0
182 203 0
182 204 0
182 203 0
179 202 0
182 203 0
180 203 0
181 203 0
179 201 0
180 203 0
183 204 0
182 204 0
181 203 0
180 202 0
181 203 0
179 202 0
181 203 0
180 202 0
182 203 0
180 202 0
181 203 0
183 204 0
180 202 0
181 203 0
180 202 0
184 205 0
180 202 0
182 204 0
180 201 0
183 204 0
181 203 0
179 202 0
183 204 0
183 204 0
180 202 0
181 203 0
182 204 0
184 204 0
182 203 0
179 201 0
179 202 0
180 203 0
180 202 0
181 203 0
182 204 0
178 200 0
178 201 0
181 203 0
181 203 0
177 199 0
183 204 0
178 201 0
180 203 0
182 204 0
183 204 0
181 203 0
179 201 0
179 201 0
182 204 0
178 200 0
179 202 0
180 203 0
183 204 0
179 201 0
182 204 0
183 203 0
180 203 0
181 203 0
180 202 0
181 202 0
180 202 0
178 201 0
179 200 0
175 197 0
178 200 0
182 204 0
177 199 0
182 204 0
179 201 0
177 199 0
180 202 0
177 199 0
182 204 0
180 203 0
182 204 0
174 196 0
180 202 0
182 203 0
182 204 0
181 203 0
179 200 0
176 198 0
179 200 0
177 199 0
181 202 0
177 200 0
180 201 0
180 202 0
174 197 0
175 197 0
179 201 0
181 203 0
178 200 0
179 200 0
179 202 0
181 202 0
177 200 0
180 202 0
176 199 0
180 202 0
178 200 0
182 204 0
181 203 0
183 204 0
177 199 0
178 199 0
180 201 0
181 202 0
183 204 0
181 203 0
182 204 0
178 199 0
180 201 0
182 203 0
180 202 0
180 202 0
176 198 0
178 200 0
175 198 0
178 200 0
178 200 0
177 200 0
184 205 0
181 202 0
180 202 0
182 204 38
178 201 0
181 203 0
181 203 0
180 202 0
190 209 104
181 202 38
185 206 69
186 207 69
183 204 38
190 210 118
183 205 80
186 207 89
185 206 89
183 204 89
185 206 97
184 206 97
186 208 104
183 205 38
183 206 89
183 205 80
183 204 89
180 203 69
183 205 89
183 205 89
186 207 89
185 206 69
181 203 56
183 205 80
182 205 97
184 206 69
184 205 56
182 204 69
183 205 56
185 206 80
188 209 111
182 204 56
181 203 69
178 201 63
179 201 38
179 200 75
180 202 69
181 203 84
175 197 80
183 205 38
181 202 63
180 201 56
178 199 63
181 203 56
183 204 63
183 204 63
178 200 25
178 200 75
183 204 69
180 202 48
184 204 104
180 202 101
181 201 38
180 200 101
180 202 56
177 199 38
182 204 0
182 203 0
174 196 0
177 198 0
180 201 0
177 198 0
182 204 0
176 199 0
177 200 0
173 196 0
177 199 0
181 202 0
178 200 0
177 199 0
175 197 0
175 199 0
170 194 0
177 200 0
181 202 0
181 203 0
175 197 0
176 199 0
179 201 0
174 197 0
181 202 0
179 201 0
183 203 0
182 203 0
177 199 0
182 204 0
175 196 0
179 201 0
180 201 0
182 204 0
181 202 0
180 202 0
181 203 0
179 201 0
182 204 0
182 203 0
182 204 0
179 202 0
177 200 0
181 202 0
180 202 0
177 200 0
179 202 0
182 203 0
183 204 0
180 202 0
179 201 0
181 203 0
179 201 0
181 203 0
183 204 0
182 204 0
183 204 0
179 201 0
181 203 0
183 204 0
180 203 0
181 203 0
181 203 0
178 200 0
181 203 0
178 201 0
182 204 0
179 202 0
179 201 0
181 202 0
178 200 0
182 204 0
183 204 0
181 203 0
182 204 0
180 201 0
181 203 0
182 204 0
181 203 0
179 202 0
182 204 0
182 203 0
182 204 0
182 204 0
181 203 0
183 204 0
184 205 0
181 203 0
181 202 0
183 204 0
181 202 0
182 204 0
182 204 0
183 204 0
178 201 0
184 205 0
179 201 0
180 202 0
182 204 0
182 203 0
181 202 0
177 201 0
182 204 0
179 201 0
182 204 0
181 203 0
183 204 0
183 204 0
181 203 0
184 205 0
183 204 0
180 203 0
184 205 0
182 203 0
181 203 0
182 204 0
183 204 0
181 203 0
182 204 0
182 204 0
181 203 0
183 204 0
180 203 0
180 203 0
183 204 0
182 204 0
180 203 0
182 204 0
181 203 0
183 204 0
182 204 0
178 202 0
180 202 0
181 203 0
181 203 0
182 204 0
181 203 0
184 205 0
182 203 0
180 203 0
182 204 0
181 203 0
180 203 0
184 205 0
182 204 0
181 203 0
181 203 0
184 205 0
181 203 0
178 201 0
182 204 0
182 204 0
183 204 0
181 203 0
181 203 0
181 203 0
181 203 0
182 203 0
183 204 0
183 204 0
182 204 0
183 204 0
182 204 0
183 204 0
181 203 0
183 204 0
180 202 0
179 202 0
181 202 0
185 205 0
182 203 0
181 203 0
178 201 0
182 204 0
183 204 0
180 202 0
182 203 0
182 203 0
181 202 0
181 203 0
180 203 0
182 204 0
182 204 0
183 204 0
184 205 0
182 204 0
181 203 0
179 201 0
179 201 0
182 204 0
181 203 0
178 201 0
179 201 0
181 203 0
183 204 0
181 202 0
183 204 0
184 205 0
183 204 0
178 201 0
181 203 0
181 203 0
182 204 0
180 202 0
180 202 0
182 204 0
182 204 0
181 202 0
181 203 0
182 204 0
182 204 0
182 204 0
180 203 0
181 203 0
183 204 0
183 204 0
181 203 0
179 202 0
182 204 0
181 203 0
183 204 0
181 203 0
182 204 0
180 203 0
182 204 0
181 203 0
179 202 0
179 201 0
180 202 0
181 203 0
182 204 0
179 201 0
180 201 0
181 203 0
183 204 0
181 202 0
181 203 0
182 204 0
177 200 0
181 203 0
178 201 0
182 204 0
181 203 0
181 203 0
181 203 0
182 203 0
182 204 0
183 204 0
179 202 0
182 203 0
179 202 0
182 204 0
180 202 0
182 204 0
181 203 0
179 202 0
181 203 0
183 204 0
176 198 0
181 202 0
179 201 0
181 202 0
182 204 0
181 203 0
183 204 0
182 204 0
179 202 0
182 204 0
182 203 0
180 202 0
182 204 0
179 201 0
174 197 0
182 204 0
178 201 0
177 199 0
178 201 0
177 200 0
180 202 0
179 201 0
181 203 0
182 203 0
181 203 0
181 203 0
178 200 0
175 196 0
180 202 0
181 202 0
176 197 0
180 202 0
178 199 0
182 204 0
177 199 0
182 203 0
180 202 0
182 203 0
180 201 0
183 204 0
177 200 0
180 201 0
173 195 0
179 201 0
178 200 0
180 202 0
180 202 0
176 199 0
178 200 0
180 200 0
180 202 0
182 203 0
180 202 0
183 203 0
177 200 0
181 202 0
182 204 0
183 204 0
182 204 0
180 202 0
180 202 0
176 198 0
179 201 0
180 200 0
182 203 0
178 200 0
178 200 0
175 197 0
177 199 0
181 203 0
181 202 0
179 201 0
180 203 0
179 201 0
181 202 0
180 202 0
181 203 0
178 199 0
182 202 0
175 198 0
182 204 0
179 201 56
178 199 38
180 202 0
182 204 0
183 205 56
186 207 80
185 206 69
183 205 56
183 204 69
184 206 69
186 208 104
183 205 80
186 208 111
184 206 97
186 207 89
184 205 80
182 203 69
182 203 56
183 205 56
184 205 69
184 206 89
185 206 89
187 208 111
182 203 56
182 204 56
183 204 69
187 208 97
184 205 38
183 205 69
182 204 56
181 203 80
181 203 0
184 205 80
184 206 89
182 204 89
184 205 56
181 204 80
183 204 56
182 203 56
176 199 80
182 203 75
179 200 0
177 200 84
184 205 0
178 201 80
180 202 75
181 202 48
175 197 75
184 204 60
180 202 63
182 203 75
180 200 56
178 200 75
182 203 84
180 201 63
183 204 75
180 202 80
181 202 75
182 203 80
187 207 101
172 194 25
177 199 0
178 200 0
179 201 0
178 200 0
177 199 0
178 199 0
177 199 0
177 199 0
177 200 0
176 198 0
178 199 0
179 200 0
180 201 0
178 200 0
176 197 0
180 202 0
173 196 0
182 203 0
182 204 0
178 200 0
178 200 0
173 194 0
181 203 0
181 203 0
182 203 0
179 200 0
176 199 0
179 201 0
180 203 0
180 202 0
174 197 0
184 205 0
179 201 0
179 201 0
177 201 0
178 200 0
172 194 0
182 204 0
181 202 0
183 203 0
180 202 0
181 202 0
179 200 0
178 200 0
181 203 0
180 202 0
180 201 0
178 200 0
177 200 0
181 202 0
181 203 0
180 202 0
179 202 0
178 200 0
182 204 0
182 204 0
179 202 0
180 202 0
183 204 0
180 202 0
185 205 0
181 203 0
181 203 0
183 204 0
180 202 0
180 201 0
179 202 0
182 204 0
181 203 0
183 204 0
182 204 0
181 203 0
182 204 0
181 203 0
179 201 0
181 203 0
181 203 0
180 202 0
177 200 0
182 204 0
180 202 0
181 203 0
183 204 0
182 204 0
178 200 0
179 202 0
182 204 0
178 200 0
181 203 0
181 203 0
178 201 0
183 204 0
181 203 0
181 203 0
181 203 0
183 204 0
181 203 0
179 202 0
182 203 0
179 201 0
182 204 0
181 202 0
183 204 0
181 203 0
181 203 0
180 202 0
181 203 0
181 203 0
181 203 0
179 202 0
182 204 0
181 202 0
184 205 0
179 202 0
180 203 0
181 202 0
183 204 0
179 201 0
181 203 0
182 204 0
182 204 0
180 203 0
182 204 0
183 204 0
183 204 0
181 203 0
183 204 0
182 203 0
181 203 0
182 204 0
183 204 0
182 204 0
182 204 0
179 202 0
184 205 0
181 203 0
183 204 0
179 202 0
182 204 0
182 204 0
183 204 0
182 204 0
181 203 0
181 203 0
181 203 0
181 203 0
181 203 0
181 203 0
182 204 0
183 204 0
180 202 0
182 204 0
180 202 0
183 204 0
184 205 0
184 205 0
181 203 0
184 205 0
182 204 0
181 203 0
182 204 0
183 204 0
181 202 0
182 204 0
183 204 0
183 204 0
183 204 0
180 203 0
181 203 0
183 204 0
182 203 0
181 203 0
183 204 0
182 204 0
183 204 0
181 203 0
180 203 0
181 203 0
183 204 0
186 206 0
181 203 0
182 204 0
182 204 0
179 202 0
180 202 0
182 204 0
181 202 0
183 204 0
179 201 0
181 203 0
182 203 0
183 204 0
179 202 0
180 202 0
180 201 0
180 203 0
182 203 0
181 203 0
180 203 0
180 203 0
182 203 0
181 203 0
182 204 0
183 204 0
183 204 0
181 202 0
181 203 0
183 204 0
179 201 0
182 203 0
180 201 0
184 205 0
181 202 0
182 204 0
181 202 0
180 202 0
182 203 0
182 203 0
180 202 0
180 203 0
183 203 0
183 204 0
182 204 0
180 202 0
182 204 0
183 204 0
181 202 0
181 203 0
178 200 0
182 204 0
181 203 0
178 200 0
181 202 0
183 204 0
180 203 0
185 205 0
183 204 0
177 200 0
181 203 0
181 202 0
180 203 0
182 204 0
182 204 0
181 202 0
183 204 0
181 202 0
178 200 0
179 202 0
180 202 0
183 204 0
183 204 0
180 202 0
180 202 0
183 204 0
183 203 0
182 204 0
181 203 0
182 204 0
180 202 0
182 204 0
179 202 0
177 200 0
179 201 0
180 202 0
180 203 0
183 203 0
178 200 0
176 198 0
179 202 0
181 202 0
176 198 0
180 203 0
179 201 0
179 201 0
182 204 0
180 202 0
181 203 0
181 202 0
181 203 0
180 201 0
177 200 0
176 198 0
184 205 0
181 202 0
176 198 0
185 205 0
177 199 0
176 198 0
178 200 0
181 203 0
183 204 0
175 198 0
177 200 0
179 200 0
179 201 0
176 199 0
182 204 0
178 200 0
180 202 0
179 201 0
181 202 0
181 202 0
180 202 0
178 199 0
180 201 0
177 198 0
175 197 0
179 200 0
175 197 0
180 202 0
180 203 0
175 197 0
181 202 0
176 198 0
175 197 0
179 201 0
177 199 0
176 198 0
177 200 0
179 200 0
178 199 0
181 203 0
179 200 0
180 201 0
180 202 0
182 204 0
180 201 0
177 198 0
179 200 0
178 199 0
182 204 0
182 203 0
175 196 0
181 202 0
175 196 0
179 201 0
181 202 0
180 202 0
181 202 56
183 204 56
183 204 38
183 204 56
181 202 0
186 206 89
190 210 104
185 206 89
186 206 69
183 204 89
184 205 69
187 208 104
180 200 38
185 206 80
187 208 97
183 204 38
185 205 56
184 205 69
183 205 80
184 204 80
183 204 69
182 203 56
182 204 80
183 204 89
182 205 80
185 206 80
183 204 56
185 206 69
180 202 0
185 206 80
183 205 89
181 202 56
181 204 80
183 205 97
183 205 89
178 200 69
184 206 80
183 205 89
182 205 89
178 201 48
180 202 25
175 197 48
180 202 38
181 201 75
182 204 69
180 202 75
179 201 25
181 203 38
180 202 56
181 203 69
179 202 80
182 203 63
174 196 80
180 202 69
180 201 66
179 201 38
181 202 38
183 204 75
177 199 63
181 202 56
184 205 97
179 201 25
183 204 0
177 199 0
183 203 0
177 199 0
175 197 0
172 195 0
175 197 0
180 201 0
182 204 0
180 202 0
179 202 0
176 199 0
179 201 0
178 199 0
179 202 0
176 199 0
180 201 0
176 199 0
179 202 0
178 200 0
175 198 0
180 202 0
178 200 0
176 197 0
175 197 0
183 203 0
181 202 0
175 197 0
179 201 0
172 194 0
182 203 0
179 202 0
178 200 0
178 200 0
180 202 0
181 203 0
175 198 0
180 202 0
178 200 0
180 203 0
180 202 0
182 204 0
183 204 0
180 202 0
181 202 0
182 204 0
177 199 0
182 204 0
178 200 0
180 202 0
180 202 0
179 200 0
181 203 0
183 204 0
181 202 0
181 202 0
180 201 0
181 203 0
182 204 0
178 200 0
178 201 0
182 203 0
180 203 0
182 204 0
179 201 0
183 204 0
183 204 0
180 202 0
181 202 0
180 202 0
181 203 0
183 204 0
183 204 0
181 203 0
181 203 0
181 203 0
183 204 0
180 202 0
182 203 0
181 202 0
181 203 0
182 204 0
183 204 0
184 205 0
180 201 0
179 202 0
180 202 0
183 204 0
183 204 0
179 201 0
180 202 0
183 204 0
181 203 0
181 203 0
182 204 0
181 203 0
182 203 0
179 202 0
183 203 0
182 204 0
179 201 0
183 204 0
180 203 0
180 202 0
180 201 0
182 204 0
180 201 0
182 204 0
182 204 0
180 203 0
181 203 0
180 203 0
180 203 0
182 204 0
183 204 0
181 203 0
180 203 0
181 203 0
181 203 0
181 203 0
183 204 0
182 204 0
182 204 0
185 205 0
181 203 0
181 203 0
183 204 0
180 203 0
183 204 0
182 204 0
181 203 0
181 203 0
179 202 0
183 204 0
180 203 0
182 204 0
184 204 0
184 205 0
182 204 0
181 203 0
183 204 0
181 203 0
179 202 0
182 203 0
183 204 0
182 204 0
179 202 0
183 204 0
182 204 0
180 202 0
178 201 0
183 204 0
181 203 0
180 203 0
183 204 0
181 203 0
182 204 0
181 203 0
181 202 0
179 201 0
182 204 0
179 201 0
181 203 0
181 203 0
180 203 0
182 203 0
181 203 0
182 204 0
182 203 0
178 201 0
180 201 0
183 204 0
181 203 0
181 203 0
182 204 0
182 204 0
180 203 0
181 203 0
181 203 0
183 204 0
183 204 0
181 203 0
180 202 0
183 204 0
179 201 0
182 204 0
181 203 0
182 204 0
181 203 0
182 204 0
183 204 0
181 203 0
181 203 0
182 204 0
181 203 0
182 203 0
184 204 0
182 204 0
180 201 0
182 204 0
182 204 0
181 203 0
183 204 0
181 203 0
179 201 0
178 201 0
178 200 0
178 200 0
180 202 0
181 203 0
182 203 0
181 203 0
181 203 0
182 204 0
180 202 0
178 201 0
179 200 0
179 201 0
183 204 0
181 203 0
179 202 0
181 203 0
183 204 0
179 202 0
182 204 0
178 200 0
181 203 0
181 203 0
181 203 0
181 202 0
180 202 0
180 202 0
181 203 0
182 204 0
177 200 0
181 202 0
180 202 0
182 204 0
179 201 0
184 204 0
182 204 0
181 202 0
179 201 0
180 202 0
178 200 0
183 204 0
181 203 0
182 204 0
180 202 0
181 203 0
179 201 0
178 199 0
182 203 0
182 204 0
181 202 0
180 203 0
181 202 0
179 201 0
181 203 0
178 200 0
181 202 0
182 204 0
181 202 0
178 200 0
182 204 0
182 203 0
178 200 0
184 205 0
180 201 0
183 204 0
182 204 0
182 204 0
181 203 0
179 201 0
177 199 0
181 202 0
181 202 0
182 204 0
177 199 0
182 203 0
177 199 0
179 201 0
179 202 0
178 201 0
181 202 0
177 200 0
182 203 0
176 197 0
177 199 0
179 201 0
179 201 0
177 200 0
182 203 0
177 198 0
179 200 0
180 202 0
179 201 0
179 201 0
180 202 0
180 202 0
179 202 0
177 199 0
177 199 0
177 198 0
182 204 0
184 205 0
183 204 0
180 202 0
183 204 0
178 200 0
178 199 0
177 200 0
183 204 0
181 203 0
179 202 0
178 200 0
181 203 0
182 204 0
178 201 0
178 199 0
179 200 0
178 200 0
178 199 0
172 195 0
179 201 0
182 203 0
179 201 0
181 203 0
182 204 0
174 197 0
177 199 0
178 200 0
181 203 0
181 203 0
177 199 0
179 202 0
178 199 0
174 196 0
180 202 56
183 204 38
184 205 69
181 204 56
184 205 69
183 205 56
184 206 89
183 205 56
187 208 97
185 206 80
182 204 56
186 207 89
187 208 104
183 204 89
184 206 80
178 201 56
185 206 69
184 206 89
185 206 97
183 204 89
182 204 69
184 205 56
183 204 69
184 206 89
183 204 56
183 204 89
184 206 104
185 207 97
183 206 97
183 205 80
182 204 56
183 204 69
184 206 104
184 205 69
185 206 80
181 203 89
184 205 56
181 203 97
182 204 56
184 206 104
177 199 80
181 202 80
177 199 48
182 204 63
180 202 56
181 202 38
176 198 56
179 201 69
178 200 75
181 202 56
179 201 101
184 205 69
177 198 69
178 200 25
177 199 0
180 201 56
179 200 69
180 201 75
182 203 80
187 207 104
185 205 101
179 201 38
180 202 38
177 199 38
181 202 0
178 200 0
175 196 0
176 198 0
178 198 0
177 200 0
179 201 0
183 204 0
179 201 0
171 195 0
180 202 0
180 202 0
176 197 0
176 198 0
177 199 0
178 199 0
175 197 0
178 199 0
176 198 0
178 200 0
176 198 0
176 198 0
180 201 0
183 204 0
182 204 0
177 200 0
178 199 0
177 199 0
181 203 0
182 203 0
179 202 0
180 201 0
176 198 0
182 203 0
181 203 0
180 202 0
180 201 0
183 203 0
179 201 0
183 204 0
178 200 0
179 201 0
177 200 0
179 201 0
173 195 0
181 203 0
181 203 0
177 200 0
182 203 0
179 201 0
178 201 0
180 202 0
180 202 0
182 204 0
179 201 0
181 203 0
181 203 0
178 199 0
181 203 0
181 203 0
180 202 0
179 201 0
183 204 0
178 201 0
181 203 0
182 204 0
181 203 0
180 203 0
180 203 0
180 202 0
180 202 0
178 200 0
180 202 0
180 203 0
183 204 0
181 203 0
183 204 0
181 203 0
184 204 0
182 204 0
181 202 0
181 202 0
182 204 0
180 203 0
182 204 0
184 205 0
183 204 0
178 201 0
180 202 0
183 204 0
181 203 0
182 204 0
184 205 0
182 204 0
180 202 0
179 201 0
184 205 0
181 203 0
182 204 0
180 203 0
182 204 0
183 204 0
183 204 0
180 203 0
181 202 0
181 203 0
182 204 0
182 204 0
181 203 0
179 201 0
181 203 0
181 203 0
183 204 0
182 204 0
182 204 0
181 202 0
179 201 0
182 204 0
180 202 0
182 204 0
180 203 0
180 203 0
184 205 0
183 204 0
182 204 0
184 205 0
181 203 0
181 203 0
182 204 0
181 203 0
180 202 0
181 203 0
180 203 0
182 204 0
182 204 0
182 204 0
182 204 0
181 203 0
181 203 0
183 204 0
182 204 0
180 202 0
182 204 0
182 204 0
183 204 0
180 201 0
182 204 0
183 204 0
179 202 0
180 203 0
182 204 0
182 204 0
181 203 0
182 204 0
183 204 0
178 201 0
182 204 0
179 202 0
182 204 0
182 204 0
182 204 0
181 203 0
181 203 0
181 203 0
183 204 0
183 204 0
182 203 0
182 204 0
181 203 0
182 204 0
182 204 0
183 204 0
182 204 0
182 204 0
183 204 0
181 203 0
182 204 0
180 203 0
180 203 0
183 204 0
183 204 0
182 204 0
182 204 0
181 202 0
183 204 0
181 203 0
182 204 0
183 204 0
180 202 0
182 204 0
182 204 0
181 203 0
182 203 0
182 204 0
181 203 0
182 204 0
180 202 0
181 203 0
182 204 0
182 203 0
183 204 0
181 203 0
182 204 0
180 202 0
181 203 0
180 201 0
180 203 0
181 203 0
180 202 0
179 201 0
179 201 0
175 197 0
181 203 0
181 203 0
179 202 0
183 204 0
181 203 0
182 203 0
181 202 0
179 201 0
178 200 0
179 201 0
181 203 0
179 202 0
181 203 0
179 201 0
180 203 0
182 204 0
182 204 0
182 204 0
181 203 0
184 204 0
182 204 0
179 201 0
180 202 0
182 204 0
180 202 0
182 203 0
183 204 0
179 201 0
174 198 0
181 203 0
181 203 0
180 201 0
182 204 0
181 203 0
181 203 0
182 204 0
182 204 0
183 204 0
179 201 0
178 201 0
180 202 0
178 200 0
180 203 0
180 201 0
180 202 0
181 202 0
180 202 0
180 202 0
179 201 0
179 201 0
180 201 0
181 202 0
182 204 0
181 202 0
181 203 0
182 204 0
180 202 0
183 204 0
185 205 0
180 202 0
178 201 0
179 200 0
177 200 0
179 201 0
180 203 0
179 201 0
177 199 0
182 204 0
182 203 0
176 199 0
179 201 0
181 202 0
180 203 0
179 201 0
181 201 0
177 198 0
181 202 0
178 200 0
176 197 0
179 200 0
181 203 0
182 204 0
175 198 0
178 200 0
175 196 0
172 193 0
181 202 0
182 204 0
183 203 0
179 201 0
181 201 0
183 204 0
179 199 0
176 198 0
182 204 0
179 201 0
179 200 0
182 204 0
174 197 0
178 200 0
172 195 0
177 199 0
177 199 0
177 200 0
177 200 0
178 200 0
179 200 0
181 203 0
178 200 0
179 201 0
180 201 0
175 198 0
177 200 0
185 205 0
179 201 0
180 202 0
183 203 0
177 199 0
182 203 0
180 202 0
176 198 0
172 194 0
179 200 0
176 198 0
182 204 38
182 204 38
182 204 56
181 203 69
186 206 69
187 207 89
187 207 80
185 206 89
181 203 56
184 206 80
185 206 89
184 206 89
184 206 89
182 204 80
184 205 69
183 206 89
183 204 69
183 205 80
183 204 56
182 204 97
185 207 97
185 207 111
184 206 97
182 203 0
181 203 38
184 205 56
184 205 56
181 203 69
182 204 56
184 206 97
184 206 97
184 205 69
185 206 80
182 204 97
185 207 111
185 206 56
181 202 56
183 205 69
182 203 56
185 206 69
180 203 56
181 203 97
183 204 0
175 196 48
183 204 80
177 199 56
183 204 38
178 199 38
179 200 25
180 202 80
181 202 69
180 202 48
178 200 48
183 204 84
181 203 80
179 201 56
184 204 84
182 203 89
184 205 80
183 205 69
181 201 75
181 203 63
174 195 56
181 202 25
181 202 0
177 200 0
180 202 0
176 198 0
179 201 0
172 194 0
171 193 0
180 201 0
176 197 0
178 200 0
175 197 0
180 202 0
181 203 0
177 199 0
176 198 0
177 200 0
179 202 0
172 194 0
176 199 0
171 194 0
180 202 0
178 200 0
180 201 0
178 199 0
185 205 0
182 204 0
181 202 0
181 203 0
182 204 0
181 203 0
180 202 0
178 200 0
179 201 0
181 202 0
178 200 0
178 200 0
176 199 0
181 202 0
182 203 0
181 202 0
179 200 0
181 203 0
180 201 0
179 201 0
180 202 0
184 204 0
180 202 0
182 204 0
183 204 0
181 202 0
179 202 0
181 203 0
181 202 0
180 201 0
182 204 0
180 203 0
180 202 0
179 201 0
181 203 0
182 204 0
181 202 0
183 204 0
183 204 0
181 203 0
183 204 0
181 203 0
183 204 0
183 204 0
181 202 0
181 203 0
179 201 0
184 205 0
179 201 0
181 203 0
181 203 0
181 203 0
183 204 0
182 204 0
183 204 0
183 203 0
180 202 0
179 201 0
182 204 0
182 203 0
181 203 0
181 203 0
180 203 0
183 204 0
181 203 0
183 204 0
183 204 0
182 204 0
179 201 0
181 203 0
182 203 0
182 204 0
181 203 0
182 204 0
182 204 0
182 204 0
183 204 0
181 202 0
181 202 0
181 202 0
179 201 0
182 204 0
182 204 0
183 204 0
182 204 0
182 204 0
180 202 0
181 203 0
181 203 0
181 203 0
182 204 0
182 204 0
179 202 0
181 202 0
182 204 0
181 203 0
180 203 0
180 202 0
180 203 0
184 205 0
180 202 0
182 204 0
183 204 0
182 204 0
181 203 0
182 204 0
180 202 0
183 204 0
182 203 0
182 204 0
180 202 0
183 204 0
182 204 0
179 202 0
181 203 0
182 204 0
179 202 0
184 205 0
182 204 0
184 205 0
183 204 0
182 204 0
183 204 0
183 204 0
181 203 0
181 203 0
181 203 0
181 203 0
182 204 0
182 204 0
183 204 0
182 204 0
179 202 0
180 201 0
179 202 0
181 203 0
182 204 0
181 203 0
180 202 0
180 201 0
185 205 0
182 204 0
181 203 0
183 204 0
180 202 0
180 202 0
182 203 0
183 204 0
183 204 0
182 202 0
182 204 0
183 204 0
182 204 0
182 203 0
180 202 0
180 203 0
182 204 0
181 203 0
179 201 0
182 204 0
182 204 0
182 204 0
179 201 0
180 202 0
182 204 0
182 204 0
180 203 0
180 202 0
183 204 0
180 202 0
180 203 0
182 204 0
181 203 0
181 203 0
181 203 0
180 203 0
182 204 0
182 204 0
180 203 0
180 202 0
183 204 0
180 203 0
180 202 0
181 203 0
179 202 0
181 203 0
181 203 0
181 203 0
181 203 0
182 203 0
180 202 0
180 202 0
182 204 0
181 203 0
182 204 0
180 201 0
184 205 0
180 202 0
181 203 0
181 203 0
181 203 0
179 201 0
182 204 0
181 203 0
184 205 0
181 203 0
181 203 0
182 204 0
179 202 0
182 203 0
183 204 0
182 204 0
181 202 0
182 203 0
182 204 0
183 204 0
176 199 0
177 200 0
182 204 0
180 201 0
182 204 0
182 204 0
183 203 0
178 200 0
181 203 0
183 204 0
181 203 0
179 201 0
179 201 0
180 202 0
182 204 0
179 200 0
178 200 0
180 202 0
182 204 0
180 202 0
180 202 0
176 199 0
182 204 0
180 203 0
178 199 0
181 202 0
178 200 0
179 200 0
178 200 0
178 200 0
181 203 0
178 201 0
177 200 0
180 203 0
182 204 0
179 201 0
179 202 0
177 200 0
181 202 0
179 201 0
178 201 0
175 196 0
178 200 0
175 197 0
177 199 0
179 200 0
180 203 0
177 199 0
178 201 0
178 199 0
179 200 0
178 200 0
180 201 0
175 197 0
178 199 0
181 202 0
182 204 0
177 200 0
180 202 0
180 200 0
183 204 0
175 197 0
176 199 0
179 200 0
181 202 0
171 195 0
176 197 0
180 201 0
178 200 0
179 201 0
176 198 0
179 200 0
182 203 0
179 200 0
182 204 0
178 199 0
183 204 0
177 198 0
177 198 0
177 199 0
180 202 0
179 200 0
175 197 0
179 201 0
179 200 0
180 200 0
177 199 0
181 203 0
180 201 0
181 203 0
183 204 0
180 202 0
180 201 0
182 204 0
181 203 0
175 197 0
182 203 0
182 203 0
183 204 69
183 205 69
182 204 69
187 208 104
186 207 80
185 206 89
184 205 69
184 205 69
186 207 97
185 206 80
184 205 69
187 208 111
182 204 56
181 203 56
183 205 38
184 206 97
183 205 80
183 205 69
182 205 89
183 205 80
184 206 97
182 204 97
183 204 38
181 203 97
183 204 56
181 204 80
182 204 80
181 203 89
182 204 80
180 202 80
185 206 89
183 205 69
183 206 97
184 205 80
182 204 56
184 206 80
182 204 69
185 207 89
182 205 89
179 201 38
181 203 84
181 202 38
176 199 56
177 200 75
182 203 48
176 197 56
180 202 25
181 202 75
179 201 75
178 200 69
180 201 63
177 199 84
179 200 80
181 202 0
184 205 80
183 204 38
181 202 63
185 205 93
183 203 69
178 200 38
178 199 56
180 202 25
178 199 38
182 203 0
178 199 0
176 198 0
183 204 0
182 204 0
181 202 0
179 200 0
177 198 0
177 199 0
181 203 0
179 201 0
176 197 0
178 200 0
182 203 0
172 194 0
175 197 0
180 200 0
181 203 0
176 199 0
180 202 0
177 200 0
180 202 0
179 201 0
179 200 0
182 204 0
180 202 0
178 200 0
178 199 0
182 204 0
180 202 0
181 202 0
180 203 0
181 203 0
182 204 0
177 199 0
177 198 0
180 201 0
179 202 0
182 204 0
180 202 0
184 205 0
180 200 0
181 203 0
180 202 0
179 201 0
177 199 0
182 204 0
181 203 0
179 202 0
178 200 0
184 205 0
180 202 0
181 202 0
183 204 0
178 200 0
176 198 0
177 200 0
181 203 0
181 203 0
179 202 0
181 203 0
181 202 0
180 201 0
179 202 0
180 202 0
182 203 0
183 204 0
183 204 0
181 203 0
181 203 0
180 201 0
180 203 0
180 202 0
182 203 0
182 204 0
181 203 0
182 204 0
181 203 0
182 204 0
182 203 0
180 202 0
182 204 0
186 206 0
180 202 0
183 204 0
183 204 0
186 206 0
181 201 0
182 203 0
180 203 0
182 203 0
183 204 0
183 204 0
182 204 0
179 202 0
182 204 0
181 203 0
182 204 0
180 203 0
185 205 0
182 204 0
182 204 0
184 205 0
180 202 0
182 204 0
181 203 0
183 204 0
182 204 0
182 204 0
178 200 0
175 197 0
180 201 0
181 203 0
182 204 0
183 204 0
183 204 0
183 204 0
183 204 0
183 204 0
183 204 0
182 204 0
180 203 0
181 203 0
182 203 0
182 204 0
182 204 0
182 204 0
184 205 0
181 203 0
182 204 0
180 202 0
183 204 0
183 204 0
185 205 0
180 202 0
182 203 0
184 205 0
181 203 0
182 204 0
180 202 0
183 203 0
179 201 0
184 205 0
180 203 0
181 203 0
184 205 0
181 203 0
182 204 0
182 204 0
181 203 0
182 204 0
183 204 0
181 203 0
177 199 0
185 205 0
179 202 0
181 203 0
181 203 0
181 203 0
182 204 0
181 203 0
183 204 0
183 204 0
183 203 0
180 203 0
179 202 0
180 201 0
181 203 0
184 205 0
180 202 0
180 202 0
182 204 0
180 203 0
180 202 0
180 203 0
183 204 0
182 204 0
182 204 0
181 203 0
182 204 0
180 202 0
184 205 0
182 204 0
179 201 0
182 203 0
182 203 0
182 204 0
179 200 0
179 201 0
181 203 0
183 204 0
183 204 0
181 203 0
182 204 0
180 202 0
181 203 0
183 204 0
182 204 0
181 203 0
183 204 0
181 203 0
181 203 0
182 204 0
178 200 0
181 203 0
183 204 0
180 203 0
181 203 0
179 202 0
180 202 0
180 202 0
182 203 0
183 204 0
180 203 0
183 204 0
180 202 0
181 203 0
182 203 0
180 203 0
182 204 0
182 204 0
182 203 0
181 202 0
183 204 0
180 202 0
181 203 0
182 203 0
180 201 0
180 203 0
183 204 0
181 202 0
184 205 0
182 203 0
180 202 0
182 204 0
183 204 0
179 201 0
179 200 0
181 203 0
180 202 0
181 202 0
182 204 0
179 200 0
183 204 0
179 200 0
178 201 0
180 200 0
179 201 0
182 204 0
183 204 0
181 203 0
177 200 0
173 195 0
182 203 0
179 200 0
180 202 0
179 200 0
177 198 0
180 202 0
177 200 0
181 202 0
181 202 0
182 204 0
179 201 0
180 202 0
183 204 0
181 202 0
177 199 0
176 198 0
182 204 0
178 201 0
182 203 0
179 202 0
183 203 0
181 202 0
180 202 0
177 200 0
180 203 0
176 198 0
179 201 0
179 201 0
180 201 0
179 201 0
176 198 0
178 200 0
182 203 0
173 196 0
177 199 0
181 202 0
177 198 0
180 203 0
171 193 0
178 200 0
178 200 0
178 200 0
176 199 0
181 202 0
176 198 0
178 200 0
177 199 0
179 200 0
182 204 0
172 195 0
178 199 0
177 199 0
179 201 0
179 201 0
178 199 0
177 199 0
178 201 0
179 201 0
180 201 0
181 201 0
182 204 0
177 199 0
176 199 0
177 199 0
183 204 0
177 199 0
176 198 0
180 201 0
173 195 0
183 203 0
177 198 0
173 193 0
175 198 0
173 194 0
179 200 0
180 202 0
183 203 0
178 199 0
180 201 0
182 203 0
180 201 0
181 202 56
180 202 0
182 204 56
183 204 69
181 203 38
183 205 69
183 204 56
188 208 89
183 204 69
182 204 56
186 207 97
184 205 69
184 205 38
185 207 104
188 208 97
182 205 80
184 205 69
182 203 56
183 205 69
185 206 80
185 207 104
182 204 97
184 206 89
183 205 80
183 205 97
185 206 69
184 205 80
183 205 97
184 206 80
184 205 56
182 205 80
183 204 38
183 205 56
184 206 80
183 205 80
181 203 69
183 205 69
179 201 69
184 207 104
183 205 89
184 206 80
185 206 89
180 202 63
177 200 0
177 199 56
181 203 69
182 204 97
176 199 48
183 204 80
183 204 56
181 203 89
182 204 75
177 199 75
181 202 48
185 206 93
176 198 69
181 201 38
181 203 56
182 203 63
181 202 63
188 208 97
183 203 84
178 200 75
181 202 0
178 199 48
177 199 25
174 196 38
179 200 0
173 196 0
183 203 0
178 200 0
178 200 0
180 202 0
179 200 0
176 198 0
176 198 0
176 198 0
182 203 0
177 199 0
181 203 0
180 202 0
173 196 0
175 197 0
178 200 0
181 202 0
182 204 0
178 199 0
179 200 0
174 196 0
181 203 0
175 196 0
179 202 0
183 204 0
180 202 0
181 203 0
178 200 0
181 202 0
181 203 0
180 203 0
176 197 0
181 203 0
179 201 0
184 205 0
177 198 0
181 203 0
181 203 0
180 203 0
180 203 0
177 199 0
180 203 0
182 203 0
178 200 0
183 204 0
179 201 0
185 205 0
177 200 0
182 203 0
181 203 0
177 199 0
182 204 0
182 204 0
179 202 0
180 203 0
182 204 0
181 203 0
181 202 0
183 204 0
182 204 0
181 203 0
179 201 0
177 200 0
183 204 0
180 203 0
180 201 0
178 201 0
183 204 0
180 202 0
181 202 0
182 204 0
181 202 0
180 202 0
184 204 0
180 203 0
180 202 0
181 203 0
182 204 0
183 204 0
183 204 0
179 201 0
181 203 0
183 204 0
181 202 0
181 203 0
180 202 0
179 201 0
182 204 0
181 203 0
180 202 0
181 202 0
182 204 0
182 204 0
181 203 0
182 204 0
182 204 0
180 202 0
185 205 0
182 204 0
177 200 0
183 203 0
181 203 0
184 205 0
183 204 0
181 203 0
183 204 0
179 202 0
182 204 0
180 201 0
181 203 0
180 203 0
184 205 0
181 203 0
179 202 0
182 203 0
182 204 0
176 199 0
181 203 0
181 202 0
182 204 0
182 203 0
183 204 0
182 204 0
181 202 0
184 205 0
183 204 0
183 204 0
180 202 0
184 205 0
181 203 0
182 204 0
184 205 0
185 205 0
181 203 0
181 203 0
183 204 0
182 204 0
180 203 0
179 202 0
181 203 0
182 204 0
182 204 0
180 203 0
181 203 0
182 204 0
183 204 0
182 203 0
182 204 0
185 205 0
184 205 0
181 203 0
181 203 0
183 204 0
183 204 0
181 203 0
182 204 0
182 204 0
182 204 0
181 203 0
182 204 0
181 203 0
181 202 0
183 204 0
183 204 0
183 204 0
182 204 0
182 204 0
183 204 0
183 204 0
182 204 0
180 202 0
182 204 0
183 204 0
180 202 0
182 204 0
181 203 0
182 203 0
182 204 0
181 203 0
181 203 0
181 203 0
181 202 0
183 204 0
181 203 0
179 201 0
180 202 0
182 204 0
181 202 0
183 204 0
183 204 0
181 202 0
180 202 0
183 204 0
182 204 0
180 202 0
183 204 0
182 204 0
180 202 0
183 204 0
183 204 0
178 200 0
181 202 0
180 203 0
181 203 0
180 203 0
180 203 0
180 202 0
184 205 0
182 204 0
182 204 0
182 204 0
181 202 0
181 203 0
183 204 0
181 203 0
183 204 0
180 202 0
182 204 0
180 202 0
182 203 0
178 201 0
183 204 0
180 202 0
182 203 0
178 201 0
181 203 0
176 198 0
181 203 0
185 205 0
181 203 0
179 201 0
181 203 0
182 204 0
179 201 0
183 204 0
182 204 0
182 203 0
178 200 0
180 203 0
179 201 0
180 203 0
182 204 0
179 201 0
178 200 0
183 204 0
177 199 0
179 201 0
179 202 0
178 201 0
181 202 0
185 205 0
180 202 0
181 203 0
182 204 0
180 202 0
179 201 0
181 203 0
178 200 0
178 200 0
181 202 0
180 202 0
177 199 0
181 203 0
181 203 0
182 204 0
177 199 0
174 196 0
176 199 0
180 201 0
173 196 0
178 200 0
180 202 0
178 200 0
182 204 0
175 197 0
181 203 0
176 198 0
181 202 0
180 202 0
179 202 0
180 201 0
180 201 0
179 201 0
176 197 0
178 199 0
178 199 0
180 202 0
181 202 0
179 201 0
179 201 0
175 197 0
180 201 0
180 202 0
179 202 0
180 200 0
181 202 0
175 196 0
178 199 0
179 201 0
174 197 0
177 199 0
176 197 0
183 203 0
179 200 0
178 200 0
179 200 0
175 197 0
179 201 0
181 202 0
177 199 0
183 204 0
180 201 0
178 200 0
180 202 0
172 194 0
173 195 0
181 203 0
181 203 0
174 196 0
179 199 0
181 201 0
180 202 0
177 199 0
178 199 0
179 200 0
178 199 0
178 200 0
183 204 0
177 200 0
180 201 0
177 199 0
180 202 0
181 202 69
183 204 56
183 205 56
182 203 69
181 203 0
184 205 56
183 205 80
184 205 69
187 207 89
185 206 89
186 206 80
185 206 69
185 206 80
182 203 56
184 205 80
187 208 104
187 207 89
184 206 69
184 205 69
183 205 104
182 205 80
182 204 69
182 203 38
182 204 80
184 205 56
184 206 97
184 206 97
181 203 89
182 204 56
184 205 80
181 204 69
184 206 89
183 204 89
182 204 69
184 205 80
183 205 69
183 205 80
183 205 69
183 205 56
184 206 89
182 203 48
184 206 80
183 205 89
183 204 48
174 197 48
179 201 56
184 205 126
181 203 84
181 202 56
179 201 56
180 202 38
183 205 80
177 199 63
179 201 69
182 204 69
180 200 75
184 206 69
182 203 84
177 199 48
185 206 56
186 206 89
181 202 69
182 204 56
181 203 25
174 195 48
183 204 0
177 199 0
172 194 0
180 202 0
180 202 0
182 202 0
177 200 0
176 198 0
181 202 0
180 202 0
179 202 0
177 198 0
179 201 0
176 198 0
179 201 0
180 202 0
176 199 0
182 203 0
178 201 0
180 202 0
182 204 0
180 201 0
180 202 0
179 201 0
181 202 0
180 201 0
181 203 0
176 198 0
177 198 0
175 197 0
181 202 0
181 202 0
181 202 0
183 203 0
181 203 0
180 203 0
182 203 0
180 201 0
178 200 0
183 204 0
181 202 0
177 200 0
178 200 0
178 200 0
180 201 0
179 201 0
181 202 0
178 200 0
182 203 0
180 202 0
182 203 0
181 203 0
179 201 0
183 204 0
176 199 0
184 205 0
183 204 0
180 202 0
183 204 0
182 204 0
180 203 0
181 202 0
178 201 0
179 202 0
181 203 0
178 200 0
182 204 0
181 202 0
181 203 0
182 203 0
179 202 0
181 202 0
183 204 0
179 201 0
181 202 0
180 202 0
181 203 0
181 203 0
179 202 0
180 202 0
182 204 0
177 200 0
184 205 0
182 203 0
180 202 0
181 203 0
179 202 0
180 202 0
184 205 0
180 202 0
183 204 0
177 200 0
179 201 0
182 204 0
184 205 0
181 203 0
180 203 0
181 203 0
183 204 0
182 204 0
182 204 0
183 204 0
182 204 0
182 204 0
182 204 0
182 204 0
184 204 0
181 203 0
182 204 0
180 202 0
180 202 0
183 204 0
183 204 0
181 203 0
180 202 0
180 202 0
181 203 0
181 203 0
182 204 0
182 204 0
181 203 0
181 203 0
182 203 0
183 204 0
185 205 0
180 203 0
183 204 0
184 205 0
182 204 0
183 204 0
180 203 0
183 204 0
185 205 0
180 203 0
182 204 0
183 204 0
181 203 0
180 203 0
182 204 0
183 204 0
182 204 0
179 202 0
181 203 0
185 205 0
182 204 0
181 203 0
182 204 0
184 205 0
182 204 0
182 204 0
184 205 0
181 203 0
180 203 0
184 204 0
180 203 0
180 202 0
181 203 0
178 201 0
180 203 0
183 204 0
182 204 0
181 203 0
182 204 0
181 203 0
184 205 0
183 204 0
181 203 0
181 203 0
181 203 0
182 204 0
183 204 0
183 204 0
182 204 0
181 202 0
183 204 0
180 202 0
178 199 0
183 203 0
180 202 0
181 203 0
182 204 0
183 204 0
180 203 0
182 204 0
183 204 0
181 203 0
180 201 0
180 203 0
180 202 0
181 203 0
184 205 0
181 202 0
180 202 0
181 203 0
183 204 0
182 203 0
182 204 0
182 203 0
181 203 0
181 203 0
181 203 0
180 202 0
182 204 0
183 204 0
180 201 0
185 205 0
184 205 0
180 202 0
181 203 0
180 202 0
183 204 0
179 202 0
180 203 0
181 203 0
181 203 0
182 203 0
181 203 0
180 203 0
182 204 0
183 204 0
181 202 0
183 204 0
176 199 0
181 203 0
182 203 0
181 203 0
181 203 0
184 205 0
183 204 0
180 202 0
179 201 0
180 201 0
181 203 0
178 200 0
179 201 0
180 202 0
183 204 0
182 204 0
179 201 0
183 204 0
182 203 0
177 199 0
181 203 0
182 203 0
183 204 0
180 202 0
180 202 0
180 201 0
178 200 0
181 202 0
174 198 0
182 203 0
182 204 0
181 203 0
182 203 0
176 198 0
178 200 0
181 203 0
180 202 0
181 202 0
177 199 0
177 200 0
180 201 0
180 201 0
176 198 0
182 203 0
181 202 0
180 202 0
182 203 0
178 200 0
179 202 0
177 200 0
181 202 0
180 201 0
177 200 0
177 199 0
179 202 0
177 199 0
178 199 0
182 203 0
179 201 0
177 199 0
174 197 0
175 196 0
177 200 0
178 200 0
177 200 0
178 200 0
182 203 0
177 199 0
179 201 0
175 197 0
181 203 0
178 201 0
181 202 0
179 201 0
181 202 0
178 199 0
177 198 0
178 199 0
176 198 0
178 199 0
177 200 0
183 204 0
174 197 0
177 199 0
178 199 0
181 203 0
177 198 0
179 201 0
177 199 0
180 202 0
179 200 0
177 199 0
179 199 0
176 198 0
175 197 0
179 201 0
179 200 0
177 200 0
175 196 0
176 198 0
179 201 0
181 202 0
183 204 0
175 197 0
172 195 0
177 199 0
183 204 0
177 198 0
176 198 0
179 200 0
174 197 0
181 202 0
180 202 0
183 204 56
181 201 38
183 204 38
180 202 0
182 205 69
182 203 0
184 205 56
185 205 89
185 207 97
185 206 69
185 206 89
183 205 56
184 205 69
184 205 69
182 204 56
185 206 69
183 204 56
182 204 69
180 201 0
181 204 69
184 206 97
184 205 89
183 204 56
184 206 97
181 203 80
186 207 97
185 206 69
184 205 69
184 205 56
185 206 89
185 206 89
185 205 56
183 205 89
182 205 89
185 207 124
182 204 97
181 203 89
182 204 97
184 205 56
182 204 0
182 204 69
183 205 89
183 205 69
185 206 93
183 205 80
182 203 80
180 202 63
182 203 48
184 205 80
182 203 63
183 204 0
181 203 84
182 203 48
182 204 56
175 196 80
176 198 63
180 202 25
184 205 84
179 200 63
179 200 104
176 198 38
177 199 93
184 205 75
180 201 0
175 197 48
179 201 0
182 203 0
181 202 0
184 205 0
181 202 0
178 199 0
180 201 0
181 203 0
180 201 0
175 198 0
181 203 0
179 201 0
180 202 0
180 202 0
181 202 0
180 201 0
180 201 0
182 204 0
177 199 0
178 201 0
180 201 0
180 201 0
179 201 0
176 199 0
179 201 0
180 202 0
181 203 0
183 204 0
178 201 0
179 201 0
178 200 0
180 202 0
175 197 0
171 194 0
181 202 0
177 199 0
183 204 0
176 198 0
179 201 0
181 202 0
178 200 0
181 203 0
181 203 0
179 201 0
178 201 0
181 203 0
179 202 0
179 201 0
178 200 0
183 204 0
180 202 0
180 202 0
179 201 0
180 202 0
182 203 0
182 204 0
181 203 0
183 204 0
182 204 0
183 204 0
181 203 0
181 202 0
180 203 0
180 201 0
182 204 0
182 204 0
181 203 0
182 203 0
180 203 0
181 203 0
181 203 0
182 204 0
180 202 0
182 203 0
182 204 0
181 202 0
182 204 0
184 205 0
180 202 0
180 202 0
182 204 0
179 202 0
184 205 0
181 202 0
182 204 0
181 202 0
182 204 0
181 203 0
182 203 0
180 202 0
183 204 0
180 202 0
179 201 0
182 203 0
183 204 0
181 202 0
182 204 0
182 203 0
180 203 0
183 204 0
183 204 0
182 204 0
179 200 0
181 203 0
183 204 0
180 202 0
182 203 0
181 203 0
183 204 0
180 202 0
181 203 0
181 203 0
181 203 0
181 203 0
178 201 0
182 204 0
181 202 0
180 202 0
184 205 0
183 204 0
182 204 0
183 204 0
182 204 0
182 203 0
181 203 0
181 203 0
183 204 0
181 203 0
184 205 0
182 203 0
181 203 0
181 203 0
183 204 0
178 201 0
183 204 0
183 204 0
180 203 0
180 203 0
182 204 0
183 204 0
181 203 0
182 204 0
180 202 0
182 204 0
180 202 0
182 204 0
184 204 0
182 203 0
183 204 0
180 202 0
180 203 0
184 205 0
181 203 0
184 205 0
181 203 0
181 203 0
180 203 0
182 204 0
183 204 0
182 204 0
179 201 0
183 204 0
179 202 0
183 204 0
180 203 0
180 202 0
181 203 0
183 204 0
177 200 0
182 204 0
183 204 0
181 203 0
183 204 0
183 204 0
181 203 0
181 202 0
182 204 0
184 205 0
180 203 0
182 204 0
183 204 0
182 204 0
181 202 0
180 202 0
181 203 0
184 205 0
177 199 0
179 202 0
181 202 0
181 203 0
182 204 0
183 204 0
180 202 0
182 204 0
181 203 0
179 202 0
179 201 0
180 202 0
180 202 0
179 201 0
180 202 0
183 204 0
180 202 0
178 201 0
180 202 0
182 203 0
181 203 0
179 201 0
180 202 0
182 204 0
180 202 0
183 204 0
182 204 0
177 200 0
181 203 0
182 203 0
182 204 0
178 200 0
182 204 0
182 204 0
182 203 0
182 204 0
180 201 0
181 203 0
181 202 0
181 203 0
182 204 0
179 201 0
178 199 0
176 198 0
183 204 0
181 203 0
184 205 0
182 204 0
181 202 0
177 200 0
180 202 0
175 197 0
182 204 0
177 200 0
181 203 0
183 204 0
174 196 0
179 202 0
183 204 0
183 204 0
181 203 0
184 204 0
181 203 0
181 203 0
180 202 0
181 203 0
182 203 0
179 200 0
177 200 0
177 199 0
184 205 0
176 198 0
178 199 0
179 200 0
179 200 0
182 204 0
178 200 0
178 201 0
181 203 0
180 201 0
180 201 0
182 203 0
180 203 0
179 201 0
179 201 0
177 199 0
175 198 0
181 202 0
182 203 0
181 202 0
179 201 0
176 199 0
180 201 0
182 204 0
181 202 0
182 203 0
181 203 0
179 201 0
180 201 0
181 203 0
176 198 0
172 194 0
180 202 0
177 199 0
177 199 0
181 202 0
175 198 0
177 200 0
179 202 0
181 202 0
174 196 0
171 193 0
180 202 0
181 202 0
183 204 0
178 199 0
172 195 0
178 199 0
175 196 0
175 198 0
173 195 0
180 202 0
178 199 0
171 193 0
177 199 0
176 198 0
177 198 0
178 201 0
176 198 0
177 199 0
179 200 0
179 201 0
170 191 0
176 197 0
173 195 0
179 201 0
177 198 0
175 197 0
181 202 0
179 200 0
179 201 0
178 200 0
177 199 0
178 200 0
181 201 0
172 193 0
184 205 0
180 202 0
182 203 0
181 202 38
183 204 38
181 202 56
183 204 0
181 203 56
182 205 69
184 205 56
183 205 56
184 205 56
181 203 0
184 206 80
184 205 80
184 205 56
185 206 89
182 205 69
184 205 69
183 205 69
184 206 80
185 206 89
185 206 89
182 203 69
182 204 69
181 203 69
185 206 69
182 204 56
183 205 97
184 206 80
182 204 69
184 205 38
182 204 69
184 205 56
183 204 69
182 204 69
183 205 80
184 206 104
183 204 56
183 205 89
183 205 69
183 205 80
185 207 97
181 204 56
184 206 80
183 204 56
185 205 56
183 205 56
182 204 69
175 197 56
179 201 63
182 203 69
179 201 48
181 202 69
178 200 25
179 201 38
182 204 89
181 202 69
182 203 75
177 199 38
180 201 80
180 201 48
181 202 63
182 203 0
176 198 56
181 202 69
175 196 38
177 199 48
179 201 0
181 202 0
174 196 0
178 200 0
180 202 0
179 200 0
175 197 0
180 202 0
179 201 0
178 199 0
179 201 0
179 200 0
178 200 0
180 202 0
179 201 0
175 199 0
175 198 0
177 199 0
178 200 0
178 200 0
175 197 0
182 202 0
182 203 0
181 202 0
179 202 0
176 198 0
182 204 0
181 202 0
181 203 0
181 203 0
176 198 0
174 197 0
181 203 0
181 203 0
181 203 0
181 202 0
181 202 0
181 202 0
181 203 0
181 202 0
176 198 0
178 200 0
182 204 0
178 200 0
180 202 0
179 202 0
181 202 0
182 204 0
183 204 0
177 199 0
180 202 0
183 204 0
180 202 0
181 202 0
182 204 0
185 205 0
180 203 0
182 204 0
180 202 0
180 202 0
181 203 0
181 203 0
179 201 0
181 203 0
180 202 0
180 202 0
184 205 0
182 202 0
182 204 0
179 201 0
181 203 0
182 203 0
181 203 0
178 200 0
178 200 0
182 203 0
182 204 0
181 203 0
183 204 0
182 203 0
179 202 0
181 203 0
182 203 0
184 205 0
181 203 0
182 204 0
182 204 0
183 204 0
181 203 0
183 204 0
178 200 0
180 203 0
182 204 0
181 203 0
180 203 0
180 202 0
182 204 0
180 203 0
182 204 0
180 202 0
182 203 0
181 203 0
181 203 0
182 204 0
181 203 0
183 204 0
181 203 0
180 202 0
180 203 0
182 204 0
182 204 0
183 204 0
182 204 0
181 202 0
182 204 0
184 205 0
183 204 0
183 204 0
183 203 0
182 204 0
183 204 0
181 203 0
180 203 0
181 203 0
181 203 0
184 204 0
181 203 0
182 204 0
180 203 0
182 204 0
182 203 0
181 202 0
180 203 0
183 204 0
182 204 0
182 204 0
179 202 0
181 203 0
181 203 0
181 203 0
181 203 0
181 203 0
181 203 0
181 203 0
181 203 0
182 204 0
177 201 0
183 204 0
185 205 0
183 204 0
182 204 0
180 203 0
182 203 0
180 202 0
179 201 0
183 204 0
181 203 0
185 205 0
181 203 0
181 203 0
182 204 0
182 204 0
182 204 0
179 201 0
183 204 0
184 205 0
180 202 0
179 201 0
182 204 0
184 205 0
180 203 0
183 204 0
182 203 0
183 204 0
183 204 0
182 204 0
180 202 0
180 202 0
177 200 0
182 203 0
179 202 0
182 204 0
184 205 0
182 204 0
180 202 0
184 205 0
182 203 0
181 203 0
181 203 0
181 203 0
181 203 0
180 202 0
185 205 0
182 204 0
182 204 0
182 203 0
182 204 0
181 203 0
181 203 0
179 201 0
180 203 0
181 202 0
183 204 0
181 203 0
181 203 0
177 201 0
180 203 0
183 204 0
182 204 0
183 204 0
180 203 0
182 204 0
181 203 0
179 202 0
181 203 0
182 204 0
181 202 0
178 201 0
182 204 0
181 203 0
177 199 0
180 203 0
183 204 0
179 201 0
183 204 0
182 204 0
182 204 0
181 203 0
182 203 0
182 204 0
179 201 0
181 203 0
183 204 0
180 202 0
179 201 0
185 205 0
181 202 0
181 203 0
178 200 0
180 201 0
182 204 0
180 202 0
178 201 0
181 203 0
183 204 0
177 199 0
178 200 0
182 203 0
178 199 0
178 200 0
177 199 0
181 203 0
178 200 0
180 201 0
177 199 0
175 197 0
179 202 0
179 201 0
177 199 0
181 203 0
176 198 0
182 204 0
178 201 0
181 203 0
180 201 0
181 203 0
180 202 0
175 197 0
174 197 0
181 203 0
181 202 0
180 201 0
182 204 0
177 199 0
176 199 0
177 200 0
184 205 0
173 195 0
180 202 0
179 201 0
181 202 0
179 201 0
180 203 0
179 202 0
173 195 0
180 202 0
175 198 0
180 201 0
177 199 0
176 198 0
178 199 0
177 199 0
173 195 0
177 197 0
173 196 0
180 202 0
177 197 0
178 200 0
175 198 0
181 202 0
179 200 0
178 200 0
178 199 0
175 197 0
174 197 0
175 198 0
176 199 0
173 194 0
179 201 0
176 198 0
175 198 0
177 199 0
174 196 0
180 202 0
182 204 0
178 199 0
179 201 0
176 198 0
173 194 0
180 200 0
176 198 0
177 198 0
178 199 0
178 200 0
177 199 0
180 201 0
183 204 0
175 197 0
179 200 0
180 200 0
179 200 0
181 203 0
177 199 0
181 201 0
179 200 38
182 204 69
181 203 69
182 204 69
181 203 56
185 205 56
184 205 56
188 208 89
184 205 69
186 208 104
184 205 56
184 205 56
185 206 89
187 207 80
181 203 69
186 207 80
187 207 97
187 208 118
180 201 56
186 206 80
185 206 69
181 204 80
183 204 38
182 203 56
184 206 80
183 204 69
181 203 89
182 204 56
180 202 80
183 204 69
181 203 80
183 205 69
184 205 56
184 206 89
184 205 56
183 204 69
185 206 69
184 206 80
182 205 69
184 205 89
185 206 97
180 202 56
184 205 69
183 204 69
187 208 97
185 206 80
185 206 56
184 205 56
178 202 80
177 199 69
180 201 80
180 203 56
183 205 56
183 204 56
183 204 80
177 198 63
176 198 25
179 200 38
182 204 69
182 202 101
183 203 75
180 202 48
177 198 38
190 209 104
178 199 25
178 200 25
178 201 25
176 197 38
179 201 0
175 198 0
180 202 0
179 200 0
178 200 0
181 202 0
180 201 0
177 199 0
181 202 0
178 199 0
178 200 0
178 200 0
175 197 0
180 202 0
181 202 0
180 202 0
181 203 0
178 200 0
184 205 0
182 203 0
180 201 0
177 200 0
180 202 0
174 197 0
175 198 0
182 204 0
180 202 0
181 203 0
180 200 0
182 203 0
179 201 0
184 205 0
181 203 0
182 203 0
181 203 0
184 205 0
179 201 0
177 200 0
183 204 0
180 202 0
180 202 0
180 202 0
179 201 0
180 202 0
183 204 0
180 202 0
181 203 0
182 204 0
180 203 0
180 201 0
184 204 0
181 203 0
181 203 0
179 201 0
181 202 0
180 203 0
180 202 0
182 203 0
182 204 0
179 202 0
182 203 0
182 204 0
182 204 0
182 204 0
182 203 0
180 203 0
179 200 0
179 201 0
181 203 0
180 202 0
183 204 0
181 203 0
179 202 0
183 204 0
181 203 0
181 203 0
182 204 0
182 204 0
180 202 0
181 203 0
180 202 0
182 204 0
184 205 0
181 203 0
177 200 0
180 202 0
179 201 0
183 204 0
183 204 0
181 203 0
180 202 0
180 203 0
181 203 0
182 204 0
181 203 0
181 203 0
181 202 0
182 204 0
181 203 0
183 204 0
182 204 0
182 204 0
182 203 0
182 204 0
181 203 0
182 204 0
180 202 0
180 203 0
180 202 0
181 203 0
184 205 0
182 204 0
182 204 0
183 204 0
183 204 0
181 203 0
181 203 0
183 204 0
181 203 0
183 203 0
180 203 0
181 203 0
183 204 0
183 204 0
180 202 0
182 204 0
181 203 0
181 203 0
181 203 0
181 203 0
181 203 0
180 203 0
182 204 0
180 203 0
182 204 0
181 203 0
182 204 0
181 202 0
181 203 0
184 205 0
183 204 0
182 203 0
183 204 0
181 203 0
182 204 0
182 204 0
181 203 0
182 204 0
181 203 0
182 204 0
181 203 0
182 204 0
183 204 0
181 203 0
183 204 0
180 203 0
181 203 0
180 203 0
181 203 0
183 204 0
184 205 0
180 203 0
181 203 0
182 204 0
182 203 0
180 202 0
182 204 0
182 204 0
181 203 0
179 202 0
183 204 0
182 204 0
184 205 0
182 203 0
181 203 0
181 203 0
181 203 0
183 204 0
184 205 0
180 202 0
182 204 0
182 204 0
181 203 0
179 202 0
181 203 0
181 203 0
182 203 0
181 203 0
181 203 0
180 203 0
181 203 0
183 204 0
183 204 0
181 203 0
180 203 0
181 203 0
183 204 0
184 205 0
181 203 0
178 200 0
181 203 0
181 203 0
181 203 0
180 203 0
182 203 0
182 203 0
182 203 0
183 204 0
181 203 0
183 204 0
183 204 0
180 203 0
180 202 0
180 202 0
184 205 0
181 203 0
182 204 0
178 201 0
183 204 0
182 204 0
179 201 0
180 203 0
181 203 0
180 202 0
181 203 0
180 203 0
177 198 0
180 203 0
179 201 0
181 202 0
177 200 0
182 203 0
181 203 0
181 203 0
179 202 0
181 203 0
175 198 0
177 199 0
181 203 0
179 201 0
181 203 0
180 202 0
181 203 0
182 203 0
182 204 0
178 199 0
182 203 0
181 202 0
179 201 0
180 202 0
178 201 0
184 205 0
182 203 0
181 202 0
181 203 0
179 200 0
182 203 0
179 200 0
178 200 0
182 204 0
179 201 0
180 201 0
179 202 0
182 203 0
181 203 0
179 200 0
181 203 0
175 197 0
180 202 0
178 200 0
175 198 0
177 198 0
179 200 0
178 200 0
181 203 0
177 200 0
179 201 0
180 202 0
178 200 0
174 196 0
181 202 0
178 200 0
175 197 0
181 203 0
176 198 0
175 197 0
174 197 0
181 203 0
180 201 0
172 195 0
178 200 0
178 200 0
178 200 0
182 203 0
182 203 0
180 203 0
181 203 0
178 199 0
174 195 0
180 201 0
178 200 0
181 202 0
181 202 0
177 199 0
176 198 0
175 197 0
179 200 0
180 202 0
178 200 0
175 196 0
181 202 0
174 196 0
174 196 0
171 193 0
178 200 0
179 201 0
181 202 0
177 200 0
180 201 0
175 197 0
174 196 0
180 201 0
179 201 0
180 201 0
180 201 0
180 200 0
177 199 0
177 199 0
178 199 0
175 197 0
176 198 0
181 202 0
182 203 38
181 201 56
183 204 38
181 203 0
183 204 56
181 203 38
182 204 56
183 204 38
185 206 89
183 205 80
185 206 69
185 206 69
182 204 80
181 202 38
181 204 69
182 203 97
183 204 38
184 205 38
186 207 80
186 207 104
184 205 89
184 206 97
183 205 80
183 205 80
181 203 38
182 204 89
183 204 38
182 204 56
181 203 69
182 204 38
180 202 69
182 204 38
182 205 80
184 206 97
184 206 80
185 206 97
183 205 69
183 205 69
181 203 89
183 205 80
183 205 89
184 206 69
184 206 97
183 205 56
184 206 89
186 206 80
184 204 80
182 203 48
180 202 69
179 201 63
177 199 38
176 198 75
178 200 63
183 205 69
176 198 80
180 202 56
176 198 48
182 203 80
181 202 80
184 205 84
180 201 38
179 201 63
179 200 80
181 202 0
180 202 38
178 200 0
179 201 25
175 197 38
180 202 0
180 201 0
181 202 0
178 200 0
179 200 0
182 202 0
182 204 0
180 202 0
181 202 0
180 201 0
182 203 0
177 199 0
182 203 0
179 201 0
179 202 0
181 202 0
176 198 0
178 200 0
182 203 0
180 201 0
180 202 0
183 204 0
177 199 0
182 204 0
180 202 0
180 201 0
178 200 0
183 204 0
180 201 0
176 198 0
180 202 0
178 201 0
180 202 0
176 198 0
182 204 0
179 201 0
179 201 0
179 201 0
181 203 0
179 201 0
178 200 0
182 203 0
181 202 0
182 203 0
181 202 0
180 203 0
178 201 0
178 200 0
180 203 0
182 204 0
181 203 0
182 203 0
182 203 0
178 201 0
181 203 0
179 201 0
177 199 0
180 203 0
181 203 0
182 204 0
180 201 0
178 200 0
183 204 0
183 204 0
179 201 0
181 203 0
184 205 0
183 204 0
181 202 0
182 203 0
184 205 0
180 202 0
183 204 0
182 204 0
183 204 0
181 202 0
183 203 0
183 204 0
182 204 0
183 204 0
181 202 0
181 203 0
184 205 0
180 202 0
181 203 0
183 204 0
183 204 0
183 204 0
180 203 0
181 203 0
182 204 0
180 203 0
181 203 0
179 202 0
180 202 0
182 204 0
181 203 0
181 203 0
180 201 0
181 203 0
184 205 0
183 204 0
183 204 0
185 205 0
182 204 0
182 204 0
181 203 0
180 203 0
181 202 0
180 203 0
182 204 0
180 203 0
183 204 0
182 204 0
181 202 0
182 204 0
183 204 0
182 204 0
180 203 0
182 204 0
181 203 0
181 203 0
182 204 0
184 205 0
180 203 0
178 202 0
184 205 0
182 204 0
180 202 0
181 203 0
182 204 0
183 204 0
182 204 0
182 203 0
183 204 0
180 203 0
180 202 0
180 202 0
181 203 0
182 204 0
183 204 0
183 204 0
181 203 0
179 202 0
181 202 0
182 204 0
184 205 0
181 203 0
180 203 0
180 203 0
182 203 0
182 204 0
181 202 0
181 203 0
181 203 0
180 203 0
182 204 0
184 205 0
182 204 0
182 203 0
181 203 0
182 204 0
181 203 0
182 203 0
181 203 0
180 201 0
183 204 0
181 203 0
183 204 0
181 202 0
182 204 0
182 204 0
183 204 0
182 204 0
181 203 0
182 204 0
181 203 0
181 203 0
182 204 0
181 203 0
181 203 0
182 204 0
180 202 0
182 204 0
185 205 0
184 205 0
180 202 0
183 204 0
180 202 0
181 203 0
182 204 0
182 204 0
182 204 0
180 202 0
179 202 0
181 203 0
181 203 0
183 204 0
182 204 0
180 201 0
183 204 0
182 204 0
180 201 0
179 202 0
181 203 0
184 205 0
182 204 0
179 201 0
181 203 0
182 203 0
181 202 0
181 203 0
177 201 0
182 204 0
178 201 0
180 202 0
182 203 0
178 200 0
182 204 0
178 199 0
183 204 0
180 203 0
181 202 0
183 204 0
182 203 0
180 202 0
179 202 0
183 204 0
183 204 0
181 202 0
181 203 0
183 204 0
184 205 0
182 204 0
178 200 0
179 201 0
182 203 0
180 202 0
182 204 0
182 204 0
182 203 0
181 203 0
181 202 0
179 202 0
183 204 0
179 201 0
181 202 0
181 202 0
182 204 0
182 203 0
179 201 0
181 202 0
178 200 0
183 204 0
183 204 0
183 204 0
182 203 0
178 200 0
176 197 0
180 202 0
175 198 0
179 202 0
174 196 0
180 202 0
178 200 0
176 198 0
181 202 0
178 200 0
178 200 0
179 201 0
179 201 0
177 199 0
176 197 0
175 197 0
179 200 0
175 197 0
179 200 0
178 200 0
174 196 0
179 201 0
181 203 0
171 194 0
173 196 0
178 200 0
180 200 0
179 201 0
177 199 0
180 202 0
178 200 0
178 201 0
179 200 0
174 196 0
175 196 0
171 192 0
177 198 0
180 202 0
181 202 0
183 204 0
179 200 0
180 202 0
176 198 0
177 198 0
171 193 0
177 198 0
177 199 0
183 204 0
175 197 0
183 203 0
175 195 0
178 199 0
178 200 0
178 200 0
180 200 0
181 201 0
180 201 0
179 200 0
177 199 0
178 199 0
179 201 0
179 200 0
179 201 0
182 203 0
180 201 0
172 193 0
174 195 0
172 194 0
179 199 0
174 195 0
182 204 0
177 199 0
178 200 0
185 206 69
177 199 56
178 200 38
177 199 0
182 203 69
180 201 38
184 205 56
182 204 56
182 203 0
183 205 56
183 204 80
183 205 69
184 205 89
184 206 89
185 206 97
186 206 80
182 204 69
185 206 97
182 204 56
185 207 111
185 205 38
183 204 38
185 207 97
183 205 80
184 206 97
184 206 89
181 203 69
184 206 97
183 204 56
184 206 89
182 204 80
181 203 80
182 205 104
183 205 104
184 206 104
183 205 80
184 205 69
183 205 80
184 205 69
183 204 56
183 205 80
182 204 97
183 205 80
185 208 118
182 203 56
184 205 97
183 205 89
183 204 56
186 207 89
177 199 48
183 205 69
178 200 56
179 201 63
178 199 56
178 199 56
185 205 56
181 203 63
179 201 69
178 198 75
182 203 75
179 201 56
185 205 89
181 202 69
178 199 93
180 201 48
179 200 25
183 204 0
176 198 38
172 195 48
180 201 25
184 205 0
184 205 0
177 200 0
179 201 0
181 202 0
181 202 0
177 199 0
175 197 0
184 205 0
182 204 0
177 199 0
183 204 0
177 198 0
181 203 0
184 205 0
181 202 0
179 202 0
178 200 0
172 194 0
178 200 0
181 202 0
181 203 0
175 197 0
176 198 0
180 203 0
183 204 0
178 201 0
180 202 0
179 201 0
180 201 0
183 204 0
177 199 0
182 203 0
184 205 0
183 204 0
185 205 0
181 202 0
183 204 0
176 199 0
183 204 0
183 204 0
180 202 0
181 202 0
182 203 0
182 204 0
183 204 0
178 201 0
181 202 0
180 202 0
182 204 0
180 201 0
184 205 0
182 203 0
182 203 0
182 203 0
179 202 0
181 203 0
180 201 0
184 204 0
181 203 0
181 202 0
181 203 0
180 203 0
182 204 0
183 204 0
181 203 0
182 204 0
177 200 0
179 202 0
182 204 0
182 204 0
182 204 0
182 204 0
180 203 0
180 202 0
183 204 0
183 204 0
179 201 0
183 204 0
182 204 0
181 203 0
183 204 0
180 202 0
182 204 0
183 204 0
180 203 0
181 203 0
182 203 0
182 204 0
183 204 0
183 204 0
181 203 0
181 203 0
182 203 0
182 204 0
184 205 0
179 201 0
180 202 0
181 202 0
183 204 0
183 204 0
181 203 0
183 204 0
180 202 0
181 202 0
183 204 0
182 204 0
183 204 0
183 204 0
182 204 0
182 204 0
181 203 0
183 204 0
185 205 0
178 202 0
180 202 0
182 204 0
182 204 0
183 204 0
182 203 0
180 203 0
184 205 0
183 204 0
181 203 0
181 202 0
182 204 0
182 203 0
178 201 0
180 202 0
180 203 0
183 204 0
182 203 0
184 205 0
182 203 0
182 204 0
182 204 0
183 204 0
181 203 0
181 203 0
184 205 0
181 203 0
180 202 0
180 202 0
180 203 0
180 202 0
179 202 0
181 203 0
182 204 0
182 204 0
181 203 0
181 203 0
182 204 0
183 204 0
182 204 0
183 204 0
181 203 0
182 204 0
182 203 0
179 201 0
182 204 0
182 204 0
184 205 0
182 204 0
181 203 0
180 202 0
183 204 0
181 203 0
181 203 0
182 204 0
181 203 0
181 203 0
182 203 0
182 204 0
181 203 0
178 200 0
182 204 0
179 200 0
181 203 0
181 202 0
181 202 0
182 204 0
180 202 0
184 205 0
182 204 0
182 204 0
182 203 0
180 203 0
180 203 0
179 201 0
179 201 0
182 204 0
183 204 0
180 202 0
183 204 0
183 204 0
180 202 0
180 202 0
180 203 0
180 202 0
180 202 0
178 201 0
180 201 0
181 202 0
184 205 0
183 204 0
182 204 0
178 200 0
182 204 0
183 204 0
182 204 0
180 202 0
182 204 0
182 204 0
180 202 0
182 204 0
181 202 0
184 205 0
179 202 0
182 203 0
183 204 0
181 203 0
181 203 0
182 203 0
179 201 0
181 203 0
181 203 0
180 203 0
182 204 0
179 202 0
179 201 0
179 200 0
181 203 0
179 201 0
181 202 0
175 198 0
180 203 0
181 203 0
181 203 0
182 204 0
181 203 0
176 197 0
180 202 0
175 197 0
182 204 0
178 200 0
177 199 0
179 201 0
183 204 0
182 204 0
182 203 0
182 203 0
179 201 0
178 201 0
179 201 0
182 204 0
175 197 0
178 199 0
179 201 0
178 200 0
178 200 0
178 200 0
179 201 0
177 200 0
178 200 0
178 201 0
180 203 0
177 199 0
179 200 0
178 201 0
176 198 0
176 198 0
183 204 0
174 197 0
174 196 0
174 197 0
179 201 0
176 198 0
179 201 0
182 202 0
178 201 0
179 201 0
178 200 0
177 199 0
175 197 0
179 200 0
178 199 0
178 200 0
176 198 0
184 205 0
174 196 0
178 200 0
174 196 0
179 201 0
175 196 0
183 203 0
182 203 0
176 198 0
174 196 0
178 199 0
169 191 0
174 197 0
178 199 0
179 200 0
176 198 0
179 200 0
173 195 0
179 200 0
177 199 0
176 198 0
178 199 0
172 194 0
178 199 0
179 201 0
178 200 0
174 196 0
175 198 0
175 196 0
176 197 0
180 202 0
178 199 0
175 196 0
177 198 0
179 201 0
178 199 0
178 199 0
177 198 0
179 201 0
178 199 0
178 200 0
179 200 0
178 200 38
179 201 0
180 201 38
181 202 0
183 204 0
183 204 0
183 205 38
180 202 0
185 206 80
185 206 80
182 204 56
185 206 69
188 208 97
185 206 69
185 206 69
183 205 80
184 206 104
185 207 111
182 204 69
185 206 69
182 203 80
185 205 38
183 204 38
184 206 69
185 207 97
180 202 69
184 205 69
183 205 69
184 205 56
184 206 89
183 204 56
182 203 38
184 205 69
184 205 80
184 206 118
185 206 69
183 204 69
186 208 124
184 206 111
183 205 97
184 205 56
183 205 80
184 205 56
184 204 69
184 206 69
177 200 80
185 206 97
182 204 69
186 207 97
186 207 97
182 203 38
181 203 69
180 202 104
179 201 48
179 200 89
180 202 89
181 202 56
183 204 63
180 201 84
179 201 63
183 203 93
185 206 84
182 204 75
182 202 84
183 203 48
177 199 48
178 200 0
178 199 38
179 201 25
177 199 0
181 202 0
179 200 0
180 202 0
178 200 0
181 203 0
182 203 0
179 200 0
181 202 0
179 202 0
179 201 0
181 202 0
183 204 0
180 202 0
179 201 0
181 203 0
179 201 0
181 202 0
179 202 0
179 200 0
180 202 0
178 200 0
175 197 0
182 203 0
177 199 0
182 203 0
179 201 0
183 204 0
181 203 0
180 203 0
179 201 0
180 202 0
183 204 0
179 201 0
178 201 0
179 201 0
182 204 0
178 200 0
180 203 0
180 202 0
178 200 0
182 204 0
180 202 0
183 204 0
180 203 0
181 202 0
180 202 0
182 203 0
183 204 0
178 201 0
182 204 0
181 202 0
182 204 0
180 201 0
182 204 0
179 201 0
180 202 0
182 204 0
180 202 0
180 202 0
179 202 0
181 202 0
182 203 0
181 203 0
183 204 0
180 202 0
180 202 0
183 204 0
182 204 0
182 204 0
180 202 0
181 202 0
183 204 0
182 204 0
181 203 0
182 203 0
181 203 0
181 203 0
184 205 0
181 203 0
181 203 0
181 202 0
181 203 0
180 202 0
184 204 0
181 203 0
181 203 0
181 203 0
182 204 0
182 203 0
181 203 0
184 205 0
181 203 0
181 203 0
178 201 0
184 205 0
183 204 0
179 202 0
184 205 0
181 203 0
182 204 0
182 204 0
183 204 0
182 204 0
183 204 0
182 203 0
181 203 0
182 204 0
181 203 0
180 203 0
182 204 0
179 201 0
182 204 0
183 204 0
181 203 0
182 204 0
180 203 0
182 204 0
181 203 0
183 204 0
180 203 0
181 203 0
181 203 0
181 203 0
182 204 0
182 204 0
183 204 0
183 204 0
182 204 0
181 203 0
182 204 0
181 203 0
183 204 0
181 203 0
183 204 0
181 203 0
182 204 0
182 204 0
180 203 0
183 204 0
182 204 0
178 200 0
184 205 0
181 203 0
181 203 0
182 204 0
181 203 0
182 204 0
183 204 0
181 202 0
180 203 0
182 204 0
181 203 0
181 202 0
184 205 0
180 203 0
184 205 0
180 203 0
181 203 0
181 203 0
182 203 0
182 203 0
180 201 0
182 204 0
181 203 0
181 203 0
182 204 0
182 203 0
182 204 0
182 204 0
182 203 0
183 204 0
184 205 0
182 203 0
182 204 0
182 204 0
183 204 0
181 203 0
183 204 0
179 202 0
184 205 0
182 204 0
181 203 0
180 202 0
183 204 0
183 204 0
183 204 0
182 204 0
180 202 0
178 200 0
180 202 0
182 204 0
182 204 0
180 202 0
182 203 0
182 203 0
182 203 0
182 204 0
182 204 0
182 203 0
181 203 0
181 203 0
181 203 0
182 204 0
181 203 0
181 203 0
183 204 0
181 203 0
182 204 0
180 203 0
180 202 0
178 201 0
178 201 0
183 204 0
178 200 0
180 203 0
184 205 0
181 203 0
180 202 0
181 203 0
181 202 0
176 199 0
180 202 0
184 205 0
182 203 0
182 204 0
180 202 0
181 202 0
180 203 0
183 204 0
180 202 0
183 204 0
180 202 0
180 202 0
180 202 0
181 203 0
180 202 0
183 204 0
180 202 0
181 202 0
180 203 0
183 204 0
183 203 0
173 196 0
181 202 0
177 199 0
181 202 0
181 203 0
179 200 0
178 200 0
179 201 0
182 204 0
180 201 0
182 203 0
180 202 0
179 201 0
176 198 0
181 203 0
180 201 0
178 200 0
175 198 0
181 203 0
175 198 0
180 201 0
180 202 0
180 202 0
179 202 0
180 202 0
178 201 0
174 197 0
173 196 0
178 201 0
178 199 0
177 198 0
181 201 0
177 199 0
168 191 0
174 195 0
174 197 0
172 194 0
176 197 0
179 200 0
180 201 0
175 198 0
176 197 0
179 201 0
176 198 0
177 200 0
175 197 0
175 198 0
177 197 0
176 198 0
181 203 0
174 197 0
179 201 0
176 198 0
179 201 0
176 197 0
175 197 0
177 198 0
173 195 0
177 199 0
175 197 0
177 199 0
176 198 0
174 195 0
183 203 0
179 200 0
177 200 0
175 197 0
176 199 0
178 199 0
174 197 0
183 204 0
175 197 0
180 201 0
174 196 0
176 198 0
178 199 0
178 200 0
171 192 0
175 197 0
179 200 0
172 194 0
173 195 0
175 197 0
176 199 0
179 201 0
177 198 0
181 202 0
181 202 0
180 200 69
182 204 38
182 204 56
183 204 38
181 203 38
184 206 80
182 204 38
184 205 69
181 204 38
186 206 89
184 205 80
185 206 97
185 206 69
184 205 80
182 203 89
184 206 111
182 205 89
183 205 80
182 203 69
183 204 56
185 206 80
183 205 80
184 205 56
185 207 104
184 206 89
183 205 69
182 204 56
180 201 80
183 206 97
181 204 38
185 207 97
184 205 97
184 205 69
181 203 56
184 206 97
184 206 89
183 205 89
183 205 89
183 205 97
184 206 89
185 206 69
183 204 89
183 205 89
183 204 38
184 206 89
182 204 56
183 205 89
181 202 80
186 207 89
184 205 69
185 205 89
182 204 56
185 206 80
186 207 80
185 207 104
183 204 63
183 204 38
184 205 80
183 204 75
181 202 75
182 204 63
182 204 38
182 204 38
186 206 69
183 205 38
181 203 38
184 204 63
180 202 0
173 195 48
180 201 0
181 202 0
182 203 0
183 204 0
182 203 0
179 200 0
178 200 0
178 199 0
184 205 0
180 201 0
175 197 0
184 205 0
179 201 0
178 199 0
181 202 0
179 200 0
181 202 0
181 202 0
177 198 0
180 202 0
180 202 0
182 203 0
177 199 0
180 202 0
180 201 0
182 203 0
179 202 0
181 202 0
181 203 0
180 201 0
180 203 0
182 204 0
180 202 0
180 202 0
184 204 0
182 203 0
181 203 0
181 203 0
180 203 0
180 203 0
179 201 0
179 201 0
183 204 0
184 204 0
179 201 0
184 205 0
181 203 0
179 201 0
182 204 0
178 201 0
181 203 0
181 202 0
184 205 0
184 205 0
183 204 0
183 204 0
180 202 0
183 204 0
180 203 0
182 203 0
179 201 0
184 205 0
180 202 0
178 200 0
180 202 0
180 203 0
183 204 0
181 203 0
181 203 0
181 203 0
181 203 0
181 203 0
179 201 0
182 203 0
181 203 0
182 204 0
181 203 0
179 201 0
181 203 0
179 201 0
182 204 0
180 203 0
178 200 0
181 203 0
180 202 0
181 203 0
180 202 0
182 204 0
183 204 0
180 202 0
183 204 0
181 203 0
180 203 0
183 204 0
183 204 0
180 203 0
182 203 0
182 204 0
181 203 0
181 203 0
182 204 0
181 203 0
184 205 0
182 204 0
180 203 0
183 204 0
180 203 0
180 202 0
181 202 0
182 204 0
183 204 0
182 204 0
181 202 0
182 203 0
181 203 0
180 203 0
183 204 0
181 203 0
183 204 0
184 205 0
181 203 0
182 204 0
181 203 0
181 203 0
182 204 0
181 203 0
181 203 0
182 204 0
182 204 0
181 203 0
182 204 0
181 203 0
181 202 0
181 203 0
182 203 0
181 203 0
183 204 0
181 203 0
183 204 0
183 204 0
181 203 0
183 204 0
182 204 0
182 204 0
180 202 0
182 204 0
184 205 0
181 203 0
181 202 0
182 204 0
182 204 0
182 204 0
182 204 0
182 204 0
179 202 0
184 204 0
185 205 0
182 204 0
181 203 0
180 203 0
182 204 0
182 204 0
185 205 0
180 203 0
181 202 0
181 203 0
183 204 0
182 204 0
181 203 0
182 204 0
180 202 0
180 203 0
183 204 0
182 204 0
180 201 0
182 204 0
182 204 0
181 203 0
182 204 0
182 204 0
183 203 0
181 203 0
181 203 0
180 202 0
183 204 0
182 204 0
181 203 0
182 204 0
183 204 0
181 203 0
182 203 0
183 204 0
182 204 0
179 201 0
180 203 0
182 204 0
182 204 0
182 204 0
180 202 0
181 202 0
183 204 0
179 201 0
181 202 0
182 204 0
180 202 0
178 200 0
182 204 0
182 203 0
180 203 0
182 203 0
183 204 0
180 202 0
182 204 0
181 203 0
181 203 0
178 201 0
182 204 0
179 202 0
181 202 0
178 200 0
180 202 0
182 204 0
178 201 0
180 203 0
182 204 0
180 202 0
181 202 0
178 200 0
181 203 0
177 200 0
181 203 0
179 201 0
182 204 0
179 201 0
178 200 0
176 199 0
180 201 0
184 205 0
184 205 0
183 204 0
178 200 0
177 199 0
180 202 0
182 203 0
180 202 0
182 203 0
179 201 0
181 203 0
181 203 0
182 204 0
176 198 0
177 199 0
180 202 0
179 201 0
179 201 0
178 200 0
179 202 0
179 202 0
180 201 0
178 200 0
176 198 0
179 201 0
178 200 0
179 200 0
178 201 0
179 201 0
182 204 0
179 200 0
179 200 0
177 198 0
176 198 0
181 202 0
179 201 0
177 199 0
176 198 0
179 201 0
179 201 0
177 199 0
178 200 0
176 198 0
179 201 0
176 198 0
175 196 0
178 198 0
178 200 0
179 201 0
178 199 0
175 197 0
175 196 0
181 201 0
173 195 0
177 199 0
177 200 0
181 202 0
178 199 0
171 193 0
176 198 0
181 202 0
174 196 0
178 198 0
180 201 0
180 202 0
173 196 0
175 196 0
176 197 0
177 199 0
175 197 0
172 195 0
171 193 0
173 195 0
178 199 0
176 198 0
177 198 0
170 191 0
177 199 0
173 195 0
178 199 0
171 193 0
176 198 0
182 202 0
178 200 0
180 200 0
182 203 0
173 195 0
173 195 0
173 194 0
174 196 0
176 198 0
169 192 0
179 200 0
180 201 0
177 198 69
180 202 56
181 203 0
177 198 56
182 204 56
182 204 38
182 204 0
182 204 56
183 204 38
183 204 38
185 206 56
181 204 38
185 206 89
184 206 89
183 204 56
182 203 38
185 205 69
180 202 38
182 203 56
181 203 56
184 205 89
182 204 97
181 203 69
183 206 97
183 205 56
185 206 89
181 203 38
182 204 89
183 205 69
185 206 69
184 206 104
182 204 80
181 203 69
183 204 111
181 203 80
187 207 97
181 203 56
183 205 80
182 204 80
184 206 97
183 205 89
183 205 69
181 203 80
184 205 56
182 204 56
185 207 104
184 206 89
184 205 80
179 200 69
183 204 80
182 205 69
184 205 80
186 208 111
184 206 111
178 200 0
184 205 80
186 207 104
183 205 80
181 203 56
184 205 89
182 204 56
184 206 80
185 206 80
187 207 104
181 204 69
184 206 80
182 203 38
181 203 69
181 203 56
178 200 38
180 201 0
181 202 0
182 203 0
178 200 0
181 203 0
181 203 0
180 202 0
181 202 0
182 203 0
180 201 0
183 204 0
178 200 0
180 202 0
180 202 0
180 202 0
182 203 0
178 200 0
178 200 0
179 200 0
180 201 0
179 202 0
182 204 0
182 203 0
184 205 0
179 201 0
180 201 0
182 204 0
180 202 0
182 203 0
181 203 0
182 203 0
180 202 0
179 202 0
179 201 0
181 202 0
182 203 0
181 203 0
182 204 0
183 204 0
182 204 0
181 203 0
180 202 0
181 202 0
183 204 0
181 203 0
181 203 0
181 203 0
183 204 0
182 203 0
181 203 0
178 201 0
183 204 0
181 202 0
183 204 0
184 205 0
182 204 0
181 203 0
181 203 0
180 202 0
180 202 0
182 204 0
181 203 0
182 204 0
181 203 0
184 205 0
180 203 0
183 204 0
181 203 0
183 204 0
181 203 0
180 203 0
184 205 0
182 204 0
181 203 0
179 202 0
183 204 0
182 204 0
182 203 0
181 203 0
182 204 0
181 203 0
181 203 0
182 204 0
183 203 0
180 203 0
183 204 0
181 203 0
181 203 0
183 204 0
183 204 0
180 202 0
182 203 0
185 205 0
182 203 0
183 204 0
183 204 0
181 203 0
183 204 0
180 203 0
182 204 0
180 202 0
181 203 0
183 204 0
182 204 0
184 205 0
183 204 0
179 201 0
182 203 0
182 204 0
180 203 0
182 204 0
182 204 0
181 203 0
182 204 0
184 205 0
183 204 0
181 203 0
183 204 0
182 204 0
182 204 0
182 204 0
180 202 0
181 202 0
184 205 0
181 203 0
182 204 0
184 205 0
184 205 0
180 202 0
182 204 0
181 203 0
183 204 0
181 203 0
183 204 0
179 202 0
183 204 0
183 204 0
181 203 0
183 204 0
180 203 0
183 204 0
182 204 0
183 204 0
182 203 0
183 204 0
182 204 0
181 203 0
180 202 0
179 202 0
181 203 0
182 204 0
179 201 0
179 201 0
184 205 0
182 204 0
183 204 0
181 202 0
181 203 0
180 203 0
180 201 0
183 204 0
182 203 0
182 204 0
183 204 0
184 204 0
178 200 0
182 203 0
183 204 0
179 201 0
180 203 0
181 203 0
183 204 0
183 204 0
182 203 0
181 203 0
181 203 0
183 204 0
181 203 0
181 203 0
183 204 0
181 203 0
183 204 0
181 203 0
184 205 0
183 204 0
181 202 0
180 202 0
176 199 0
182 204 0
180 202 0
180 203 0
180 202 0
181 203 0
179 201 0
182 204 0
179 202 0
183 204 0
182 203 0
183 204 0
181 203 0
182 204 0
177 199 0
182 204 0
184 205 0
183 204 0
178 201 0
179 200 0
181 203 0
181 202 0
179 201 0
181 202 0
183 204 0
181 203 0
181 203 0
182 204 0
181 203 0
181 203 0
178 199 0
182 204 0
182 203 0
181 202 0
184 205 0
179 201 0
182 204 0
180 201 0
181 203 0
181 203 0
179 201 0
177 199 0
183 204 0
179 201 0
178 200 0
182 203 0
179 200 0
179 201 0
183 204 0
183 204 0
181 203 0
181 203 0
177 199 0
180 203 0
179 202 0
175 198 0
177 198 0
178 199 0
180 202 0
180 202 0
175 198 0
181 203 0
177 199 0
180 203 0
182 204 0
177 200 0
181 202 0
182 203 0
181 203 0
182 203 0
178 199 0
178 200 0
178 200 0
178 199 0
177 199 0
180 201 0
179 201 0
181 203 0
180 201 0
174 197 0
173 195 0
176 198 0
179 201 0
182 203 0
171 194 0
174 197 0
177 199 0
182 203 0
171 194 0
177 199 0
175 195 0
176 198 0
178 200 0
177 200 0
176 198 0
179 201 0
179 201 0
177 199 0
178 200 0
180 203 0
176 198 0
182 203 0
180 201 0
174 195 0
174 195 0
174 196 0
176 197 0
178 199 0
177 200 0
175 196 0
178 199 0
178 199 0
176 197 0
173 195 0
176 197 0
172 194 0
184 205 0
172 193 0
176 197 0
175 196 0
173 195 25
161 183 75
169 190 84
160 183 101
148 172 104
160 183 84
163 186 84
161 185 63
172 195 48
178 198 0
176 198 0
173 195 0
177 199 0
178 199 0
174 197 0
181 202 0
178 198 0
175 197 0
180 201 0
176 198 0
178 199 0
177 197 0
172 194 0
185 206 97
182 203 38
178 201 80
184 205 38
181 203 56
183 204 80
184 205 69
180 202 0
182 204 38
182 204 38
184 205 56
179 201 48
182 204 75
177 200 84
182 203 69
177 198 56
179 201 48
185 207 97
185 206 80
186 207 97
183 205 111
182 203 56
179 201 56
183 204 69
183 205 69
183 205 97
185 206 80
184 205 56
181 204 69
181 203 56
184 206 80
185 206 69
184 205 56
184 206 80
183 205 69
181 203 97
183 205 69
183 205 80
184 205 56
183 205 80
184 206 111
182 204 56
185 206 80
182 205 89
183 204 80
183 205 89
184 206 97
184 205 80
184 207 104
182 204 56
182 204 69
183 205 69
182 203 56
183 205 69
183 205 80
183 204 56
183 204 56
186 207 89
183 204 38
183 204 89
184 205 80
183 205 69
184 207 104
182 204 69
183 205 69
182 204 56
182 204 38
183 205 56
184 205 38
179 201 38
179 202 0
177 199 0
182 202 0
185 205 0
181 202 0
181 202 0
184 205 0
181 202 0
183 204 0
183 203 0
180 202 0
181 202 0
182 204 0
183 204 0
182 203 0
182 204 0
182 204 0
181 202 0
182 202 0
181 203 0
178 200 0
182 203 0
183 204 0
180 201 0
182 204 0
182 204 0
184 205 0
181 203 0
181 203 0
184 204 0
181 203 0
182 204 0
180 202 0
180 203 0
179 201 0
180 202 0
179 201 0
183 204 0
181 203 0
182 203 0
179 201 0
183 204 0
183 204 0
184 204 0
184 205 0
182 204 0
182 203 0
179 201 0
181 203 0
182 204 0
184 205 0
180 202 0
183 204 0
178 201 0
181 203 0
179 202 0
177 200 0
182 203 0
182 204 0
180 202 0
183 204 0
181 202 0
184 205 0
180 202 0
182 204 0
181 203 0
182 203 0
183 204 0
181 203 0
181 203 0
179 201 0
180 203 0
181 203 0
181 203 0
182 204 0
185 205 0
181 203 0
181 203 0
180 202 0
181 203 0
183 204 0
182 204 0
180 202 0
183 204 0
183 204 0
181 203 0
181 203 0
181 203 0
184 205 0
182 204 0
182 203 0
182 203 0
183 204 0
180 203 0
179 202 0
182 204 0
182 204 0
184 205 0
182 204 0
184 205 0
183 204 0
183 204 0
181 203 0
182 202 0
182 204 0
182 204 0
182 204 0
183 204 0
182 204 0
178 200 0
182 203 0
182 204 0
181 203 0
184 205 0
182 204 0
182 204 0
183 204 0
183 204 0
182 204 0
182 204 0
179 202 0
181 203 0
183 204 0
179 202 0
181 202 0
182 204 0
182 204 0
183 204 0
183 204 0
180 203 0
181 202 0
183 204 0
183 204 0
185 205 0
183 204 0
182 204 0
181 203 0
181 203 0
183 204 0
181 202 0
180 203 0
183 204 0
184 205 0
181 203 0
181 203 0
184 205 0
181 203 0
182 204 0
181 203 0
181 203 0
181 203 0
182 204 0
181 203 0
183 204 0
182 203 0
182 203 0
184 205 0
183 204 0
183 204 0
183 204 0
180 203 0
182 204 0
182 204 0
180 203 0
181 203 0
183 204 0
184 205 0
183 204 0
179 201 0
181 202 0
183 204 0
184 205 0
178 200 0
183 204 0
179 202 0
181 203 0
183 204 0
181 202 0
180 202 0
182 203 0
181 203 0
183 204 0
182 204 0
180 201 0
180 202 0
183 204 0
183 204 0
182 203 0
178 200 0
180 202 0
181 203 0
181 202 0
183 204 0
183 204 0
181 203 0
181 203 0
180 200 0
180 201 0
183 204 0
183 204 0
180 203 0
181 203 0
180 202 0
180 202 0
180 203 0
182 203 0
183 204 0
179 201 0
180 203 0
179 201 0
183 204 0
180 202 0
182 203 0
178 201 0
179 201 0
181 203 0
181 203 0
180 203 0
182 204 0
179 201 0
179 200 0
183 204 0
181 203 0
183 204 0
183 204 0
181 203 0
180 202 0
179 201 0
180 202 0
180 202 0
180 203 0
180 202 0
182 204 0
182 203 0
183 204 0
183 204 0
181 203 0
177 200 0
181 203 0
182 203 0
179 201 0
179 201 0
179 201 0
178 200 0
178 200 0
181 202 0
179 202 0
178 201 0
179 201 0
178 200 0
179 200 0
178 200 0
182 203 0
178 199 0
181 203 0
176 198 0
180 201 0
177 199 0
179 201 0
179 201 0
180 202 0
173 196 0
180 202 0
180 202 0
178 200 0
182 204 0
178 201 0
180 202 0
178 200 0
178 199 0
179 200 0
178 200 0
181 202 0
176 198 0
176 199 0
177 199 0
181 203 0
180 200 0
174 196 0
180 201 0
176 197 0
176 197 0
175 197 0
175 197 0
175 197 0
173 195 0
176 199 0
176 198 0
176 199 0
176 198 0
176 198 0
177 199 0
173 195 0
178 200 0
172 194 0
177 198 0
173 196 0
177 198 0
179 201 0
178 200 0
179 201 0
174 196 0
171 193 63
151 174 114
131 156 134
101 131 153
81 116 179
70 109 183
68 107 181
69 108 184
69 108 184
69 108 183
69 108 179
69 109 186
70 109 184
69 108 177
81 117 175
94 126 164
119 146 149
137 162 124
160 183 75
169 191 25
171 192 0
172 194 0
171 193 0
179 202 0
178 198 0
179 200 0
176 197 0
173 196 0
181 202 80
179 200 97
182 204 38
181 203 69
181 203 38
178 201 69
183 204 38
181 203 38
179 201 25
179 201 56
180 202 75
183 204 80
176 198 75
181 203 48
179 202 75
180 202 48
181 204 84
178 200 38
182 204 56
187 208 104
187 208 104
182 203 0
181 202 56
184 206 89
182 204 56
183 205 69
183 205 69
183 204 56
181 203 89
183 205 69
182 204 56
184 206 89
183 204 80
182 205 89
183 204 38
183 205 80
183 205 89
182 204 80
184 206 89
186 207 104
183 205 69
182 204 69
183 205 80
185 206 69
183 204 69
182 205 89
185 206 80
183 205 56
187 208 97
185 207 111
183 205 80
186 206 89
181 203 38
180 203 69
186 207 80
186 206 80
185 207 111
183 205 69
183 205 69
183 205 69
187 207 89
186 207 80
185 207 89
180 202 38
182 204 38
180 202 0
183 205 69
182 204 69
181 202 38
178 199 0
180 202 0
180 201 0
183 204 0
179 201 0
183 204 0
182 203 0
182 203 0
182 204 0
180 202 0
183 204 0
183 204 0
184 204 0
180 202 0
183 204 0
179 202 0
181 203 0
180 202 0
177 199 0
183 204 0
184 205 0
180 201 0
181 202 0
182 204 0
177 200 0
181 203 0
180 202 0
183 204 0
181 203 0
180 202 0
181 202 0
181 203 0
185 204 0
182 203 0
182 203 0
182 204 0
179 201 0
180 202 0
181 203 0
183 204 0
183 204 0
181 203 0
182 204 0
177 199 0
181 203 0
182 204 0
182 204 0
180 202 0
179 201 0
180 203 0
180 202 0
181 202 0
181 203 0
184 205 0
180 203 0
182 204 0
183 204 0
185 205 0
182 204 0
182 204 0
180 203 0
180 203 0
180 202 0
183 204 0
183 204 0
182 204 0
181 203 0
182 204 0
181 203 0
181 203 0
183 204 0
182 204 0
182 204 0
180 203 0
181 203 0
183 204 0
182 204 0
181 202 0
180 203 0
182 204 0
183 204 0
184 205 0
184 205 0
184 205 0
183 204 0
183 204 0
180 202 0
184 204 0
183 204 0
182 204 0
183 204 0
184 204 0
184 205 0
183 204 0
184 205 0
181 203 0
182 204 0
181 203 0
181 203 0
182 203 0
181 203 0
181 203 0
183 204 0
181 203 0
183 204 0
182 203 0
183 204 0
181 203 0
183 203 0
183 204 0
183 204 0
182 204 0
181 203 0
181 203 0
180 203 0
181 203 0
183 204 0
182 204 0
181 203 0
181 203 0
182 204 0
182 204 0
180 201 0
181 203 0
183 204 0
182 204 0
183 204 0
182 204 0
182 203 0
181 203 0
182 204 0
179 202 0
182 204 0
181 203 0
184 205 0
183 204 0
181 203 0
182 204 0
184 205 0
181 203 0
180 202 0
181 203 0
181 203 0
181 203 0
181 203 0
183 204 0
182 204 0
182 204 0
179 202 0
183 204 0
183 204 0
183 204 0
182 204 0
182 204 0
182 204 0
182 204 0
178 201 0
181 203 0
183 204 0
182 203 0
183 204 0
182 203 0
182 203 0
181 203 0
180 202 0
181 202 0
182 204 0
182 204 0
179 202 0
182 204 0
180 202 0
181 203 0
179 201 0
182 204 0
179 202 0
182 204 0
182 204 0
183 204 0
182 204 0
181 203 0
181 203 0
182 203 0
181 203 0
180 201 0
180 202 0
178 201 0
180 203 0
184 205 0
181 203 0
181 203 0
181 203 0
183 204 0
178 201 0
184 205 0
180 202 0
181 203 0
183 204 0
182 204 0
182 204 0
183 204 0
182 203 0
182 204 0
179 201 0
182 203 0
181 203 0
179 201 0
180 203 0
180 203 0
182 203 0
181 203 0
182 203 0
179 201 0
180 202 0
183 204 0
181 203 0
180 202 0
184 205 0
182 203 0
178 200 0
182 203 0
180 203 0
180 202 0
180 202 0
186 206 0
178 200 0
180 202 0
181 203 0
182 204 0
184 205 0
180 201 0
181 202 0
181 202 0
182 204 0
179 200 0
181 202 0
177 200 0
180 202 0
180 202 0
179 201 0
178 200 0
180 202 0
181 203 0
181 203 0
181 203 0
182 203 0
178 199 0
182 203 0
180 202 0
181 203 0
177 199 0
184 205 0
180 202 0
181 203 0
179 201 0
183 204 0
183 204 0
175 196 0
177 201 0
174 197 0
181 202 0
178 200 0
176 199 0
176 198 0
183 204 0
174 197 0
181 203 0
179 201 0
176 197 0
180 203 0
176 199 0
177 199 0
181 203 0
178 200 0
177 198 0
176 198 0
177 198 0
176 197 0
179 201 0
178 200 0
177 199 0
175 196 0
174 197 0
176 198 0
176 198 0
178 199 0
178 200 0
178 199 0
175 197 0
183 204 0
175 198 0
174 197 0
181 202 0
171 193 0
178 200 0
178 199 0
170 192 0
175 196 0
164 186 0
175 198 0
173 194 0
151 175 84
130 156 139
106 135 166
70 109 183
68 108 183
68 107 174
69 108 186
68 108 186
70 109 186
71 109 181
69 108 177
67 107 181
69 108 186
68 108 184
68 108 184
69 109 184
68 107 179
69 108 184
69 108 183
68 107 183
67 106 174
66 105 175
80 115 168
117 144 147
147 170 104
177 199 25
183 204 0
175 196 0
180 202 0
176 198 0
176 197 0
178 199 69
188 206 89
180 202 38
180 201 56
182 204 38
184 205 56
183 205 38
180 202 0
181 203 0
177 199 63
183 205 89
178 200 56
177 199 63
177 199 48
180 201 84
179 201 56
182 203 69
180 202 56
180 200 75
180 202 80
185 206 80
184 205 56
184 206 89
182 204 56
181 204 80
181 204 69
182 204 69
182 204 89
183 204 69
182 204 80
180 203 80
184 206 89
185 207 104
180 203 56
183 204 80
182 204 69
184 205 69
183 205 80
185 206 97
184 206 97
181 203 56
183 205 97
184 206 69
183 206 111
185 206 69
183 204 56
183 205 38
187 208 111
187 208 104
183 203 38
184 206 89
185 206 89
184 206 89
187 208 111
185 205 56
188 208 104
183 204 56
183 204 69
184 206 80
185 205 80
184 205 89
187 208 97
181 203 38
183 205 80
181 202 38
183 204 69
178 200 38
180 202 0
182 203 0
180 202 0
175 197 0
182 203 0
183 204 0
181 202 0
182 204 0
179 200 0
186 206 0
183 204 0
184 205 0
179 201 0
178 200 0
182 203 0
182 203 0
181 202 0
178 200 0
182 202 0
183 204 0
182 204 0
181 203 0
185 205 0
177 199 0
180 202 0
183 204 0
182 203 0
181 203 0
183 204 0
181 203 0
180 202 0
181 202 0
178 200 0
179 200 0
180 202 0
182 204 0
179 201 0
180 203 0
179 201 0
179 202 0
180 202 0
183 204 0
184 205 0
182 204 0
179 201 0
180 203 0
181 202 0
183 204 0
182 203 0
182 203 0
179 202 0
181 203 0
181 203 0
183 204 0
181 203 0
182 204 0
181 203 0
182 204 0
181 203 0
180 203 0
182 204 0
183 204 0
179 201 0
180 202 0
179 202 0
180 203 0
181 202 0
181 202 0
181 203 0
181 203 0
180 203 0
181 203 0
183 204 0
183 204 0
182 204 0
182 204 0
182 204 0
177 200 0
183 204 0
182 203 0
183 204 0
181 203 0
181 203 0
182 204 0
180 203 0
179 202 0
182 203 0
182 204 0
184 205 0
181 203 0
180 203 0
180 203 0
180 202 0
181 202 0
181 203 0
182 204 0
181 203 0
181 203 0
182 204 0
182 204 0
183 204 0
182 204 0
183 204 0
182 204 0
181 203 0
181 203 0
182 204 0
182 204 0
183 204 0
180 202 0
181 203 0
184 205 0
183 204 0
181 203 0
181 203 0
182 204 0
183 204 0
182 204 0
183 204 0
182 203 0
183 204 0
180 203 0
182 204 0
185 205 0
183 204 0
180 203 0
180 202 0
182 204 0
181 203 0
182 204 0
182 204 0
181 203 0
181 203 0
182 203 0
180 203 0
182 204 0
183 204 0
181 203 0
180 202 0
183 204 0
184 204 0
181 202 0
182 204 0
181 203 0
181 203 0
181 202 0
181 202 0
182 204 0
179 202 0
182 204 0
181 203 0
182 204 0
182 204 0
182 204 0
180 202 0
183 204 0
181 203 0
182 204 0
183 204 0
180 202 0
179 201 0
182 204 0
181 202 0
180 202 0
182 204 0
184 204 0
181 203 0
181 203 0
181 203 0
181 203 0
180 203 0
184 205 0
182 204 0
181 202 0
180 203 0
182 204 0
181 203 0
180 202 0
182 204 0
183 204 0
179 201 0
182 203 0
182 204 0
181 203 0
182 204 0
181 203 0
181 203 0
181 202 0
182 204 0
181 203 0
183 204 0
182 204 0
181 203 0
182 204 0
181 203 0
180 203 0
180 202 0
179 202 0
180 202 0
182 203 0
182 204 0
182 203 0
184 205 0
182 204 0
182 204 0
182 204 0
180 203 0
179 201 0
182 204 0
180 203 0
183 204 0
177 200 0
182 204 0
176 199 0
182 203 0
181 203 0
176 199 0
179 201 0
182 203 0
181 203 0
179 202 0
181 202 0
183 204 0
183 204 0
180 202 0
181 203 0
182 204 0
181 202 0
178 200 0
182 204 0
180 201 0
179 201 0
182 204 0
177 199 0
179 201 0
185 205 0
182 204 0
181 202 0
181 203 0
181 203 0
178 200 0
178 199 0
178 200 0
176 199 0
179 202 0
179 201 0
180 201 0
182 204 0
177 200 0
178 200 0
182 204 0
179 200 0
181 203 0
181 202 0
177 200 0
176 198 0
178 200 0
180 202 0
180 202 0
171 193 0
176 199 0
182 204 0
175 197 0
182 203 0
176 198 0
181 201 0
183 204 0
177 199 0
180 202 0
181 202 0
177 200 0
180 201 0
178 200 0
178 200 0
174 194 0
176 199 0
180 202 0
183 204 0
179 200 0
176 197 0
178 199 0
182 203 0
181 202 0
179 202 0
178 199 0
173 195 0
169 192 0
175 197 0
180 202 0
181 202 0
181 202 0
178 200 0
173 194 0
183 204 0
175 197 0
174 196 0
173 194 0
177 200 0
177 199 0
173 195 48
140 166 126
99 130 164
69 108 181
68 108 177
69 108 181
69 109 188
68 108 184
69 108 184
67 107 184
68 108 184
69 109 183
69 108 184
69 108 184
69 108 186
70 109 186
68 108 186
69 109 186
69 108 188
68 107 179
68 108 188
69 108 186
69 108 184
68 107 179
67 107 181
69 108 183
67 107 181
68 108 183
90 122 170
129 154 129
166 188 75
181 203 0
176 197 0
180 201 0
179 199 69
180 200 97
181 203 38
179 201 56
182 204 56
179 201 63
181 203 75
183 205 80
180 202 75
177 199 75
181 204 84
177 199 38
178 201 75
178 201 69
181 203 38
178 201 69
179 201 63
177 200 48
181 203 0
179 200 63
177 199 69
181 203 69
179 200 69
186 207 111
185 207 111
183 205 80
183 205 97
179 201 38
183 204 89
185 207 97
183 204 38
184 206 97
183 206 89
184 206 69
185 206 80
185 206 69
183 206 97
182 203 80
183 205 56
182 204 80
184 204 56
183 205 80
184 205 56
185 207 97
183 205 89
182 203 38
182 204 69
182 204 69
184 205 80
184 205 56
183 204 80
184 206 69
184 205 69
186 207 104
182 204 56
183 204 69
184 205 56
183 204 56
184 205 56
184 206 104
183 205 69
187 207 80
185 206 89
180 201 0
181 203 38
181 203 38
182 203 38
184 204 56
184 205 0
180 201 0
183 203 0
180 202 0
182 203 0
181 202 0
182 204 0
184 205 0
180 201 0
177 199 0
180 202 0
183 204 0
183 204 0
178 200 0
181 203 0
181 203 0
180 201 0
180 203 0
182 203 0
180 202 0
181 203 0
182 204 0
183 204 0
182 203 0
182 204 0
183 204 0
181 202 0
180 202 0
182 204 0
181 203 0
184 205 0
182 204 0
183 204 0
180 201 0
183 204 0
182 204 0
180 202 0
180 202 0
180 202 0
181 203 0
183 204 0
184 205 0
181 203 0
177 200 0
180 201 0
182 203 0
183 204 0
180 203 0
182 204 0
182 204 0
185 205 0
183 204 0
181 203 0
183 204 0
181 203 0
182 204 0
182 204 0
181 203 0
183 204 0
183 204 0
183 204 0
182 203 0
182 204 0
182 204 0
181 203 0
184 205 0
182 203 0
183 204 0
182 204 0
180 202 0
183 204 0
185 205 0
184 205 0
181 203 0
178 201 0
181 203 0
180 203 0
181 203 0
180 203 0
181 203 0
183 204 0
181 203 0
181 203 0
183 204 0
182 204 0
181 203 0
181 203 0
181 203 0
181 203 0
182 204 0
182 204 0
180 202 0
183 204 0
182 204 0
180 203 0
182 204 0
184 205 0
182 204 0
182 204 0
183 204 0
180 202 0
179 201 0
181 203 0
181 203 0
180 203 0
184 205 0
182 204 0
180 203 0
181 203 0
181 203 0
179 201 0
181 203 0
180 203 0
181 203 0
180 203 0
181 203 0
183 204 0
183 204 0
183 204 0
180 203 0
182 203 0
182 204 0
183 204 0
181 203 0
183 204 0
184 204 0
184 205 0
182 204 0
181 203 0
182 204 0
183 204 0
181 203 0
180 202 0
180 202 0
182 204 0
182 203 0
182 204 0
178 201 0
183 204 0
183 204 0
181 202 0
183 204 0
182 204 0
183 204 0
182 203 0
183 204 0
182 204 0
183 204 0
181 202 0
182 203 0
181 203 0
182 204 0
182 204 0
183 204 0
181 202 0
181 203 0
183 204 0
180 203 0
182 204 0
183 204 0
182 204 0
182 204 0
182 204 0
180 203 0
182 204 0
182 204 0
181 202 0
182 203 0
184 205 0
183 204 0
183 204 0
181 203 0
180 202 0
180 202 0
181 203 0
181 202 0
180 202 0
181 203 0
180 201 0
180 202 0
181 203 0
183 204 0
179 200 0
183 204 0
184 205 0
183 204 0
181 202 0
178 200 0
183 204 0
181 202 0
182 203 0
178 200 0
184 205 0
181 203 0
182 203 0
182 204 0
182 203 0
180 201 0
181 203 0
180 202 0
182 204 0
181 203 0
178 201 0
180 202 0
179 201 0
185 205 0
182 204 0
180 202 0
181 203 0
182 203 0
181 202 0
183 204 0
182 204 0
181 203 0
178 200 0
183 203 0
180 202 0
181 203 0
182 203 0
180 202 0
180 202 0
180 202 0
180 202 0
178 200 0
180 203 0
177 198 0
178 199 0
180 202 0
177 200 0
178 201 0
183 204 0
181 203 0
177 198 0
183 203 0
180 203 0
180 202 0
182 203 0
176 198 0
178 199 0
180 202 0
180 202 0
180 203 0
181 202 0
182 203 0
178 201 0
180 201 0
177 200 0
183 204 0
178 201 0
177 199 0
181 202 0
180 203 0
181 203 0
175 196 0
174 196 0
179 201 0
180 202 0
181 203 0
173 195 0
173 196 0
181 202 0
179 201 0
175 197 0
178 199 0
180 202 0
178 198 0
176 197 0
179 201 0
176 198 0
182 203 0
178 199 0
177 198 0
177 199 0
180 201 0
181 202 0
176 198 0
180 202 0
179 200 0
170 191 0
174 195 0
178 200 0
176 198 0
179 200 0
171 193 0
181 202 0
175 197 0
179 202 0
178 200 0
175 197 0
177 199 0
172 193 0
173 196 0
179 201 0
172 195 0
178 199 0
175 198 0
168 188 63
129 155 134
90 123 175
69 108 181
69 108 181
71 110 186
69 108 184
69 108 184
69 108 186
68 108 184
69 109 188
69 109 188
70 109 188
68 108 186
68 107 181
70 109 186
69 108 186
69 109 188
68 108 186
68 108 186
69 108 186
69 108 186
68 108 184
68 108 188
69 108 184
68 108 183
69 108 184
68 107 181
68 107 181
68 107 177
69 108 183
69 108 177
67 107 175
112 140 147
159 183 84
177 198 0
178 200 0
189 207 134
182 203 38
183 205 56
184 205 0
181 204 69
182 204 84
179 201 80
178 200 0
180 202 69
181 204 84
180 203 101
176 198 63
178 200 69
179 202 84
180 201 38
178 200 48
180 202 75
178 201 56
178 200 84
176 198 63
182 204 38
181 203 75
184 206 97
184 206 80
184 205 69
185 205 38
182 204 56
184 206 97
184 205 80
183 205 69
183 205 69
181 204 80
182 203 56
180 203 89
183 205 69
183 205 69
181 203 80
184 205 56
184 206 97
181 203 38
183 205 104
182 204 56
184 205 89
184 205 89
184 206 89
182 203 104
186 207 97
185 206 56
184 205 56
183 205 56
184 206 104
183 205 80
184 205 80
182 203 38
182 204 69
184 205 69
183 205 89
184 206 89
187 207 104
185 205 89
184 204 80
185 206 69
183 204 0
184 205 56
183 204 38
181 203 0
183 205 56
182 204 56
182 203 0
180 203 0
185 205 0
183 204 0
178 200 0
182 203 0
181 203 0
180 202 0
184 205 0
181 203 0
181 203 0
180 202 0
182 204 0
182 204 0
179 201 0
180 202 0
182 204 0
184 205 0
180 202 0
184 205 0
184 205 0
181 203 0
178 201 0
182 202 0
178 199 0
181 203 0
183 204 0
184 204 0
183 203 0
184 205 0
182 204 0
180 202 0
181 202 0
182 204 0
177 200 0
179 202 0
181 203 0
182 203 0
180 202 0
181 202 0
182 204 0
180 203 0
182 204 0
181 203 0
180 202 0
184 205 0
182 204 0
179 202 0
182 204 0
181 203 0
183 204 0
180 203 0
183 204 0
182 204 0
181 203 0
182 204 0
181 203 0
182 204 0
181 203 0
181 203 0
184 205 0
182 203 0
181 203 0
180 202 0
180 203 0
182 204 0
183 204 0
182 204 0
181 203 0
182 204 0
181 203 0
181 203 0
180 202 0
181 203 0
184 205 0
183 204 0
183 204 0
183 204 0
181 203 0
182 204 0
183 204 0
181 203 0
183 204 0
181 203 0
182 204 0
183 204 0
181 203 0
182 204 0
183 204 0
182 203 0
184 205 0
182 203 0
184 205 0
182 204 0
183 204 0
181 203 0
181 202 0
183 204 0
181 203 0
181 203 0
182 204 0
181 203 0
181 203 0
181 203 0
181 203 0
182 203 0
182 204 0
181 203 0
183 204 0
181 203 0
183 204 0
180 203 0
179 202 0
181 203 0
179 201 0
183 204 0
183 204 0
181 202 0
181 203 0
182 204 0
182 204 0
184 205 0
182 204 0
183 204 0
181 203 0
182 204 0
182 204 0
181 203 0
183 204 0
182 204 0
185 205 0
184 205 0
182 204 0
179 202 0
182 204 0
182 204 0
179 202 0
183 204 0
182 204 0
181 203 0
182 204 0
182 203 0
179 202 0
182 203 0
181 202 0
183 204 0
180 202 0
182 204 0
182 204 0
179 201 0
181 203 0
182 204 0
181 203 0
180 203 0
181 203 0
180 202 0
182 204 0
181 202 0
183 204 0
182 204 0
180 202 0
179 201 0
184 205 0
181 203 0
182 203 0
180 202 0
181 203 0
181 203 0
181 203 0
184 205 0
183 204 0
182 204 0
181 203 0
181 203 0
182 204 0
179 202 0
181 202 0
180 201 0
182 204 0
182 204 0
177 200 0
184 205 0
179 202 0
182 204 0
181 203 0
182 204 0
181 203 0
182 203 0
183 204 0
180 203 0
179 201 0
182 204 0
183 204 0
181 203 0
181 203 0
181 203 0
181 203 0
181 202 0
180 202 0
180 203 0
180 202 0
181 203 0
180 202 0
183 204 0
180 202 0
180 201 0
183 204 0
182 204 0
182 204 0
178 200 0
181 203 0
182 204 0
182 204 0
179 200 0
178 200 0
178 200 0
181 203 0
181 203 0
177 200 0
180 202 0
182 204 0
182 203 0
180 203 0
180 202 0
179 201 0
174 196 0
182 204 0
181 202 0
179 202 0
178 201 0
180 201 0
182 204 0
178 200 0
181 203 0
180 201 0
181 203 0
182 203 0
182 203 0
181 202 0
181 202 0
183 204 0
180 202 0
182 203 0
179 202 0
182 204 0
181 203 0
182 204 0
176 197 0
179 201 0
179 201 0
176 199 0
180 202 0
181 203 0
182 203 0
179 201 0
175 198 0
175 197 0
178 200 0
184 205 0
180 202 0
173 196 0
178 200 0
179 201 0
182 203 0
178 200 0
178 201 0
178 200 0
176 199 0
179 201 0
176 199 0
179 200 0
179 201 0
180 201 0
174 197 0
179 201 0
175 197 0
178 199 0
179 202 0
177 198 0
177 199 0
174 195 0
177 198 0
176 198 0
175 197 0
166 189 0
176 198 0
178 200 0
176 197 0
177 199 0
179 202 0
177 198 0
171 193 0
179 200 0
178 199 0
134 160 129
81 116 174
70 109 188
68 108 181
70 109 183
69 109 184
70 109 188
70 109 183
70 109 188
69 108 188
67 107 183
69 109 188
69 109 188
68 108 188
68 108 186
68 107 183
68 108 186
69 108 188
69 109 186
69 109 188
68 108 186
68 108 186
69 108 188
69 109 188
69 108 186
69 108 188
68 108 186
67 107 181
68 108 183
69 109 183
68 108 181
69 108 179
68 107 177
68 107 175
69 108 181
68 107 177
114 141 147
165 186 69
192 210 162
177 198 38
183 204 56
180 202 89
179 202 56
183 204 38
182 204 56
174 196 63
177 199 63
177 199 89
178 199 101
181 202 69
180 202 48
178 200 38
179 201 0
184 205 56
180 203 38
174 198 97
177 199 56
175 198 84
176 198 63
182 203 0
182 204 69
181 203 80
183 205 89
182 204 69
185 206 69
185 206 97
183 205 69
183 205 80
182 204 38
187 208 104
184 205 89
185 207 89
184 205 38
183 205 69
185 207 111
183 204 69
184 206 89
183 205 69
183 205 118
182 204 56
182 204 69
184 205 80
183 205 80
182 204 38
183 204 56
182 204 38
182 205 97
182 203 89
185 207 89
184 206 89
184 205 80
186 207 89
183 204 0
181 203 56
181 203 56
184 206 89
186 207 97
186 207 89
180 202 0
180 202 38
182 203 0
183 205 38
183 205 56
179 201 69
183 204 38
182 204 38
182 204 0
182 204 0
182 204 0
183 204 0
182 203 0
181 202 0
182 203 0
183 204 0
180 202 0
182 203 0
184 205 0
182 204 0
183 203 0
180 202 0
182 204 0
177 199 0
182 204 0
179 201 0
183 204 0
181 203 0
182 203 0
180 203 0
183 204 0
180 202 0
181 202 0
179 201 0
179 202 0
180 201 0
183 204 0
181 203 0
181 203 0
181 203 0
182 204 0
182 204 0
182 204 0
183 204 0
179 201 0
181 203 0
181 203 0
182 204 0
181 203 0
182 204 0
179 201 0
181 203 0
178 201 0
182 204 0
183 204 0
184 205 0
182 204 0
180 203 0
184 205 0
182 203 0
182 203 0
181 203 0
181 203 0
180 203 0
182 204 0
179 201 0
179 202 0
183 204 0
185 205 0
181 203 0
181 203 0
180 202 0
182 204 0
183 204 0
181 203 0
182 203 0
181 203 0
182 204 0
179 201 0
179 202 0
182 204 0
180 203 0
180 202 0
182 204 0
181 203 0
179 201 0
182 204 0
181 203 0
182 203 0
182 204 0
181 203 0
180 203 0
179 202 0
181 203 0
183 204 0
182 204 0
181 203 0
181 203 0
180 202 0
181 203 0
182 204 0
184 205 0
183 204 0
181 203 0
181 203 0
182 204 0
182 204 0
181 203 0
180 203 0
185 205 0
184 204 0
182 204 0
180 203 0
183 204 0
183 204 0
181 203 0
184 205 0
182 204 0
183 204 0
183 204 0
183 204 0
181 203 0
183 204 0
181 202 0
181 203 0
182 204 0
181 203 0
180 202 0
180 203 0
180 202 0
182 204 0
182 204 0
180 202 0
182 204 0
183 204 0
182 204 0
181 203 0
184 205 0
182 203 0
181 202 0
181 203 0
181 203 0
182 204 0
182 203 0
181 203 0
183 204 0
183 204 0
181 202 0
183 204 0
183 204 0
181 203 0
181 202 0
183 204 0
183 204 0
180 203 0
182 204 0
182 204 0
181 203 0
181 203 0
180 202 0
181 202 0
182 204 0
181 203 0
181 203 0
182 204 0
182 204 0
180 202 0
184 205 0
179 202 0
181 203 0
184 205 0
182 204 0
180 202 0
181 203 0
181 201 0
182 204 0
180 202 0
180 202 0
183 204 0
181 203 0
183 204 0
182 204 0
181 203 0
180 203 0
183 204 0
181 203 0
179 201 0
180 202 0
180 203 0
183 204 0
180 203 0
180 202 0
177 199 0
183 204 0
182 203 0
180 202 0
179 201 0
178 200 0
178 200 0
184 205 0
182 203 0
181 203 0
182 204 0
181 203 0
180 202 0
182 204 0
181 203 0
183 204 0
184 204 0
178 201 0
183 204 0
180 203 0
182 204 0
182 204 0
179 201 0
180 201 0
182 204 0
176 199 0
178 200 0
181 203 0
180 203 0
181 203 0
179 202 0
180 201 0
180 203 0
179 201 0
181 203 0
184 205 0
181 203 0
182 204 0
179 200 0
183 204 0
182 204 0
180 201 0
180 202 0
179 201 0
180 203 0
173 196 0
179 201 0
182 204 0
180 202 0
181 202 0
176 199 0
180 202 0
180 201 0
177 199 0
178 200 0
181 202 0
178 200 0
179 202 0
182 204 0
177 199 0
179 200 0
182 204 0
181 202 0
183 204 0
181 202 0
175 197 0
180 202 0
181 203 0
182 204 0
179 201 0
176 198 0
180 203 0
177 199 0
181 203 0
177 200 0
180 200 0
176 198 0
175 197 0
179 200 0
177 199 0
178 200 0
179 202 0
176 198 0
175 197 0
175 198 0
172 195 0
180 202 0
174 196 0
174 197 0
177 199 0
182 204 0
176 198 0
174 195 0
177 199 0
180 203 0
174 196 0
176 198 0
178 200 0
177 199 0
177 199 0
173 195 0
170 192 0
172 194 0
169 191 0
170 191 0
171 192 0
171 193 0
180 201 0
162 186 84
91 123 166
69 108 175
69 109 184
69 108 181
70 109 186
69 108 181
68 108 184
69 108 186
68 107 181
69 109 184
68 108 186
68 107 183
68 108 186
69 108 188
69 109 188
68 108 186
69 109 188
69 109 188
69 108 184
68 108 184
68 108 188
68 108 188
69 108 188
69 109 184
69 109 188
69 108 186
68 108 184
69 108 186
68 108 186
68 107 183
70 109 184
69 108 179
67 107 183
68 107 175
67 107 184
67 107 175
69 108 177
68 107 179
68 107 170
159 179 177
179 198 101
181 203 38
182 203 69
183 204 56
178 200 38
181 203 63
177 200 38
180 201 56
175 196 38
180 202 38
174 196 93
180 202 56
181 202 25
181 203 80
179 199 69
176 199 56
180 201 0
182 203 63
177 199 89
182 203 56
173 196 93
180 202 80
188 208 104
181 203 0
183 205 69
181 203 69
181 203 69
182 204 69
183 205 69
179 201 69
184 206 104
186 207 89
186 207 89
183 205 56
179 202 69
183 205 69
183 205 89
186 208 104
181 203 56
184 206 104
184 205 89
187 208 111
181 204 56
186 208 111
187 207 80
184 206 80
185 206 56
182 204 69
184 205 80
184 205 80
184 206 89
183 205 97
183 204 38
181 202 38
182 203 38
187 208 111
183 205 56
184 206 80
184 205 69
182 204 69
182 204 38
182 203 0
184 205 56
184 205 69
183 203 69
181 203 69
181 202 38
182 204 0
180 202 0
180 202 0
184 204 0
182 203 0
181 202 0
183 204 0
182 203 0
182 204 0
180 202 0
183 204 0
183 204 0
181 203 0
183 204 0
182 203 0
181 203 0
183 204 0
181 202 0
182 204 0
180 201 0
183 204 0
183 204 0
181 202 0
182 204 0
180 203 0
183 204 0
181 203 0
180 201 0
181 202 0
183 204 0
179 202 0
185 205 0
182 204 0
183 204 0
183 204 0
182 203 0
179 201 0
178 201 0
184 205 0
182 204 0
182 204 0
179 201 0
181 202 0
177 200 0
181 203 0
181 202 0
181 203 0
181 203 0
181 203 0
182 204 0
179 202 0
181 203 0
182 203 0
179 201 0
183 204 0
182 204 0
181 203 0
181 203 0
181 202 0
181 203 0
181 202 0
181 203 0
184 205 0
182 203 0
180 203 0
182 203 0
181 203 0
182 204 0
182 204 0
182 203 0
181 202 0
180 203 0
181 203 0
182 204 0
182 204 0
181 202 0
180 203 0
181 203 0
183 204 0
181 203 0
182 204 0
183 204 0
179 201 0
182 204 0
183 204 0
180 203 0
183 204 0
181 203 0
180 203 0
181 203 0
183 204 0
182 204 0
183 204 0
182 204 0
182 204 0
182 204 0
182 204 0
182 204 0
181 202 0
182 203 0
180 202 0
183 204 0
181 203 0
182 204 0
179 201 0
182 204 0
181 203 0
184 205 0
183 204 0
185 205 0
182 204 0
184 205 0
181 203 0
184 205 0
184 205 0
182 203 0
181 203 0
181 203 0
185 205 0
180 203 0
182 204 0
181 203 0
183 204 0
182 204 0
185 205 0
182 204 0
181 203 0
181 203 0
180 203 0
181 203 0
181 203 0
181 203 0
181 202 0
177 200 0
181 203 0
183 204 0
182 204 0
182 204 0
181 203 0
182 204 0
184 205 0
183 204 0
180 202 0
182 204 0
183 204 0
182 203 0
183 204 0
180 203 0
181 202 0
181 203 0
182 203 0
180 202 0
183 204 0
181 203 0
182 204 0
181 203 0
179 201 0
182 204 0
183 204 0
182 204 0
180 202 0
182 203 0
181 203 0
185 205 0
183 204 0
181 202 0
181 203 0
180 202 0
181 202 0
181 203 0
180 203 0
182 203 0
182 204 0
181 202 0
182 203 0
184 205 0
181 203 0
181 203 0
180 202 0
182 204 0
182 204 0
180 202 0
180 202 0
181 203 0
181 202 0
182 204 0
183 203 0
181 203 0
180 202 0
179 201 0
179 201 0
181 202 0
182 204 0
178 200 0
181 202 0
183 203 0
182 204 0
181 202 0
177 199 0
180 202 0
182 203 0
180 202 0
182 204 0
183 204 0
180 202 0
181 203 0
184 205 0
182 203 0
180 203 0
179 202 0
183 204 0
179 202 0
177 199 0
181 203 0
180 202 0
181 202 0
184 205 0
181 203 0
181 203 0
181 203 0
182 204 0
180 203 0
181 203 0
178 200 0
182 204 0
179 201 0
180 202 0
181 203 0
177 199 0
178 200 0
182 204 0
180 202 0
179 201 0
183 204 0
181 203 0
180 202 0
180 202 0
181 202 0
178 200 0
180 202 0
181 203 0
176 198 0
181 202 0
183 204 0
179 202 0
178 201 0
180 202 0
179 201 0
176 198 0
177 199 0
180 202 0
178 200 0
181 202 0
181 203 0
179 201 0
178 200 0
180 202 0
179 201 0
183 203 0
177 199 0
177 199 0
179 201 0
175 198 0
180 202 0
176 199 0
179 201 0
175 197 0
178 200 0
175 197 0
177 199 0
177 199 0
178 200 0
176 197 0
178 200 0
175 197 0
175 197 0
169 192 0
174 196 0
172 194 0
177 199 0
178 199 0
179 200 0
176 197 0
171 193 0
174 196 0
175 197 0
177 198 0
168 190 0
174 196 0
169 191 0
173 195 38
125 152 142
74 111 175
67 107 179
70 109 184
69 108 186
68 108 179
68 108 186
68 107 174
68 108 186
69 109 184
69 108 188
70 109 188
70 109 186
69 109 188
69 109 188
69 109 188
68 108 186
68 108 184
67 107 186
69 108 188
67 107 184
68 108 188
68 108 188
68 108 186
69 108 188
68 108 188
70 109 188
69 108 186
68 108 186
69 109 188
68 108 186
69 109 188
69 108 188
69 108 183
68 107 183
69 109 186
67 107 184
68 108 184
69 108 184
67 106 168
67 106 172
67 106 170
99 130 166
164 187 93
181 203 38
179 200 0
181 203 63
180 201 48
179 199 56
177 199 0
179 201 48
183 204 69
178 200 48
178 200 56
179 200 48
181 203 80
182 204 69
175 197 25
182 203 25
179 200 56
183 203 48
176 198 69
177 199 38
179 202 69
181 203 75
180 201 56
184 205 69
181 203 69
185 206 69
184 206 80
185 206 80
183 204 69
185 206 89
186 207 89
182 205 80
185 206 80
182 204 80
183 205 80
183 205 56
185 206 80
183 206 97
183 205 80
185 206 69
182 204 80
184 206 97
186 207 104
185 206 97
183 205 80
185 207 104
184 205 56
184 206 80
182 203 80
183 205 89
183 204 80
181 202 38
184 205 97
185 207 89
185 207 97
184 205 69
181 203 56
180 202 56
184 206 89
185 206 69
181 201 38
182 204 69
184 205 69
183 204 38
180 202 56
182 203 38
184 205 0
179 202 0
183 204 0
183 204 0
178 200 0
180 202 0
183 204 0
181 203 0
181 203 0
184 205 0
181 202 0
183 204 0
185 205 0
182 204 0
182 203 0
180 201 0
182 204 0
182 204 0
182 204 0
181 203 0
183 204 0
182 204 0
183 203 0
183 204 0
182 203 0
182 204 0
179 201 0
184 205 0
181 203 0
184 205 0
180 203 0
184 205 0
183 204 0
184 205 0
180 202 0
182 204 0
182 203 0
182 204 0
182 204 0
182 204 0
184 205 0
180 202 0
181 203 0
181 203 0
180 203 0
181 203 0
181 203 0
181 203 0
182 204 0
180 203 0
179 201 0
185 205 0
181 203 0
181 203 0
182 204 0
180 203 0
180 202 0
183 204 0
182 204 0
182 204 0
183 204 0
183 204 0
181 203 0
177 200 0
182 203 0
180 202 0
183 204 0
181 202 0
182 204 0
181 203 0
183 204 0
179 201 0
179 202 0
182 204 0
182 204 0
181 203 0
182 204 0
183 204 0
180 203 0
183 204 0
182 203 0
181 203 0
183 204 0
183 204 0
182 204 0
180 203 0
183 204 0
182 204 0
181 203 0
182 204 0
183 204 0
181 203 0
183 204 0
182 204 0
184 205 0
181 203 0
182 203 0
182 204 0
183 204 0
181 203 0
182 204 0
181 203 0
183 204 0
184 205 0
183 204 0
181 203 0
180 203 0
183 204 0
183 204 0
179 201 0
180 203 0
182 204 0
182 204 0
182 204 0
182 204 0
181 203 0
179 201 0
182 204 0
183 204 0
180 202 0
184 205 0
181 203 0
183 204 0
180 202 0
182 204 0
182 203 0
181 203 0
183 204 0
181 203 0
183 204 0
181 203 0
178 201 0
184 205 0
180 203 0
182 204 0
180 202 0
184 205 0
181 203 0
183 204 0
184 205 0
180 203 0
180 202 0
182 204 0
183 204 0
181 202 0
181 203 0
184 205 0
181 203 0
183 204 0
181 203 0
180 203 0
181 203 0
179 202 0
180 202 0
181 203 0
182 203 0
182 204 0
181 203 0
181 203 0
183 204 0
179 200 0
184 205 0
183 204 0
181 203 0
179 202 0
184 205 0
181 203 0
181 202 0
183 204 0
182 203 0
181 203 0
181 203 0
184 205 0
183 204 0
179 201 0
181 202 0
180 202 0
182 204 0
177 199 0
182 203 0
182 204 0
183 204 0
180 202 0
182 204 0
181 203 0
183 204 0
182 204 0
181 203 0
181 203 0
180 202 0
179 202 0
183 204 0
178 201 0
180 203 0
182 204 0
182 203 0
181 202 0
182 203 0
181 203 0
179 201 0
181 203 0
178 200 0
179 200 0
181 203 0
182 204 0
181 203 0
182 203 0
182 204 0
182 203 0
181 203 0
180 202 0
181 203 0
182 204 0
182 204 0
178 201 0
183 204 0
182 204 0
181 203 0
178 201 0
183 204 0
178 201 0
180 201 0
181 202 0
182 203 0
179 202 0
178 200 0
180 202 0
181 202 0
179 201 0
183 204 0
184 205 0
182 203 0
182 203 0
180 202 0
180 202 0
183 204 0
181 202 0
175 197 0
179 201 0
182 203 0
180 202 0
178 201 0
177 199 0
181 202 0
178 200 0
174 197 0
178 200 0
177 199 0
180 202 0
176 199 0
178 199 0
180 201 0
180 201 0
176 198 0
178 200 0
178 200 0
179 201 0
179 201 0
177 200 0
174 196 0
171 193 0
175 197 0
177 198 0
181 203 0
178 200 0
179 201 0
183 203 0
178 200 0
181 202 0
181 202 0
177 198 0
176 198 0
177 198 0
167 189 0
177 198 0
171 193 0
175 197 0
174 196 0
178 200 0
176 198 0
180 202 0
169 191 0
175 197 0
175 198 0
182 202 0
176 198 0
174 196 0
171 194 0
176 197 0
163 187 69
101 131 158
69 108 181
68 108 179
69 108 183
71 109 183
68 108 184
69 108 184
69 108 186
70 109 188
69 109 188
68 108 186
69 108 186
69 108 186
69 109 188
69 108 188
68 108 188
67 107 183
68 108 188
68 108 188
69 108 186
68 108 186
69 108 188
69 108 188
68 107 186
67 108 188
68 108 186
68 108 184
67 107 188
68 108 188
69 108 188
69 108 183
68 108 188
68 108 186
69 109 188
68 108 181
68 107 184
67 106 181
68 108 186
70 109 183
68 108 188
69 109 184
68 108 186
68 107 177
67 106 174
72 109 170
148 172 104
180 202 38
178 200 69
179 201 104
179 200 63
178 201 69
181 203 38
180 202 63
179 200 38
180 202 80
176 199 38
182 203 56
176 198 93
178 200 56
174 196 63
177 199 48
178 200 0
176 198 0
179 202 69
181 203 89
183 205 97
180 203 38
183 205 89
181 203 56
183 205 89
181 203 38
183 205 69
182 204 56
184 206 104
184 206 97
184 206 80
184 205 80
184 205 69
183 205 80
184 205 69
185 207 97
183 205 80
185 206 89
182 204 0
183 204 56
184 205 69
183 205 69
183 205 69
183 205 89
183 205 89
184 206 97
183 204 80
184 205 56
184 205 56
185 207 89
185 206 80
186 207 89
184 204 80
184 205 56
185 206 69
184 205 69
182 204 38
183 205 69
181 203 0
179 201 38
179 201 38
182 203 0
184 205 56
184 205 56
184 205 0
182 204 0
181 203 0
182 203 0
183 204 0
179 201 0
182 203 0
181 203 0
182 204 0
182 203 0
180 203 0
182 203 0
180 202 0
183 204 0
181 203 0
182 203 0
181 203 0
184 205 0
182 204 0
182 204 0
180 203 0
182 203 0
183 204 0
182 203 0
182 204 0
184 205 0
183 204 0
181 203 0
179 202 0
184 205 0
181 203 0
181 203 0
184 204 0
183 204 0
182 204 0
182 204 0
181 203 0
183 204 0
181 203 0
181 203 0
181 203 0
182 204 0
181 203 0
183 204 0
183 204 0
180 202 0
181 203 0
182 204 0
182 204 0
183 203 0
181 203 0
184 205 0
179 201 0
181 203 0
183 204 0
181 203 0
181 202 0
184 205 0
183 204 0
185 205 0
182 204 0
183 204 0
182 204 0
182 203 0
182 203 0
181 203 0
181 203 0
182 204 0
181 203 0
183 204 0
181 203 0
181 203 0
182 204 0
182 204 0
183 204 0
182 203 0
181 203 0
182 203 0
183 204 0
179 202 0
182 204 0
182 204 0
182 203 0
181 203 0
181 203 0
182 204 0
182 203 0
183 204 0
183 204 0
182 204 0
183 204 0
182 203 0
184 205 0
181 203 0
183 204 0
183 204 0
182 204 0
180 203 0
180 203 0
184 205 0
184 205 0
182 203 0
181 203 0
182 204 0
182 204 0
182 203 0
182 204 0
182 204 0
183 204 0
184 205 0
180 203 0
181 203 0
183 204 0
180 203 0
181 202 0
180 203 0
183 204 0
179 202 0
181 203 0
182 203 0
181 203 0
184 205 0
180 203 0
183 204 0
183 204 0
179 202 0
182 204 0
183 204 0
181 203 0
182 203 0
181 203 0
181 203 0
184 205 0
182 203 0
184 205 0
178 201 0
181 203 0
181 203 0
183 204 0
183 204 0
183 204 0
182 204 0
182 204 0
180 203 0
182 203 0
182 204 0
182 203 0
182 204 0
182 203 0
181 203 0
182 204 0
182 204 0
180 203 0
181 202 0
183 204 0
177 199 0
182 204 0
183 204 0
182 204 0
181 202 0
176 198 0
178 201 0
182 204 0
184 205 0
181 203 0
179 202 0
182 204 0
179 202 0
182 204 0
182 204 0
185 205 0
181 203 0
182 204 0
180 203 0
181 203 0
184 205 0
183 204 0
183 204 0
185 205 0
183 204 0
183 204 0
181 203 0
183 204 0
180 202 0
182 204 0
183 204 0
181 203 0
181 202 0
181 203 0
179 202 0
183 204 0
180 202 0
180 202 0
184 204 0
181 203 0
180 203 0
185 205 0
182 204 0
179 200 0
183 204 0
181 202 0
182 204 0
182 203 0
179 201 0
181 203 0
181 203 0
182 204 0
179 202 0
178 200 0
181 203 0
181 203 0
181 203 0
184 205 0
182 204 0
180 202 0
178 200 0
182 203 0
180 202 0
180 202 0
182 203 0
180 202 0
179 201 0
183 204 0
180 202 0
184 205 0
179 201 0
181 203 0
181 203 0
181 203 0
184 205 0
182 203 0
179 201 0
178 201 0
180 201 0
178 200 0
181 203 0
179 201 0
182 203 0
178 200 0
179 201 0
179 200 0
179 201 0
182 204 0
180 202 0
172 193 0
180 201 0
175 198 0
181 203 0
177 198 0
178 201 0
180 202 0
181 203 0
180 201 0
179 201 0
178 199 0
177 199 0
182 203 0
180 202 0
178 200 0
179 201 0
177 200 0
175 197 0
178 200 0
174 196 0
176 198 0
177 198 0
182 204 0
174 196 0
176 198 0
180 202 0
176 198 0
181 203 0
175 197 0
177 200 0
178 199 0
176 197 0
171 193 0
177 199 0
176 197 0
171 193 0
176 198 0
177 199 0
180 201 0
170 192 0
174 195 0
177 200 0
178 199 0
175 195 0
164 185 0
155 179 89
89 120 156
69 108 179
69 108 179
70 109 184
69 108 177
69 108 184
70 109 183
69 109 184
69 109 184
69 108 186
68 108 186
69 108 184
69 109 188
69 109 188
68 108 186
68 108 188
68 108 188
68 108 188
68 108 188
68 108 188
69 108 188
68 108 188
69 109 188
68 108 188
69 108 188
68 108 188
68 108 188
68 108 188
68 107 184
69 108 188
69 108 188
70 109 188
68 108 188
69 109 188
68 108 188
68 108 188
68 108 184
68 108 184
69 108 188
67 107 177
68 107 175
69 108 183
69 108 181
67 106 174
68 107 175
67 106 172
67 106 172
128 153 132
176 197 56
178 199 25
176 198 0
177 199 48
177 198 63
177 199 0
177 200 56
180 201 25
181 202 0
174 196 0
182 204 56
173 196 56
178 201 104
174 196 93
180 202 38
183 204 56
181 203 89
176 199 63
180 203 63
182 204 0
182 203 25
183 205 80
186 207 89
186 207 104
184 206 80
182 204 56
180 202 0
182 205 97
187 208 118
184 205 89
185 206 89
183 205 69
184 205 69
183 204 69
183 205 69
184 205 69
182 204 89
184 206 80
185 207 104
183 205 56
184 206 69
184 205 80
183 205 80
185 206 80
186 207 97
182 203 80
183 205 69
184 205 89
183 206 89
187 207 89
185 206 89
183 204 69
183 205 56
183 205 56
181 203 38
180 202 56
180 202 0
182 203 38
184 205 38
180 201 38
181 203 38
185 206 89
181 203 0
184 205 0
183 204 0
184 205 0
181 203 0
183 204 0
185 205 0
182 204 0
181 202 0
185 205 0
181 203 0
181 202 0
183 204 0
183 204 0
182 204 0
182 204 0
181 203 0
183 204 0
180 203 0
183 204 0
181 202 0
182 203 0
183 204 0
183 204 0
179 201 0
182 204 0
181 203 0
182 204 0
182 204 0
181 203 0
181 203 0
182 204 0
179 201 0
179 202 0
183 204 0
184 205 0
181 203 0
183 204 0
183 204 0
181 203 0
182 203 0
181 203 0
183 204 0
182 204 0
182 204 0
182 204 0
183 204 0
180 202 0
180 202 0
181 203 0
183 204 0
182 204 0
181 202 0
182 204 0
183 204 0
180 203 0
181 203 0
179 201 0
179 201 0
182 204 0
180 203 0
180 202 0
183 204 0
181 203 0
182 204 0
181 203 0
183 204 0
181 203 0
182 204 0
181 203 0
183 204 0
180 202 0
181 203 0
181 203 0
184 204 0
181 203 0
181 203 0
181 202 0
185 206 0
182 204 0
185 205 0
183 204 0
182 204 0
183 204 0
182 204 0
182 204 0
180 202 0
182 204 0
182 204 0
182 204 0
184 205 0
182 204 0
181 203 0
183 204 0
182 204 0
181 203 0
180 202 0
182 204 0
183 204 0
181 203 0
183 204 0
182 203 0
181 203 0
183 204 0
182 204 0
181 203 0
184 205 0
183 204 0
182 204 0
182 204 0
183 204 0
179 202 0
183 204 0
181 203 0
182 204 0
180 202 0
183 204 0
181 203 0
183 204 0
182 204 0
180 203 0
183 204 0
184 205 0
180 203 0
182 204 0
182 204 0
181 203 0
184 205 0
180 203 0
181 203 0
181 203 0
180 203 0
181 203 0
181 203 0
179 202 0
180 203 0
181 202 0
181 203 0
183 204 0
183 204 0
182 204 0
182 204 0
180 202 0
183 204 0
181 203 0
182 204 0
181 202 0
183 204 0
181 203 0
180 202 0
180 202 0
184 205 0
180 203 0
181 203 0
180 202 0
181 202 0
181 203 0
183 204 0
180 203 0
180 202 0
179 201 0
183 204 0
182 203 0
181 202 0
182 204 0
180 202 0
181 203 0
181 203 0
180 203 0
182 204 0
182 204 0
183 204 0
179 201 0
181 203 0
182 204 0
182 204 0
181 202 0
180 202 0
182 204 0
182 203 0
182 204 0
182 203 0
180 202 0
179 201 0
180 202 0
182 204 0
177 198 0
184 205 0
181 203 0
182 204 0
182 204 0
180 203 0
182 204 0
181 203 0
184 205 0
181 203 0
180 202 0
180 202 0
181 203 0
179 201 0
181 202 0
183 204 0
182 204 0
180 202 0
181 202 0
183 204 0
184 205 0
178 200 0
175 198 0
178 200 0
182 204 0
182 203 0
183 204 0
179 201 0
183 204 0
183 204 0
182 204 0
180 201 0
177 200 0
182 204 0
179 201 0
181 202 0
181 203 0
178 200 0
179 201 0
179 202 0
182 204 0
176 199 0
179 201 0
177 199 0
181 203 0
179 201 0
180 202 0
177 198 0
178 199 0
179 200 0
182 203 0
182 204 0
178 200 0
181 203 0
178 200 0
179 201 0
179 201 0
179 201 0
179 202 0
181 203 0
177 198 0
176 198 0
177 199 0
179 201 0
183 204 0
181 202 0
176 199 0
178 200 0
174 197 0
178 200 0
176 198 0
175 198 0
178 200 0
183 203 0
177 200 0
178 201 0
177 199 0
177 199 0
177 200 0
175 197 0
176 198 0
181 203 0
169 192 0
174 196 0
179 201 0
172 194 0
182 203 0
173 195 0
177 200 0
174 196 0
175 197 0
177 199 0
175 196 0
179 201 0
168 190 0
176 197 0
177 199 0
174 195 0
170 192 0
177 198 0
176 197 0
176 198 0
146 170 111
73 110 172
69 108 183
68 107 181
68 108 183
68 108 184
69 109 186
68 107 183
69 109 184
69 108 184
69 108 184
69 108 183
69 108 188
69 108 186
67 107 186
69 109 188
69 109 188
69 108 188
69 108 188
67 107 188
68 108 188
67 107 188
68 108 188
69 109 188
68 108 188
68 108 188
68 108 186
68 108 188
69 108 188
69 108 188
69 108 188
68 108 188
69 109 188
69 109 186
69 108 184
69 109 186
69 108 188
68 108 186
69 109 186
69 108 184
68 107 183
68 108 184
68 108 183
69 108 186
68 107 174
68 108 183
69 108 175
69 108 179
67 106 174
67 105 162
114 140 142
176 198 84
175 197 72
175 197 48
180 201 38
183 205 56
177 199 69
177 200 38
180 202 69
174 196 56
178 200 75
177 200 97
182 204 0
181 203 48
175 198 84
181 203 69
179 202 56
175 198 75
179 202 75
180 202 80
183 204 84
182 203 38
182 204 80
183 204 56
185 206 97
183 205 80
183 205 89
184 205 69
182 204 56
182 204 56
179 201 69
185 206 80
181 204 80
183 205 38
186 207 97
185 206 89
181 204 80
185 206 89
185 206 69
185 206 89
186 207 80
183 205 69
187 209 129
185 206 80
184 205 69
183 204 56
182 204 56
185 206 69
179 201 38
184 205 69
185 206 56
183 205 69
183 204 56
179 201 38
182 204 56
180 202 38
181 203 38
183 204 56
183 205 69
186 207 80
181 203 69
187 207 56
182 203 0
184 205 0
185 205 0
183 204 0
181 203 0
183 204 0
180 202 0
182 204 0
183 204 0
178 200 0
183 204 0
182 204 0
182 204 0
180 203 0
183 204 0
178 199 0
183 203 0
183 204 0
182 204 0
183 204 0
184 204 0
184 205 0
184 205 0
182 204 0
182 203 0
179 202 0
180 203 0
180 202 0
185 205 0
182 203 0
183 204 0
183 204 0
184 205 0
182 204 0
182 204 0
183 204 0
182 203 0
182 204 0
180 203 0
183 204 0
181 203 0
180 202 0
181 203 0
183 204 0
181 203 0
182 203 0
183 204 0
181 203 0
181 203 0
183 204 0
182 204 0
181 203 0
184 205 0
183 204 0
182 204 0
185 205 0
181 203 0
183 204 0
183 204 0
183 204 0
182 204 0
182 204 0
181 202 0
184 205 0
178 201 0
180 202 0
181 203 0
182 204 0
182 203 0
183 204 0
181 203 0
178 201 0
183 204 0
182 203 0
181 203 0
181 203 0
181 203 0
180 203 0
182 203 0
181 203 0
181 203 0
180 202 0
181 203 0
181 203 0
181 203 0
183 204 0
183 204 0
183 204 0
183 204 0
182 204 0
183 204 0
182 204 0
182 204 0
183 204 0
185 205 0
181 203 0
183 204 0
184 205 0
182 204 0
183 204 0
182 204 0
181 203 0
184 205 0
184 205 0
181 203 0
183 204 0
180 203 0
180 203 0
181 203 0
185 205 0
179 202 0
180 203 0
182 203 0
181 203 0
181 203 0
182 204 0
184 204 0
179 202 0
183 204 0
182 204 0
183 204 0
183 204 0
183 204 0
182 204 0
184 205 0
180 203 0
180 202 0
181 203 0
183 204 0
181 203 0
181 203 0
182 203 0
181 203 0
184 205 0
181 202 0
182 204 0
181 203 0
181 203 0
182 204 0
182 204 0
180 202 0
183 204 0
182 204 0
180 202 0
183 204 0
184 205 0
181 203 0
183 204 0
183 204 0
183 204 0
180 202 0
183 204 0
181 203 0
182 203 0
183 204 0
180 203 0
182 204 0
181 203 0
181 203 0
181 203 0
182 204 0
182 204 0
183 204 0
181 203 0
184 205 0
182 203 0
181 203 0
181 202 0
181 202 0
179 202 0
180 202 0
179 202 0
181 202 0
180 202 0
178 200 0
182 204 0
179 201 0
180 202 0
183 204 0
181 202 0
178 200 0
183 204 0
183 204 0
181 203 0
180 202 0
182 204 0
180 202 0
181 203 0
182 203 0
181 202 0
180 201 0
181 203 0
179 201 0
181 203 0
181 203 0
179 202 0
180 202 0
179 202 0
179 201 0
182 204 0
183 204 0
178 201 0
181 203 0
180 203 0
180 202 0
177 199 0
180 202 0
181 203 0
181 202 0
175 198 0
180 202 0
182 204 0
182 204 0
181 203 0
180 203 0
181 202 0
181 203 0
181 203 0
179 201 0
180 202 0
181 203 0
179 202 0
182 203 0
179 201 0
181 203 0
179 200 0
179 201 0
179 201 0
183 204 0
180 202 0
179 201 0
180 201 0
181 203 0
183 204 0
179 200 0
176 198 0
177 200 0
181 202 0
178 200 0
179 201 0
178 200 0
179 200 0
179 200 0
178 200 0
182 203 0
177 198 0
180 201 0
180 201 0
180 201 0
177 200 0
176 198 0
181 202 0
180 201 0
179 202 0
179 201 0
180 202 0
175 198 0
181 203 0
173 195 0
170 193 0
174 197 0
179 200 0
177 199 0
177 199 0
176 198 0
180 202 0
180 202 0
179 201 0
177 198 0
178 201 0
179 200 0
179 201 0
181 202 0
181 202 0
174 197 0
171 194 0
172 194 0
178 199 0
177 199 0
178 200 0
174 195 0
171 194 0
175 197 0
179 200 0
174 196 0
171 192 0
175 197 0
148 170 111
68 107 181
70 109 181
68 107 174
69 109 183
69 108 183
69 108 183
69 108 186
69 108 183
69 109 186
69 108 184
68 108 188
68 108 184
70 109 188
68 108 184
68 108 188
69 109 188
69 109 188
69 108 188
68 108 188
69 109 188
69 108 188
69 108 188
68 108 188
68 108 188
67 108 188
68 108 188
68 108 188
68 108 188
68 108 188
67 107 186
68 108 188
68 108 186
68 108 186
69 108 186
68 107 186
68 108 184
68 108 188
68 108 184
68 108 188
68 108 184
69 108 184
69 108 184
68 108 183
69 108 183
68 107 181
67 107 179
69 108 175
68 107 175
68 107 174
67 106 172
67 106 172
116 143 134
173 195 69
181 203 80
181 202 38
180 202 38
178 201 48
183 205 56
182 205 80
176 199 75
179 200 38
182 204 69
174 197 63
180 201 25
176 199 48
178 200 38
178 200 56
178 200 80
181 203 38
176 199 56
181 203 80
183 204 38
182 204 80
184 206 97
182 204 80
181 204 80
182 205 89
183 204 38
184 205 80
186 207 69
184 206 80
188 208 97
182 205 104
185 206 97
182 203 69
181 203 80
183 205 56
186 207 97
181 202 38
183 203 69
179 201 38
185 206 89
184 206 80
183 205 56
186 207 97
182 204 56
187 207 89
186 207 89
183 205 89
182 204 38
181 203 56
182 204 69
181 203 38
183 204 89
184 205 69
181 203 38
183 205 80
181 204 38
182 204 69
183 205 80
184 204 69
181 203 0
183 204 0
183 204 0
180 203 0
181 203 0
182 204 0
183 204 0
183 204 0
184 205 0
182 203 0
183 204 0
182 204 0
182 203 0
181 202 0
184 204 0
180 202 0
179 202 0
182 204 0
182 204 0
183 204 0
183 204 0
185 204 0
182 203 0
178 200 0
182 204 0
183 204 0
183 204 0
182 203 0
179 202 0
183 204 0
181 203 0
182 203 0
183 204 0
184 205 0
185 205 0
181 202 0
180 203 0
181 203 0
181 203 0
181 203 0
181 203 0
181 203 0
178 201 0
183 204 0
182 204 0
179 202 0
180 202 0
183 204 0
180 203 0
183 204 0
183 204 0
182 204 0
178 201 0
183 204 0
181 203 0
183 204 0
182 203 0
181 203 0
182 204 0
185 204 0
183 204 0
183 204 0
184 205 0
182 204 0
182 204 0
182 203 0
181 203 0
181 203 0
181 203 0
182 204 0
181 203 0
183 204 0
182 204 0
184 205 0
180 203 0
181 203 0
184 205 0
180 202 0
181 203 0
182 203 0
183 204 0
182 204 0
180 202 0
181 203 0
179 201 0
180 203 0
182 204 0
181 203 0
180 203 0
178 201 0
181 203 0
182 204 0
181 203 0
182 204 0
183 204 0
180 202 0
184 205 0
182 204 0
183 203 0
181 203 0
184 205 0
183 204 0
183 204 0
182 203 0
182 203 0
182 204 0
180 203 0
182 204 0
183 204 0
183 204 0
182 204 0
182 204 0
181 203 0
182 204 0
179 201 0
180 203 0
183 204 0
181 203 0
182 204 0
181 203 0
181 203 0
181 203 0
180 202 0
183 204 0
182 202 0
181 203 0
178 200 0
183 204 0
182 204 0
181 203 0
183 204 0
183 204 0
182 204 0
181 202 0
180 202 0
182 204 0
180 203 0
182 204 0
180 202 0
179 201 0
184 205 0
180 203 0
183 204 0
180 202 0
184 205 0
179 200 0
182 204 0
183 204 0
182 204 0
180 202 0
180 202 0
181 203 0
183 204 0
181 203 0
182 204 0
183 204 0
183 204 0
182 204 0
181 203 0
181 203 0
181 203 0
183 204 0
182 204 0
181 203 0
182 204 0
180 202 0
183 204 0
181 202 0
181 202 0
179 202 0
182 204 0
181 203 0
176 198 0
180 203 0
183 204 0
180 203 0
181 203 0
181 202 0
182 203 0
179 201 0
180 203 0
180 202 0
182 204 0
181 203 0
179 201 0
181 202 0
181 203 0
179 201 0
182 204 0
183 204 0
182 203 0
182 204 0
183 204 0
179 201 0
182 204 0
180 202 0
182 204 0
183 204 0
179 200 0
180 202 0
183 204 0
180 202 0
180 202 0
180 202 0
180 202 0
181 203 0
180 203 0
179 202 0
181 203 0
178 200 0
181 203 0
179 202 0
179 201 0
182 203 0
180 202 0
179 201 0
183 204 0
177 200 0
177 199 0
182 203 0
177 200 0
182 203 0
180 202 0
178 200 0
179 201 0
180 202 0
181 201 0
182 202 0
183 204 0
181 203 0
182 203 0
176 198 0
177 199 0
178 200 0
175 197 0
182 203 0
181 203 0
177 199 0
180 202 0
176 198 0
180 202 0
179 200 0
181 203 0
179 201 0
178 201 0
178 200 0
179 200 0
175 197 0
180 202 0
178 200 0
175 197 0
178 200 0
180 203 0
179 201 0
179 201 0
179 201 0
179 201 0
177 199 0
178 200 0
174 196 0
176 198 0
174 196 0
174 196 0
173 195 0
176 198 0
176 198 0
175 197 0
177 199 0
176 198 0
173 196 0
178 200 0
176 198 0
173 197 0
177 198 0
176 198 0
170 193 0
182 203 0
175 196 0
178 200 0
177 200 0
172 194 0
173 195 0
172 194 0
173 195 0
175 195 0
171 192 0
178 200 0
156 178 97
73 111 175
69 108 181
69 108 181
68 107 177
69 108 181
67 107 184
70 109 184
70 109 184
69 108 186
68 108 183
68 108 186
68 108 184
69 109 188
68 108 188
69 108 188
69 109 188
69 109 188
69 108 188
68 108 186
68 108 188
69 109 188
68 108 188
69 108 188
68 108 188
67 107 188
68 108 188
68 108 188
69 109 188
68 108 188
67 107 188
68 108 188
67 107 188
67 107 186
68 108 188
70 109 188
68 108 188
69 109 188
69 108 188
69 108 184
68 108 184
68 107 186
68 107 183
68 108 183
69 108 184
69 109 186
69 108 183
68 108 184
69 108 188
69 108 183
68 108 181
68 107 170
68 107 170
69 107 175
120 146 137
177 198 38
178 201 48
178 200 91
175 198 75
181 202 69
177 200 25
176 198 56
182 204 56
182 204 56
172 195 103
177 200 89
176 198 48
180 202 84
177 201 84
176 198 48
177 199 38
179 202 80
184 205 80
186 207 111
182 204 56
182 203 56
186 207 97
183 204 0
180 202 56
183 204 80
182 204 38
186 206 80
185 207 104
181 203 0
185 206 80
181 203 38
187 207 97
180 202 80
181 203 69
182 203 0
184 205 69
184 205 80
185 206 80
186 207 111
183 204 69
187 207 97
183 204 56
189 209 104
185 206 80
183 204 38
182 204 56
184 205 56
179 201 38
183 205 56
185 205 56
183 205 69
182 203 0
184 205 56
182 204 38
181 203 56
180 201 38
179 201 80
188 208 80
184 205 0
183 204 0
185 205 0
182 204 0
183 204 0
183 204 0
184 204 0
181 202 0
183 203 0
183 204 0
182 203 0
184 205 0
182 204 0
179 201 0
181 203 0
182 204 0
182 203 0
182 203 0
182 204 0
184 205 0
183 204 0
180 203 0
186 205 0
179 201 0
182 204 0
183 204 0
180 202 0
181 203 0
181 202 0
182 204 0
180 202 0
183 204 0
183 204 0
183 204 0
182 204 0
185 205 0
183 204 0
183 204 0
182 204 0
183 204 0
182 204 0
181 203 0
181 202 0
182 204 0
182 204 0
181 203 0
183 204 0
182 204 0
181 202 0
181 203 0
183 204 0
181 203 0
183 204 0
182 203 0
183 203 0
182 204 0
183 204 0
184 205 0
182 203 0
183 204 0
184 205 0
182 204 0
182 204 0
182 203 0
182 204 0
181 203 0
182 203 0
181 203 0
183 204 0
184 204 0
181 203 0
184 205 0
182 204 0
182 204 0
183 204 0
179 202 0
179 201 0
179 202 0
183 204 0
182 204 0
183 204 0
179 202 0
181 203 0
181 203 0
183 204 0
180 202 0
181 203 0
180 203 0
178 202 0
183 204 0
182 204 0
180 202 0
182 204 0
180 203 0
183 204 0
183 204 0
182 204 0
181 203 0
181 203 0
181 202 0
183 204 0
182 204 0
181 203 0
184 205 0
182 203 0
182 204 0
182 203 0
182 204 0
182 203 0
182 204 0
180 203 0
181 203 0
182 204 0
182 204 0
183 204 0
183 204 0
181 203 0
182 204 0
181 203 0
182 204 0
182 204 0
184 205 0
184 205 0
183 204 0
181 203 0
179 202 0
179 202 0
183 204 0
181 203 0
180 203 0
183 204 0
181 203 0
183 204 0
184 205 0
183 204 0
182 204 0
182 204 0
183 204 0
182 203 0
180 202 0
181 203 0
181 203 0
180 203 0
183 204 0
182 204 0
183 204 0
183 204 0
182 204 0
183 204 0
182 204 0
183 204 0
181 202 0
181 202 0
180 202 0
182 204 0
183 204 0
181 203 0
181 203 0
184 205 0
181 202 0
182 204 0
181 203 0
181 203 0
182 204 0
179 201 0
180 202 0
180 202 0
182 203 0
179 202 0
182 203 0
181 203 0
182 204 0
184 205 0
181 202 0
179 201 0
180 202 0
181 202 0
183 204 0
182 204 0
184 205 0
181 203 0
181 203 0
182 204 0
181 203 0
182 204 0
182 203 0
184 205 0
182 204 0
181 203 0
181 202 0
182 203 0
178 201 0
182 204 0
181 203 0
183 204 0
179 201 0
184 205 0
181 203 0
181 203 0
184 205 0
182 203 0
184 205 0
182 204 0
182 203 0
183 204 0
182 204 0
183 204 0
181 202 0
183 204 0
182 204 0
182 203 0
182 203 0
181 203 0
178 200 0
178 201 0
181 202 0
178 199 0
180 202 0
181 203 0
181 203 0
178 200 0
177 199 0
181 202 0
181 203 0
182 204 0
181 202 0
181 202 0
179 201 0
179 201 0
181 203 0
184 204 0
184 205 0
177 199 0
176 199 0
180 201 0
181 202 0
180 203 0
179 202 0
180 201 0
179 200 0
181 202 0
178 200 0
179 201 0
178 199 0
177 199 0
179 201 0
177 199 0
181 203 0
180 202 0
179 201 0
180 201 0
178 200 0
176 198 0
178 200 0
176 198 0
176 198 0
179 201 0
174 196 0
178 201 0
181 202 0
176 199 0
178 199 0
180 200 0
178 201 0
176 198 0
176 198 0
175 197 0
176 198 0
177 200 0
176 198 0
179 201 0
169 192 0
179 201 0
177 197 0
178 200 0
179 200 0
172 195 0
174 195 0
176 199 0
174 196 0
179 202 0
177 198 0
178 200 0
176 198 0
168 189 0
175 196 0
160 181 89
75 111 166
68 107 174
68 108 177
69 108 181
69 108 177
67 106 172
68 107 183
68 108 181
68 108 188
68 108 184
70 109 188
68 108 186
70 109 186
69 108 188
68 108 188
69 109 188
68 108 188
68 108 188
68 108 188
68 108 188
67 107 188
68 108 188
68 108 188
69 109 188
68 108 188
69 108 188
68 108 188
68 108 188
68 108 188
68 108 188
67 107 188
69 108 188
68 108 188
68 108 188
69 109 188
70 109 188
68 108 188
69 109 188
69 109 188
68 108 188
68 108 188
69 109 188
68 108 186
68 108 188
69 109 183
68 108 184
68 108 186
69 109 186
69 108 184
68 107 179
68 108 183
68 107 177
69 108 175
67 106 177
68 107 172
130 156 137
178 201 56
184 205 69
181 202 48
182 203 69
182 204 38
179 202 80
180 202 75
180 202 56
181 203 84
180 202 56
181 203 69
177 199 89
177 199 75
182 204 38
177 199 69
172 195 75
176 199 110
185 206 108
186 206 89
183 205 69
186 207 80
187 207 111
185 207 111
181 203 56
185 206 89
183 205 69
183 205 80
184 205 69
183 205 80
186 206 80
182 204 69
183 204 56
184 206 89
184 205 69
184 205 69
182 204 80
180 202 69
181 203 69
183 204 80
184 205 69
184 205 80
182 204 38
181 203 38
184 206 69
181 203 38
180 202 0
182 204 38
181 202 0
183 205 69
181 202 56
184 205 69
184 205 69
182 204 56
182 203 56
185 205 56
187 208 97
179 201 38
182 204 0
182 203 0
178 200 0
182 204 0
183 204 0
184 205 0
179 201 0
179 201 0
184 205 0
183 204 0
183 204 0
179 202 0
183 204 0
183 204 0
181 202 0
183 204 0
181 202 0
181 203 0
180 203 0
181 203 0
183 204 0
183 204 0
179 200 0
180 203 0
180 202 0
182 204 0
183 204 0
182 203 0
179 201 0
182 204 0
180 203 0
182 203 0
181 203 0
184 205 0
183 204 0
183 204 0
183 204 0
184 205 0
182 204 0
181 203 0
179 201 0
183 204 0
183 204 0
181 202 0
181 203 0
183 204 0
181 203 0
183 204 0
181 202 0
180 203 0
182 203 0
180 203 0
181 203 0
182 204 0
185 205 0
182 203 0
183 204 0
183 204 0
182 204 0
182 203 0
183 204 0
182 203 0
184 205 0
182 204 0
181 203 0
186 206 0
183 204 0
184 205 0
182 203 0
183 204 0
179 201 0
181 203 0
182 204 0
181 203 0
181 203 0
180 201 0
183 204 0
178 200 0
182 204 0
181 203 0
183 204 0
181 202 0
180 202 0
182 204 0
182 204 0
181 203 0
182 204 0
182 204 0
182 203 0
183 204 0
182 204 0
179 202 0
181 203 0
182 203 0
182 204 0
183 204 0
181 203 0
180 202 0
183 204 0
183 204 0
182 204 0
179 202 0
180 203 0
182 204 0
182 203 0
181 203 0
182 204 0
182 204 0
181 203 0
182 204 0
182 203 0
181 202 0
182 204 0
181 202 0
184 205 0
183 204 0
181 203 0
182 203 0
185 205 0
182 204 0
183 204 0
182 204 0
182 204 0
181 202 0
182 204 0
182 203 0
182 204 0
182 204 0
180 203 0
183 204 0
182 204 0
182 204 0
179 201 0
182 204 0
180 203 0
183 204 0
183 204 0
183 204 0
183 204 0
181 203 0
180 203 0
180 203 0
181 203 0
182 204 0
181 203 0
181 202 0
182 204 0
184 205 0
184 205 0
183 204 0
181 203 0
183 204 0
183 204 0
182 204 0
184 205 0
182 204 0
182 204 0
181 202 0
181 203 0
181 203 0
182 204 0
180 203 0
181 202 0
181 203 0
182 204 0
179 202 0
182 204 0
182 204 0
180 202 0
181 203 0
182 204 0
184 204 0
182 204 0
180 202 0
180 202 0
182 203 0
180 202 0
183 204 0
183 204 0
183 204 0
181 203 0
181 203 0
179 201 0
181 203 0
182 204 0
180 202 0
181 203 0
182 204 0
181 202 0
177 199 0
182 203 0
183 204 0
183 204 0
181 202 0
180 202 0
180 202 0
179 200 0
182 204 0
183 204 0
180 202 0
180 202 0
183 204 0
182 203 0
182 204 0
182 204 0
180 202 0
181 203 0
181 203 0
182 203 0
182 203 0
182 203 0
182 203 0
179 201 0
180 203 0
181 202 0
183 204 0
183 204 0
181 203 0
181 203 0
180 202 0
182 203 0
178 200 0
184 205 0
180 203 0
181 202 0
182 204 0
181 202 0
180 200 0
178 201 0
184 205 0
180 203 0
181 203 0
180 202 0
180 202 0
182 204 0
180 201 0
180 202 0
178 200 0
179 202 0
181 203 0
178 199 0
178 200 0
178 200 0
177 199 0
179 201 0
178 200 0
177 199 0
178 199 0
178 198 0
171 194 0
176 198 0
175 197 0
184 205 0
178 201 0
176 198 0
182 203 0
179 202 0
177 199 0
177 199 0
182 203 0
180 202 0
172 195 0
174 198 0
179 202 0
176 199 0
180 202 0
179 201 0
176 197 0
176 198 0
172 195 0
177 199 0
176 198 0
176 198 0
173 196 0
181 203 0
179 200 0
174 196 0
179 201 0
167 189 0
179 200 0
176 198 0
174 196 0
167 189 0
177 199 0
179 201 0
173 194 56
98 129 162
69 108 175
70 109 179
69 108 183
70 109 179
69 109 186
69 109 186
68 107 181
69 108 186
69 108 186
69 108 184
68 108 186
68 108 188
67 107 186
69 108 188
68 108 188
68 108 188
68 108 188
69 108 188
67 108 188
68 108 188
68 108 188
67 107 188
68 108 188
68 108 188
68 108 188
68 108 188
68 108 188
67 107 188
69 108 188
69 108 188
68 108 186
68 108 188
68 108 188
68 108 188
68 108 188
69 108 188
68 108 188
69 108 188
68 108 188
68 108 186
68 108 186
69 108 186
68 108 188
69 109 184
68 108 184
69 108 186
68 107 183
68 108 184
68 107 174
69 108 181
68 107 175
68 107 177
68 108 181
67 105 166
69 108 177
67 105 162
144 168 121
182 203 63
176 198 38
181 203 56
178 200 38
180 201 38
177 198 75
178 199 48
180 201 38
181 203 56
181 202 48
183 204 75
174 197 80
176 199 63
180 201 69
180 203 84
182 203 56
178 200 56
184 206 80
182 204 38
184 205 89
185 207 89
182 204 80
183 205 56
181 202 69
185 206 89
182 205 89
186 207 89
182 203 0
183 205 97
186 206 80
183 205 69
185 206 89
182 204 80
182 204 80
181 203 38
184 206 80
183 205 56
185 207 104
183 205 56
184 205 0
183 205 80
184 205 38
184 205 38
183 204 56
184 205 0
183 205 38
182 203 69
182 205 89
182 204 69
179 202 56
183 205 38
180 201 56
182 204 0
183 204 56
185 206 80
186 206 0
182 203 0
184 205 0
181 203 0
184 205 0
185 205 0
183 204 0
179 201 0
182 204 0
182 204 0
181 202 0
182 204 0
182 203 0
181 203 0
183 204 0
180 202 0
183 204 0
184 205 0
183 204 0
182 204 0
182 204 0
180 200 0
183 204 0
181 202 0
182 204 0
181 203 0
179 201 0
182 204 0
180 202 0
178 200 0
180 203 0
184 205 0
183 204 0
182 204 0
181 202 0
186 205 0
183 204 0
182 204 0
181 203 0
183 204 0
183 204 0
180 202 0
182 204 0
182 203 0
184 205 0
182 203 0
183 204 0
181 203 0
184 205 0
184 205 0
183 204 0
183 204 0
179 202 0
181 203 0
179 201 0
183 204 0
181 203 0
182 204 0
181 203 0
182 203 0
183 204 0
180 203 0
182 204 0
183 204 0
180 202 0
185 205 0
183 204 0
180 201 0
178 200 0
179 202 0
182 204 0
183 204 0
181 203 0
182 204 0
181 202 0
182 204 0
181 203 0
181 202 0
182 204 0
182 204 0
181 203 0
183 204 0
181 203 0
182 204 0
181 203 0
183 204 0
182 204 0
183 204 0
181 203 0
181 203 0
181 203 0
181 203 0
182 204 0
181 203 0
181 203 0
182 203 0
182 204 0
181 203 0
181 203 0
181 203 0
181 203 0
180 203 0
182 204 0
181 203 0
182 204 0
182 203 0
182 204 0
184 205 0
183 204 0
182 204 0
184 205 0
183 204 0
182 204 0
183 204 0
182 204 0
182 204 0
181 203 0
181 203 0
181 203 0
180 203 0
183 204 0
183 204 0
183 204 0
180 202 0
182 204 0
181 203 0
181 203 0
181 203 0
184 205 0
182 204 0
179 202 0
183 204 0
183 204 0
182 204 0
183 204 0
185 205 0
181 203 0
181 203 0
182 204 0
182 204 0
183 204 0
182 204 0
183 204 0
183 204 0
182 203 0
179 202 0
181 203 0
180 203 0
183 204 0
183 203 0
181 203 0
181 203 0
182 204 0
182 204 0
182 203 0
181 203 0
180 201 0
181 202 0
182 203 0
182 204 0
181 203 0
183 204 0
181 203 0
181 203 0
180 203 0
181 203 0
181 203 0
182 204 0
183 204 0
182 203 0
183 204 0
182 204 0
182 203 0
183 204 0
182 204 0
179 202 0
184 205 0
180 203 0
182 203 0
180 201 0
180 202 0
181 203 0
183 204 0
182 204 0
180 202 0
180 202 0
182 204 0
180 202 0
183 204 0
180 202 0
179 202 0
183 204 0
181 203 0
183 204 0
182 204 0
182 204 0
180 202 0
180 202 0
180 202 0
179 201 0
180 202 0
184 205 0
179 201 0
181 203 0
179 202 0
178 200 0
184 205 0
180 203 0
179 201 0
182 203 0
179 201 0
181 203 0
181 203 0
182 204 0
183 204 0
183 204 0
182 204 0
181 203 0
179 200 0
182 204 0
180 203 0
180 202 0
181 203 0
180 202 0
181 203 0
181 202 0
181 202 0
179 201 0
174 196 0
180 201 0
182 204 0
180 202 0
179 201 0
183 204 0
179 200 0
181 203 0
179 201 0
178 200 0
181 203 0
183 204 0
179 201 0
181 202 0
175 198 0
176 198 0
178 199 0
176 198 0
181 202 0
180 201 0
178 200 0
174 197 0
181 202 0
178 199 0
170 192 0
180 202 0
179 202 0
183 204 0
176 198 0
180 201 0
182 203 0
178 199 0
177 199 0
175 197 0
176 199 0
175 196 0
179 201 0
176 198 0
180 202 0
175 197 0
172 195 0
176 197 0
175 197 0
171 194 0
182 203 0
176 197 0
178 200 0
179 201 0
178 200 0
176 198 0
176 198 0
176 197 0
169 192 0
171 192 0
168 190 0
177 198 0
176 198 0
169 190 0
107 136 151
69 108 181
70 108 177
70 109 184
68 108 179
69 108 181
68 107 177
68 107 184
69 109 184
68 108 188
70 109 188
68 108 188
69 108 186
69 108 186
69 109 186
68 108 188
68 108 188
69 109 188
68 108 188
68 108 188
69 109 188
68 108 188
69 109 188
69 108 188
68 108 188
68 108 188
68 108 188
68 108 188
69 109 188
68 108 188
67 107 188
68 108 188
68 108 188
68 108 188
68 108 188
69 108 188
69 109 188
68 108 188
68 108 186
68 108 186
68 108 188
69 109 186
69 108 186
69 108 186
69 108 188
69 108 188
69 109 188
69 108 183
68 108 186
69 108 181
69 108 183
68 107 183
69 108 188
69 108 177
68 107 174
69 108 179
69 107 170
67 106 168
72 109 164
157 181 97
177 198 80
173 195 56
172 195 75
178 201 75
179 200 0
178 200 48
177 199 89
182 204 69
176 198 48
168 191 56
178 201 69
179 201 56
182 204 56
174 196 69
178 200 69
180 201 48
184 206 80
182 204 56
184 205 69
184 206 80
180 202 69
183 204 69
181 203 56
183 205 97
182 205 89
179 202 56
185 206 97
181 203 69
184 205 89
183 204 38
183 205 56
183 204 104
181 203 38
180 202 80
182 204 69
181 203 56
183 204 56
184 204 56
182 203 0
182 203 0
183 205 69
181 203 38
183 204 38
183 204 56
182 204 0
184 206 80
183 204 0
181 203 0
181 203 0
184 205 38
183 204 0
182 204 69
197 215 149
185 205 0
182 204 0
184 205 0
184 205 0
182 204 0
181 203 0
183 204 0
185 205 0
182 203 0
184 205 0
180 202 0
182 203 0
182 203 0
181 202 0
179 201 0
184 205 0
184 205 0
182 203 0
184 205 0
180 202 0
184 205 0
181 203 0
185 205 0
182 204 0
180 201 0
181 203 0
183 204 0
182 204 0
183 204 0
180 202 0
183 204 0
183 203 0
182 204 0
182 204 0
181 203 0
181 203 0
180 203 0
185 205 0
184 205 0
180 202 0
181 203 0
178 201 0
183 204 0
181 203 0
181 203 0
181 203 0
182 203 0
182 204 0
184 205 0
182 204 0
181 203 0
178 201 0
178 201 0
184 205 0
181 203 0
180 203 0
180 201 0
183 204 0
183 204 0
181 203 0
182 204 0
181 203 0
183 204 0
181 203 0
180 202 0
183 204 0
181 202 0
183 204 0
181 203 0
186 206 0
181 203 0
179 201 0
182 204 0
183 204 0
180 202 0
181 203 0
183 204 0
182 204 0
183 203 0
180 202 0
182 204 0
183 204 0
184 205 0
181 203 0
183 204 0
182 203 0
181 203 0
182 204 0
182 204 0
182 204 0
183 204 0
182 204 0
182 204 0
179 201 0
184 205 0
182 204 0
182 204 0
183 204 0
183 204 0
182 204 0
179 201 0
180 202 0
182 203 0
180 202 0
183 204 0
183 204 0
183 204 0
183 204 0
182 204 0
182 204 0
181 203 0
180 203 0
181 203 0
183 204 0
181 203 0
182 204 0
181 203 0
181 203 0
182 204 0
183 204 0
183 204 0
184 205 0
183 204 0
181 203 0
180 203 0
183 204 0
183 204 0
183 204 0
181 203 0
184 205 0
183 204 0
178 201 0
181 203 0
182 204 0
183 204 0
187 206 0
183 204 0
180 202 0
182 203 0
181 202 0
184 205 0
180 202 0
183 204 0
178 201 0
182 204 0
181 203 0
180 201 0
181 203 0
180 202 0
180 203 0
182 204 0
181 203 0
180 203 0
183 204 0
179 201 0
183 204 0
182 204 0
183 204 0
180 203 0
181 203 0
181 202 0
181 202 0
181 203 0
183 204 0
182 203 0
181 203 0
180 202 0
181 203 0
179 201 0
179 201 0
178 201 0
182 204 0
182 204 0
184 205 0
179 200 0
182 204 0
181 203 0
183 204 0
181 203 0
182 204 0
181 203 0
184 205 0
182 203 0
177 200 0
182 203 0
181 202 0
176 199 0
181 203 0
182 203 0
179 201 0
182 203 0
181 203 0
179 201 0
180 203 0
180 202 0
181 203 0
181 202 0
180 201 0
175 198 0
183 203 0
180 203 0
181 203 0
182 204 0
180 202 0
181 203 0
182 203 0
179 201 0
182 203 0
182 204 0
180 202 0
182 204 0
181 203 0
181 202 0
182 203 0
180 202 0
180 201 0
178 200 0
182 204 0
180 202 0
181 203 0
180 202 0
180 202 0
182 204 0
181 202 0
179 201 0
177 199 0
178 201 0
179 201 0
182 203 0
181 202 0
178 200 0
179 201 0
181 203 0
182 204 0
176 198 0
178 200 0
182 204 0
174 196 0
176 198 0
179 200 0
180 202 0
178 199 0
183 204 0
178 200 0
181 202 0
183 204 0
174 195 0
175 196 0
180 202 0
182 202 0
179 201 0
173 196 0
169 192 0
180 202 0
179 201 0
178 200 0
178 201 0
180 202 0
177 198 0
175 197 0
183 204 0
178 200 0
178 200 0
175 196 0
171 192 0
180 201 0
174 195 0
175 197 0
171 194 0
175 197 0
170 192 0
176 198 0
168 190 0
177 198 0
177 199 0
169 190 0
175 197 0
171 192 0
180 200 0
169 191 0
174 196 0
174 196 0
159 181 0
177 199 0
172 194 0
175 197 0
134 159 126
69 108 179
69 108 186
69 109 183
67 106 174
68 107 174
68 107 184
68 108 184
69 108 183
69 108 183
68 108 181
68 108 186
68 108 184
68 108 188
68 108 188
69 109 188
68 108 188
68 108 188
69 108 188
69 108 188
69 108 188
69 108 188
67 108 188
68 108 188
69 108 188
67 108 188
68 108 188
68 108 188
67 107 188
68 108 188
69 109 188
69 108 188
68 108 188
68 108 188
68 108 188
68 108 188
68 108 188
69 108 188
68 108 186
69 108 186
69 108 188
68 108 186
68 108 188
68 108 186
69 109 188
68 108 184
69 108 184
68 108 188
69 108 188
69 109 186
68 108 183
70 109 186
68 107 179
67 107 181
68 108 183
69 108 183
68 106 174
69 108 175
69 108 183
67 106 166
87 119 153
173 196 56
180 203 84
180 201 63
173 195 97
179 201 69
183 204 38
181 204 93
181 203 56
177 200 56
177 199 69
178 199 48
176 199 69
179 202 56
175 198 38
172 194 38
177 200 75
180 203 80
180 202 38
180 203 56
184 205 69
184 205 56
181 203 38
179 201 56
181 203 69
189 210 129
187 208 89
185 206 80
184 205 56
184 205 69
184 205 38
179 201 38
180 202 69
181 203 0
180 202 38
182 205 69
183 205 97
182 204 56
184 205 56
181 203 38
183 204 56
182 203 38
179 202 0
181 203 69
181 203 0
182 204 80
183 205 80
182 204 56
182 203 56
180 202 38
183 205 38
181 202 38
185 206 89
187 208 89
182 204 0
182 204 0
182 204 0
183 204 0
183 204 0
182 203 0
183 204 0
183 204 0
180 202 0
184 204 0
183 204 0
181 203 0
182 203 0
181 203 0
181 202 0
180 202 0
181 203 0
183 204 0
180 202 0
184 205 0
184 205 0
183 204 0
183 204 0
181 203 0
183 204 0
182 204 0
182 204 0
183 204 0
181 203 0
186 206 0
182 204 0
182 204 0
182 203 0
181 203 0
184 205 0
182 203 0
184 205 0
182 203 0
181 203 0
180 202 0
182 203 0
183 204 0
181 202 0
182 204 0
183 204 0
181 203 0
180 202 0
183 204 0
182 203 0
180 203 0
181 203 0
178 200 0
181 203 0
182 204 0
182 204 0
182 204 0
180 203 0
185 205 0
182 204 0
182 204 0
179 202 0
181 203 0
181 203 0
182 204 0
182 204 0
184 205 0
184 205 0
182 204 0
182 204 0
183 204 0
182 204 0
182 204 0
181 203 0
180 203 0
182 204 0
183 204 0
182 204 0
180 202 0
183 204 0
184 205 0
183 204 0
182 204 0
182 203 0
182 204 0
182 204 0
183 204 0
180 202 0
182 204 0
181 203 0
182 203 0
183 204 0
180 202 0
182 204 0
181 202 0
182 203 0
179 202 0
181 203 0
185 205 0
182 204 0
183 204 0
183 204 0
183 204 0
181 203 0
180 203 0
184 205 0
183 204 0
180 202 0
181 203 0
183 204 0
182 204 0
184 205 0
181 203 0
183 204 0
180 203 0
185 205 0
182 204 0
181 203 0
182 204 0
182 204 0
183 204 0
181 203 0
182 204 0
180 203 0
182 204 0
181 203 0
181 203 0
184 205 0
182 204 0
183 204 0
179 202 0
182 204 0
183 204 0
181 203 0
182 204 0
180 202 0
181 203 0
183 204 0
183 204 0
181 203 0
183 204 0
182 204 0
180 203 0
184 205 0
180 203 0
180 203 0
180 201 0
183 204 0
181 203 0
181 202 0
179 201 0
181 203 0
181 203 0
180 203 0
182 203 0
183 204 0
181 203 0
182 204 0
183 204 0
182 203 0
181 203 0
180 202 0
184 205 0
182 203 0
181 202 0
183 204 0
178 201 0
183 204 0
183 203 0
181 203 0
180 202 0
184 205 0
182 204 0
182 204 0
182 204 0
181 203 0
181 203 0
180 202 0
181 203 0
179 201 0
177 200 0
183 204 0
178 201 0
182 203 0
182 204 0
182 204 0
182 203 0
180 203 0
184 205 0
181 203 0
182 204 0
182 204 0
183 204 0
180 202 0
180 202 0
177 201 0
179 201 0
181 202 0
179 201 0
184 205 0
182 204 0
183 204 0
179 201 0
182 204 0
181 203 0
181 203 0
179 200 0
180 202 0
181 202 0
176 198 0
178 201 0
181 203 0
178 199 0
181 203 0
181 203 0
182 203 0
180 202 0
180 202 0
183 204 0
179 201 0
179 202 0
182 204 0
182 204 0
181 202 0
180 202 0
175 198 0
182 204 0
181 203 0
178 200 0
181 203 0
182 204 0
180 201 0
179 201 0
177 200 0
179 202 0
178 199 0
180 202 0
183 204 0
179 201 0
184 205 0
182 204 0
178 199 0
177 199 0
178 200 0
182 202 0
179 201 0
180 202 0
179 201 0
178 200 0
176 198 0
174 196 0
177 200 0
177 199 0
179 201 0
181 203 0
174 197 0
175 196 0
177 199 0
177 200 0
175 196 0
176 199 0
175 197 0
175 196 0
176 197 0
178 200 0
179 200 0
174 198 0
180 201 0
176 198 0
177 199 0
178 201 0
172 194 0
178 200 0
179 201 0
175 197 0
176 198 0
171 193 0
174 196 0
170 191 0
175 197 0
178 200 0
170 193 0
178 200 0
166 188 0
172 192 0
175 197 0
167 188 84
74 110 168
69 107 172
70 109 181
68 107 177
68 107 177
69 108 177
67 107 183
68 107 184
68 108 183
69 108 184
69 109 186
68 108 188
68 108 184
68 108 188
68 108 186
70 109 188
68 108 188
69 108 188
68 108 186
68 108 186
68 108 188
68 108 188
68 108 188
68 108 188
69 108 188
68 108 188
68 108 188
68 108 188
68 108 188
68 108 188
69 108 188
68 108 188
68 108 188
68 108 188
68 108 188
68 108 188
68 108 188
68 108 186
68 108 188
68 108 188
68 108 188
69 108 188
69 108 186
69 109 188
68 108 186
69 108 188
68 108 188
69 108 188
68 108 183
68 107 183
69 109 188
69 108 181
68 108 184
69 108 181
68 107 177
68 108 184
66 105 170
68 106 170
68 107 172
68 107 174
67 106 162
131 156 104
181 202 38
183 204 48
175 196 52
180 202 25
171 193 63
177 200 84
175 197 63
179 201 48
178 200 63
175 198 56
180 202 63
183 205 56
173 195 63
176 199 80
178 200 63
180 203 56
177 199 38
182 204 38
180 202 56
178 200 69
182 204 56
183 205 80
181 203 38
181 203 38
182 204 38
182 204 38
180 203 38
182 204 69
182 205 97
181 203 56
180 202 38
181 203 38
181 202 0
183 204 38
181 203 38
183 205 56
183 204 38
182 204 56
180 203 56
181 204 89
183 204 0
184 205 38
182 203 38
180 201 56
183 203 56
184 205 69
183 205 56
181 204 56
181 203 69
186 206 104
192 212 139
184 205 0
182 203 0
182 203 0
182 203 0
183 204 0
184 205 0
182 203 0
183 204 0
183 204 0
183 204 0
182 203 0
183 204 0
183 204 0
181 202 0
181 202 0
185 205 0
180 203 0
183 204 0
184 205 0
180 202 0
183 204 0
184 205 0
182 204 0
183 204 0
183 204 0
184 205 0
181 203 0
182 204 0
183 204 0
181 203 0
184 204 0
181 203 0
181 202 0
181 203 0
183 204 0
180 203 0
180 203 0
180 202 0
182 204 0
182 204 0
182 204 0
183 204 0
183 204 0
182 204 0
182 204 0
181 203 0
182 204 0
182 203 0
179 202 0
182 203 0
183 204 0
181 203 0
183 204 0
182 203 0
182 204 0
180 203 0
180 202 0
182 204 0
181 203 0
182 204 0
182 204 0
180 202 0
183 204 0
184 205 0
182 204 0
182 204 0
183 204 0
183 204 0
181 203 0
182 204 0
180 203 0
182 203 0
184 205 0
182 203 0
184 205 0
183 204 0
183 204 0
179 201 0
182 204 0
178 200 0
184 205 0
183 204 0
184 205 0
184 205 0
181 203 0
181 203 0
182 204 0
181 202 0
183 204 0
182 204 0
183 204 0
181 203 0
182 204 0
180 203 0
182 204 0
180 203 0
183 204 0
181 203 0
181 202 0
183 204 0
183 204 0
179 201 0
183 204 0
181 203 0
180 202 0
181 203 0
180 202 0
183 204 0
183 204 0
181 203 0
180 203 0
180 202 0
183 204 0
181 203 0
181 203 0
182 204 0
181 203 0
182 204 0
182 204 0
182 204 0
182 204 0
183 204 0
182 204 0
180 202 0
181 203 0
182 204 0
182 204 0
183 204 0
182 204 0
182 204 0
183 204 0
181 203 0
183 204 0
182 204 0
181 203 0
180 203 0
184 205 0
182 203 0
182 204 0
181 202 0
181 203 0
182 204 0
180 202 0
183 204 0
179 202 0
184 205 0
181 203 0
179 201 0
183 204 0
181 203 0
177 200 0
181 203 0
181 203 0
182 204 0
180 203 0
182 204 0
179 201 0
182 203 0
181 203 0
181 203 0
182 204 0
183 203 0
180 202 0
180 203 0
181 203 0
180 202 0
179 202 0
181 203 0
182 204 0
179 201 0
183 204 0
181 202 0
182 204 0
182 203 0
181 203 0
180 202 0
182 204 0
178 201 0
182 204 0
181 203 0
182 203 0
183 204 0
180 202 0
179 201 0
180 201 0
184 205 0
182 204 0
180 202 0
182 204 0
182 204 0
182 204 0
181 203 0
182 204 0
182 204 0
181 202 0
183 204 0
182 204 0
183 204 0
179 201 0
181 202 0
181 203 0
180 202 0
181 203 0
183 204 0
182 204 0
181 202 0
183 204 0
180 202 0
181 203 0
182 203 0
182 203 0
181 203 0
178 201 0
179 201 0
177 200 0
182 204 0
180 202 0
180 202 0
175 197 0
181 203 0
177 200 0
183 204 0
181 202 0
184 205 0
181 202 0
180 202 0
180 202 0
182 204 0
178 200 0
178 200 0
179 201 0
181 203 0
178 201 0
182 203 0
183 204 0
177 199 0
183 204 0
179 201 0
177 200 0
177 199 0
178 201 0
177 199 0
179 201 0
177 199 0
178 200 0
177 198 0
177 199 0
179 202 0
183 204 0
181 203 0
180 201 0
175 198 0
181 203 0
174 198 0
178 200 0
181 203 0
177 200 0
182 203 0
178 200 0
176 197 0
182 203 0
177 199 0
182 203 0
178 201 0
172 195 0
178 200 0
177 199 0
177 200 0
179 201 0
174 198 0
179 202 0
172 194 0
180 202 0
173 196 0
179 199 0
174 196 0
176 198 0
176 198 0
178 200 0
173 195 0
177 200 0
166 189 0
169 191 0
177 198 0
172 195 0
177 198 25
105 135 149
70 108 175
69 109 183
68 107 181
69 108 183
69 108 186
68 108 179
70 109 181
68 108 181
68 107 183
70 109 188
68 108 188
68 108 188
68 108 184
67 107 183
69 109 188
68 108 188
69 108 188
69 109 188
68 108 186
69 108 186
68 108 188
68 108 186
68 108 188
69 109 188
68 108 188
68 108 188
69 108 188
69 108 188
68 108 188
68 108 188
69 108 188
68 108 188
68 108 188
68 108 188
68 108 188
69 109 188
69 108 188
69 108 188
68 108 186
68 108 186
68 108 188
68 108 188
68 108 186
69 108 188
69 108 188
69 108 186
70 109 186
69 109 188
68 107 184
68 108 186
69 109 186
68 108 183
69 108 183
69 108 177
68 108 181
68 108 179
69 108 183
68 106 168
69 108 179
68 107 172
65 104 158
66 104 151
165 187 104
178 200 84
179 201 80
181 203 63
183 204 56
181 203 48
181 203 75
180 202 84
179 201 48
172 194 56
177 199 63
182 204 84
178 202 104
178 200 38
179 202 63
181 203 0
181 203 56
182 204 0
180 203 69
180 202 69
179 202 38
183 204 56
183 205 80
182 204 38
179 202 56
179 201 56
181 203 69
181 203 56
180 203 38
183 205 80
184 205 69
182 204 56
183 205 80
178 200 0
180 203 56
182 203 69
182 204 69
180 202 56
181 201 0
181 203 56
183 204 38
184 205 38
180 200 0
183 204 0
181 202 0
179 201 69
182 204 0
182 204 80
181 202 69
199 217 166
182 203 0
184 205 0
184 204 0
182 203 0
180 202 0
184 204 0
183 204 0
181 203 0
184 205 0
184 205 0
182 204 0
182 204 0
183 204 0
182 204 0
180 202 0
182 204 0
182 204 0
181 203 0
181 202 0
182 203 0
181 203 0
185 205 0
184 205 0
182 203 0
184 204 0
182 204 0
183 204 0
179 202 0
183 204 0
183 204 0
181 203 0
180 202 0
178 200 0
181 203 0
183 204 0
181 202 0
183 204 0
181 203 0
181 203 0
182 204 0
180 203 0
183 203 0
182 204 0
181 203 0
182 204 0
182 204 0
182 203 0
181 202 0
184 205 0
184 205 0
181 203 0
180 203 0
179 201 0
183 204 0
182 204 0
183 204 0
180 203 0
180 202 0
182 204 0
180 203 0
182 204 0
182 204 0
181 203 0
182 203 0
179 202 0
182 204 0
180 203 0
182 203 0
180 202 0
179 202 0
184 205 0
181 203 0
182 204 0
183 204 0
182 204 0
181 202 0
182 204 0
181 202 0
183 204 0
184 205 0
184 205 0
181 203 0
184 205 0
183 204 0
182 203 0
181 203 0
183 204 0
182 203 0
180 203 0
181 203 0
181 203 0
182 203 0
180 203 0
181 203 0
181 203 0
183 204 0
181 203 0
182 204 0
182 203 0
181 203 0
180 202 0
182 204 0
183 203 0
181 202 0
182 204 0
180 202 0
182 204 0
180 202 0
181 203 0
181 203 0
182 203 0
181 203 0
184 205 0
183 204 0
180 203 0
181 203 0
182 204 0
183 204 0
180 202 0
181 203 0
183 204 0
183 204 0
180 202 0
181 203 0
182 204 0
183 204 0
180 203 0
182 203 0
179 201 0
182 204 0
184 205 0
182 204 0
184 205 0
179 202 0
180 202 0
183 204 0
185 205 0
181 203 0
184 205 0
182 204 0
181 203 0
182 204 0
180 203 0
181 203 0
183 204 0
182 204 0
183 204 0
181 203 0
183 204 0
180 203 0
180 202 0
184 205 0
183 204 0
181 203 0
181 203 0
182 204 0
182 204 0
181 203 0
183 204 0
183 204 0
182 204 0
181 203 0
183 204 0
182 204 0
180 203 0
179 202 0
183 204 0
182 204 0
181 203 0
180 202 0
180 202 0
179 201 0
183 204 0
183 203 0
181 203 0
180 202 0
180 202 0
182 204 0
183 204 0
181 203 0
183 204 0
181 202 0
182 204 0
183 204 0
180 202 0
181 203 0
181 203 0
179 200 0
183 204 0
182 204 0
181 203 0
180 202 0
179 201 0
183 204 0
182 203 0
180 202 0
184 205 0
183 204 0
180 202 0
182 204 0
179 201 0
179 202 0
182 203 0
179 201 0
182 204 0
181 203 0
181 202 0
183 204 0
178 200 0
183 204 0
178 200 0
182 203 0
183 204 0
178 200 0
177 200 0
178 200 0
179 201 0
182 203 0
178 200 0
182 203 0
179 200 0
182 203 0
179 201 0
181 203 0
180 202 0
177 200 0
183 204 0
182 204 0
182 204 0
182 203 0
180 202 0
177 200 0
181 202 0
180 203 0
178 201 0
178 200 0
180 203 0
175 197 0
179 201 0
182 203 0
178 200 0
177 199 0
180 201 0
179 200 0
181 203 0
178 200 0
177 199 0
179 201 0
175 196 0
178 198 0
175 197 0
179 200 0
180 202 0
179 201 0
181 203 0
178 199 0
176 199 0
177 199 0
177 200 0
179 201 0
172 194 0
179 201 0
178 201 0
180 202 0
172 195 0
182 203 0
180 202 0
174 196 0
174 196 0
172 194 0
176 197 0
179 200 0
179 202 0
176 198 0
170 192 0
173 195 0
172 194 0
178 199 0
167 190 0
176 198 0
170 191 0
175 196 0
176 199 0
176 198 0
170 191 0
171 194 0
136 160 111
69 108 177
69 108 179
71 109 183
70 109 183
69 108 183
69 108 184
69 108 179
69 108 186
68 108 186
69 108 184
69 109 184
68 108 188
68 108 188
67 107 184
68 108 184
68 108 188
68 108 188
69 109 186
68 108 188
68 108 188
69 109 188
68 108 188
68 108 188
68 108 188
69 108 188
68 108 188
68 108 188
68 108 188
68 108 188
69 108 188
68 108 188
68 108 188
68 108 188
69 108 188
69 108 188
69 109 188
69 108 188
68 108 188
68 108 188
69 108 188
68 108 186
69 109 188
68 108 188
68 108 186
68 108 184
69 109 186
69 109 188
69 108 188
69 108 186
69 108 184
68 107 183
69 108 184
69 108 184
67 107 179
68 107 177
69 109 184
69 108 183
69 109 184
68 107 175
69 108 181
68 107 172
68 107 175
67 106 166
102 131 151
175 198 56
181 202 48
178 199 69
179 201 48
181 203 63
181 203 38
178 200 69
181 203 69
180 202 56
177 200 38
178 200 75
179 200 48
173 196 80
178 200 63
181 203 0
181 203 38
180 202 56
180 203 56
180 202 69
180 203 80
180 203 38
181 203 38
179 201 56
183 204 38
182 204 38
181 204 69
180 203 38
180 202 0
182 204 56
181 203 56
182 204 56
180 203 56
184 205 0
181 203 0
182 204 69
182 203 0
181 203 38
181 203 56
183 205 80
182 204 56
181 203 38
182 204 80
183 204 38
181 203 80
183 204 56
183 205 69
186 206 89
203 219 181
185 206 56
184 205 0
181 203 0
183 204 0
180 201 0
186 205 0
184 205 0
183 204 0
178 200 0
180 203 0
182 204 0
183 204 0
181 203 0
181 202 0
180 202 0
183 204 0
183 204 0
183 204 0
183 204 0
182 204 0
183 204 0
183 204 0
183 204 0
182 204 0
180 203 0
179 201 0
180 202 0
184 204 0
180 202 0
184 205 0
183 204 0
183 204 0
178 201 0
179 202 0
184 205 0
181 203 0
184 205 0
182 204 0
181 203 0
184 204 0
183 204 0
180 203 0
180 203 0
181 203 0
178 201 0
183 203 0
179 202 0
183 204 0
183 204 0
183 204 0
182 203 0
183 204 0
182 204 0
183 204 0
182 204 0
182 204 0
183 204 0
183 204 0
182 203 0
182 204 0
181 203 0
183 204 0
181 203 0
183 204 0
184 204 0
183 204 0
181 203 0
181 202 0
182 204 0
181 203 0
181 202 0
183 204 0
181 203 0
181 203 0
181 203 0
181 202 0
183 204 0
183 204 0
182 204 0
181 203 0
182 204 0
181 203 0
184 205 0
182 204 0
180 202 0
182 204 0
182 204 0
181 203 0
181 203 0
180 203 0
182 204 0
183 204 0
181 203 0
183 204 0
183 203 0
179 202 0
182 204 0
182 203 0
179 202 0
176 199 0
182 204 0
181 203 0
182 203 0
183 204 0
182 203 0
180 203 0
183 204 0
181 203 0
182 204 0
183 204 0
182 203 0
181 203 0
182 204 0
181 203 0
180 203 0
180 203 0
184 205 0
184 205 0
180 202 0
182 204 0
182 204 0
181 203 0
180 202 0
183 204 0
179 202 0
181 203 0
183 204 0
183 204 0
183 204 0
182 204 0
180 203 0
180 203 0
182 204 0
181 203 0
184 205 0
183 204 0
181 203 0
181 203 0
179 202 0
184 205 0
184 205 0
181 203 0
182 204 0
182 204 0
183 204 0
181 203 0
181 202 0
181 203 0
182 204 0
182 204 0
181 203 0
182 204 0
179 201 0
182 204 0
180 203 0
183 204 0
181 203 0
181 203 0
182 204 0
183 204 0
183 204 0
178 201 0
181 203 0
182 204 0
182 203 0
180 201 0
181 203 0
184 205 0
182 203 0
179 202 0
182 203 0
179 202 0
182 204 0
182 204 0
181 202 0
179 202 0
183 204 0
181 202 0
184 205 0
181 203 0
180 202 0
183 204 0
183 204 0
180 202 0
179 202 0
183 204 0
181 203 0
180 203 0
179 201 0
178 201 0
183 204 0
185 205 0
181 203 0
181 203 0
179 202 0
182 204 0
181 203 0
178 201 0
184 205 0
179 202 0
183 204 0
177 201 0
181 202 0
181 203 0
179 201 0
179 201 0
180 202 0
179 201 0
177 199 0
181 202 0
183 204 0
177 200 0
176 199 0
182 204 0
181 203 0
178 200 0
178 200 0
180 200 0
180 202 0
182 204 0
181 203 0
181 202 0
177 199 0
181 203 0
180 201 0
180 202 0
178 200 0
179 201 0
182 204 0
179 202 0
180 202 0
178 200 0
181 203 0
183 204 0
182 203 0
178 199 0
180 203 0
180 202 0
177 199 0
182 204 0
178 200 0
181 202 0
179 202 0
182 203 0
175 197 0
184 205 0
182 204 0
178 200 0
175 197 0
178 200 0
175 197 0
178 201 0
177 200 0
178 200 0
176 198 0
180 200 0
180 202 0
173 196 0
176 198 0
179 200 0
179 201 0
177 200 0
178 199 0
178 200 0
178 200 0
175 197 0
178 200 0
180 201 0
176 198 0
173 195 0
176 196 0
175 198 0
177 198 0
180 202 0
176 197 0
178 200 0
167 189 0
172 194 0
177 199 0
177 198 0
173 194 0
172 194 0
162 184 0
169 191 0
173 193 0
173 195 0
167 189 25
94 126 153
69 108 172
69 108 183
70 109 183
70 109 183
70 109 183
71 110 188
69 109 186
69 108 188
70 109 188
69 109 184
68 108 184
68 108 188
69 109 184
69 109 188
69 109 188
69 109 188
69 108 186
69 108 186
69 109 188
68 108 188
69 109 186
68 108 188
68 108 188
68 108 188
69 108 188
68 108 188
68 108 188
69 108 188
68 108 188
69 109 188
68 108 188
68 108 188
67 107 188
68 108 188
68 108 188
68 108 188
68 108 188
68 108 188
68 108 186
68 108 188
68 108 188
69 108 188
68 108 188
68 108 188
69 108 188
69 108 186
69 108 188
69 109 188
69 109 188
69 108 186
68 107 181
68 108 186
69 108 186
70 109 184
69 108 183
70 109 181
69 108 186
70 109 183
68 108 177
68 107 177
69 108 179
68 107 174
67 105 158
67 106 162
149 172 108
178 200 56
182 203 56
178 200 75
183 205 69
181 202 63
176 198 84
178 200 69
177 201 80
178 201 56
177 200 56
179 201 56
177 199 75
180 203 56
178 201 0
183 204 56
180 203 38
180 203 38
181 202 38
180 201 38
181 203 38
179 200 0
180 204 89
179 200 0
182 204 38
181 203 56
181 204 69
182 203 0
182 204 38
181 203 38
182 204 56
183 204 0
181 203 38
181 203 0
184 205 69
183 204 56
184 205 38
182 204 69
182 205 97
182 204 38
184 205 56
180 201 38
181 203 80
179 201 56
182 203 0
187 207 97
202 219 181
188 209 111
182 204 0
183 204 0
183 204 0
182 203 0
183 204 0
182 204 0
184 205 0
182 203 0
182 204 0
182 204 0
182 203 0
180 201 0
184 205 0
182 204 0
184 205 0
179 201 0
181 203 0
182 204 0
182 204 0
180 202 0
182 204 0
182 204 0
179 202 0
182 204 0
181 203 0
184 205 0
181 203 0
185 205 0
181 203 0
181 202 0
181 203 0
181 203 0
184 205 0
181 203 0
181 203 0
181 203 0
181 203 0
182 203 0
182 204 0
183 204 0
180 203 0
183 204 0
180 202 0
181 202 0
184 205 0
181 203 0
181 203 0
181 203 0
181 203 0
181 203 0
181 202 0
183 204 0
180 202 0
181 203 0
179 201 0
180 203 0
180 203 0
180 203 0
182 203 0
182 204 0
183 204 0
182 204 0
182 204 0
182 204 0
183 204 0
180 201 0
180 203 0
181 203 0
182 204 0
183 204 0
181 203 0
182 204 0
181 203 0
179 201 0
183 204 0
182 204 0
183 203 0
182 203 0
181 203 0
183 204 0
181 203 0
181 202 0
181 203 0
180 202 0
181 203 0
182 204 0
181 203 0
183 204 0
183 204 0
181 203 0
182 204 0
182 204 0
183 204 0
183 204 0
182 204 0
181 203 0
177 199 0
185 205 0
183 204 0
182 204 0
183 204 0
182 204 0
181 203 0
181 203 0
182 204 0
183 204 0
181 203 0
182 204 0
182 204 0
182 204 0
181 203 0
180 203 0
183 204 0
179 202 0
183 204 0
177 201 0
183 204 0
183 204 0
181 203 0
181 203 0
183 204 0
181 203 0
183 204 0
182 204 0
182 204 0
182 204 0
183 204 0
184 204 0
183 204 0
181 202 0
182 204 0
183 204 0
183 204 0
180 202 0
183 204 0
183 204 0
183 204 0
182 204 0
182 204 0
182 204 0
180 202 0
182 204 0
182 204 0
181 203 0
182 204 0
182 203 0
184 205 0
182 204 0
183 204 0
182 203 0
180 202 0
182 204 0
181 203 0
182 203 0
181 203 0
182 204 0
184 204 0
182 204 0
182 203 0
180 201 0
183 204 0
183 204 0
182 204 0
182 204 0
180 202 0
181 203 0
179 201 0
183 204 0
180 203 0
181 203 0
183 204 0
181 202 0
183 204 0
183 204 0
182 204 0
183 204 0
181 202 0
182 204 0
182 204 0
181 203 0
183 204 0
184 204 0
179 202 0
180 202 0
181 202 0
182 204 0
182 204 0
183 204 0
184 205 0
181 202 0
180 203 0
180 202 0
182 204 0
177 200 0
182 203 0
182 204 0
180 202 0
178 201 0
180 203 0
183 204 0
183 204 0
180 202 0
180 202 0
177 200 0
181 202 0
183 204 0
182 204 0
180 201 0
181 202 0
181 203 0
180 202 0
180 203 0
180 203 0
181 203 0
181 202 0
180 202 0
181 202 0
179 201 0
178 200 0
181 202 0
179 202 0
181 203 0
181 202 0
176 199 0
177 201 0
179 201 0
180 202 0
184 204 0
178 199 0
181 203 0
180 202 0
182 204 0
180 202 0
176 197 0
177 199 0
179 200 0
181 203 0
181 203 0
180 202 0
179 200 0
180 201 0
176 198 0
177 199 0
180 201 0
178 200 0
182 204 0
180 202 0
174 197 0
176 199 0
175 197 0
177 199 0
178 199 0
177 199 0
178 199 0
178 200 0
177 200 0
177 199 0
175 197 0
179 201 0
179 201 0
173 195 0
177 200 0
177 199 0
171 194 0
175 197 0
179 200 0
175 197 0
179 200 0
175 197 0
173 195 0
176 198 0
177 199 0
179 201 0
173 196 0
174 196 0
178 199 0
175 198 0
177 198 0
179 201 0
166 189 0
167 189 0
172 192 0
170 192 0
169 192 0
175 196 0
169 190 0
141 164 114
69 107 170
70 108 177
67 105 160
70 108 177
68 107 177
67 107 174
69 109 184
67 107 183
70 109 181
68 107 175
68 108 186
69 108 188
68 108 184
69 109 188
68 108 186
69 108 188
68 108 186
69 109 188
69 108 188
68 108 186
69 108 188
69 109 188
68 108 188
69 108 188
69 109 188
68 108 188
68 108 188
69 109 188
68 108 188
67 107 188
69 108 188
67 107 188
69 108 188
68 108 188
68 108 188
68 108 188
67 107 188
67 107 188
68 108 188
69 109 188
68 108 188
68 108 188
68 108 188
68 108 186
68 108 188
69 108 188
68 108 188
69 109 186
69 108 184
69 108 186
68 108 188
69 109 186
69 108 184
69 108 184
68 107 181
69 108 183
69 108 183
68 107 179
69 108 179
69 108 175
69 108 177
67 106 168
66 105 170
66 104 153
67 106 170
92 123 153
180 202 63
177 199 63
174 196 101
179 201 63
175 198 80
182 203 0
179 201 63
178 199 38
177 199 80
176 198 38
177 199 56
179 201 38
180 203 38
182 203 56
181 203 56
181 203 0
178 201 38
183 205 56
181 203 0
178 200 0
181 203 56
181 203 56
182 204 56
181 203 56
181 203 38
180 203 69
180 203 38
183 205 97
181 203 56
180 202 0
181 203 0
182 204 69
182 204 69
182 204 0
184 205 38
182 204 56
183 204 38
181 203 38
181 202 56
180 202 38
185 206 69
184 205 38
181 203 0
191 211 124
212 227 218
194 213 149
180 203 0
183 204 0
182 203 0
185 205 0
184 205 0
183 204 0
183 203 0
182 204 0
182 203 0
182 204 0
185 205 0
184 205 0
182 203 0
183 204 0
182 203 0
183 204 0
183 204 0
180 202 0
182 203 0
182 203 0
180 201 0
183 204 0
182 204 0
183 203 0
181 203 0
182 204 0
179 201 0
182 204 0
183 204 0
182 204 0
179 201 0
180 202 0
183 204 0
183 204 0
181 203 0
180 202 0
182 204 0
181 202 0
182 202 0
181 203 0
180 203 0
180 202 0
184 205 0
182 203 0
182 204 0
182 204 0
181 203 0
183 204 0
179 201 0
181 203 0
183 204 0
182 204 0
181 203 0
181 203 0
180 203 0
182 204 0
180 202 0
180 203 0
182 204 0
183 204 0
181 203 0
182 204 0
181 203 0
182 204 0
181 203 0
181 202 0
183 204 0
178 201 0
180 202 0
180 203 0
182 204 0
183 204 0
182 203 0
184 205 0
182 204 0
180 202 0
182 203 0
181 202 0
180 202 0
180 203 0
182 204 0
183 204 0
182 203 0
180 202 0
182 203 0
184 204 0
181 203 0
183 204 0
179 201 0
181 203 0
180 202 0
182 204 0
184 205 0
180 203 0
180 202 0
183 204 0
180 203 0
182 204 0
185 205 0
182 204 0
183 204 0
183 204 0
181 203 0
180 203 0
183 204 0
183 204 0
180 202 0
181 203 0
182 204 0
178 201 0
182 204 0
180 203 0
183 204 0
184 205 0
181 203 0
182 204 0
184 205 0
181 203 0
183 204 0
185 205 0
181 203 0
181 203 0
183 204 0
181 203 0
182 204 0
185 205 0
182 204 0
183 204 0
179 201 0
180 202 0
182 204 0
182 204 0
181 202 0
184 205 0
182 203 0
181 202 0
181 203 0
178 201 0
181 203 0
182 204 0
183 204 0
180 202 0
183 204 0
180 202 0
179 202 0
181 203 0
183 204 0
182 204 0
184 205 0
180 202 0
183 204 0
179 202 0
183 204 0
182 204 0
180 203 0
182 204 0
180 203 0
183 204 0
180 203 0
181 203 0
182 204 0
183 204 0
183 204 0
183 204 0
180 203 0
181 203 0
180 203 0
180 203 0
181 203 0
182 203 0
183 204 0
183 204 0
180 202 0
181 203 0
182 204 0
183 204 0
182 203 0
181 203 0
180 203 0
178 200 0
182 204 0
180 202 0
182 203 0
181 203 0
181 202 0
181 203 0
181 203 0
178 200 0
181 203 0
181 203 0
183 204 0
182 204 0
181 203 0
181 203 0
182 204 0
183 204 0
181 203 0
183 204 0
182 204 0
182 204 0
181 202 0
182 204 0
179 202 0
181 203 0
181 203 0
178 201 0
180 202 0
176 199 0
183 204 0
180 203 0
179 201 0
182 204 0
182 204 0
180 201 0
182 203 0
180 202 0
178 200 0
179 202 0
177 198 0
179 201 0
181 202 0
182 203 0
182 204 0
180 202 0
178 200 0
181 202 0
178 200 0
178 201 0
181 202 0
183 203 0
181 203 0
182 203 0
183 204 0
178 200 0
177 200 0
178 200 0
179 201 0
183 204 0
181 202 0
179 202 0
178 201 0
178 200 0
180 202 0
176 199 0
179 202 0
181 203 0
175 197 0
179 202 0
179 201 0
177 199 0
174 197 0
177 199 0
175 198 0
178 200 0
177 199 0
182 203 0
176 197 0
173 196 0
170 193 0
175 198 0
178 200 0
177 200 0
180 202 0
177 200 0
180 202 0
177 200 0
176 198 0
180 202 0
177 199 0
176 198 0
173 195 0
180 202 0
170 192 0
170 192 0
175 197 0
175 197 0
174 196 0
177 199 0
170 192 0
167 189 0
170 193 0
175 197 0
175 196 0
177 197 0
173 194 0
174 196 0
162 185 0
88 121 164
68 107 170
69 108 181
69 108 175
68 107 172
68 107 172
70 109 183
68 108 181
68 108 184
69 108 181
69 109 188
69 108 186
69 108 186
68 108 186
68 108 183
69 109 186
70 109 188
69 109 188
68 108 188
69 108 186
69 108 188
69 108 188
69 108 188
68 108 188
68 108 188
68 108 188
68 108 188
67 108 188
68 108 188
68 108 188
69 108 188
68 108 188
68 108 188
68 108 188
69 109 188
68 108 188
69 108 188
69 108 188
68 108 186
68 108 188
69 108 188
68 108 188
68 108 188
68 108 184
68 108 186
69 108 188
69 108 188
70 109 188
69 109 188
68 108 184
69 108 186
69 108 186
70 109 186
69 108 181
69 109 184
69 108 184
69 108 184
70 109 184
69 108 183
69 109 184
69 108 174
70 109 184
70 109 184
68 107 174
69 108 177
68 107 170
67 106 166
149 172 118
179 201 75
184 204 56
181 203 63
182 204 56
172 194 69
175 196 63
177 200 63
178 201 63
176 199 89
177 199 63
177 199 0
181 203 38
180 202 56
182 204 56
180 202 0
180 203 69
179 201 69
180 202 38
182 203 56
182 203 0
182 204 80
178 201 38
181 204 56
183 205 56
181 203 0
182 204 56
182 204 38
179 202 56
182 204 69
182 203 38
181 203 0
182 204 69
177 200 38
182 204 69
183 204 0
185 206 56
180 202 69
183 205 69
182 204 38
180 202 56
183 205 38
194 213 149
209 225 207
192 211 144
179 201 0
182 203 0
181 203 0
183 204 0
183 204 0
178 199 0
183 204 0
186 206 0
182 203 0
184 204 0
184 204 0
179 200 0
183 203 0
183 204 0
184 205 0
183 204 0
182 204 0
182 203 0
181 203 0
181 203 0
181 203 0
182 203 0
182 203 0
182 204 0
181 203 0
184 205 0
181 202 0
182 204 0
183 204 0
178 200 0
182 203 0
180 202 0
184 205 0
182 204 0
182 204 0
181 203 0
182 204 0
182 203 0
182 204 0
183 204 0
181 203 0
184 205 0
182 203 0
181 203 0
181 203 0
181 203 0
183 204 0
184 205 0
183 204 0
181 202 0
182 203 0
183 204 0
182 204 0
182 203 0
182 204 0
182 203 0
182 204 0
182 203 0
183 204 0
181 202 0
184 205 0
181 202 0
185 205 0
182 204 0
179 202 0
181 203 0
180 203 0
181 203 0
183 204 0
183 204 0
181 203 0
182 204 0
179 202 0
180 202 0
183 204 0
182 204 0
181 203 0
180 203 0
181 203 0
184 204 0
184 205 0
182 203 0
181 203 0
183 204 0
181 203 0
180 203 0
180 203 0
181 203 0
180 203 0
183 204 0
183 204 0
184 205 0
183 204 0
181 203 0
183 204 0
180 203 0
182 203 0
181 203 0
183 204 0
180 202 0
183 204 0
180 202 0
181 203 0
180 203 0
181 203 0
182 204 0
183 204 0
182 203 0
181 203 0
182 204 0
182 204 0
180 202 0
181 203 0
181 203 0
182 204 0
180 203 0
182 203 0
182 204 0
182 204 0
182 204 0
181 203 0
182 204 0
186 206 0
183 204 0
183 204 0
182 204 0
182 204 0
183 204 0
180 203 0
182 204 0
182 204 0
183 204 0
181 203 0
182 204 0
180 203 0
179 202 0
183 204 0
181 203 0
180 203 0
182 204 0
181 203 0
180 202 0
181 203 0
181 202 0
185 205 0
179 202 0
182 204 0
184 205 0
180 202 0
181 203 0
181 203 0
182 204 0
182 204 0
183 204 0
181 202 0
182 204 0
183 204 0
183 204 0
179 202 0
184 205 0
182 204 0
183 204 0
182 204 0
183 204 0
182 204 0
181 203 0
183 204 0
179 201 0
180 203 0
183 204 0
181 203 0
182 203 0
182 204 0
182 204 0
183 204 0
181 203 0
184 205 0
182 204 0
181 203 0
182 203 0
181 203 0
177 200 0
180 201 0
180 202 0
178 200 0
178 201 0
183 204 0
181 203 0
181 203 0
181 203 0
181 202 0
181 203 0
180 202 0
183 204 0
180 203 0
182 204 0
183 204 0
181 203 0
183 204 0
181 203 0
182 204 0
183 204 0
183 204 0
180 201 0
180 203 0
181 203 0
182 204 0
183 204 0
183 203 0
181 203 0
181 203 0
181 202 0
182 203 0
181 202 0
180 203 0
181 202 0
179 201 0
180 202 0
181 202 0
179 201 0
178 200 0
179 201 0
183 204 0
182 203 0
183 204 0
178 201 0
180 202 0
177 200 0
182 203 0
176 198 0
182 204 0
182 203 0
178 200 0
179 201 0
181 203 0
176 198 0
180 203 0
180 202 0
182 204 0
178 200 0
178 200 0
177 198 0
177 200 0
178 199 0
180 202 0
179 200 0
179 200 0
182 203 0
179 201 0
175 197 0
174 196 0
181 202 0
177 199 0
182 204 0
179 199 0
177 199 0
180 201 0
175 198 0
178 200 0
170 192 0
174 195 0
171 193 0
180 201 0
172 193 0
176 198 0
172 195 0
178 202 0
173 196 0
175 196 0
174 196 0
174 195 0
174 195 0
179 201 0
170 193 0
172 194 0
163 185 0
172 195 0
173 194 0
171 192 0
174 196 0
170 193 0
179 202 0
174 195 0
172 194 0
172 194 0
170 192 0
167 189 0
142 166 93
69 108 175
69 108 174
70 109 184
69 108 181
70 108 181
69 108 179
69 108 183
69 108 184
69 108 179
70 109 183
68 108 183
69 108 186
68 108 188
68 108 184
68 108 188
69 109 186
68 108 186
68 108 188
69 108 188
68 108 188
69 109 188
68 108 188
68 108 186
68 108 188
68 107 186
68 108 188
68 108 188
69 108 188
68 108 188
69 108 188
69 108 188
69 109 188
68 108 188
68 108 188
68 108 188
68 108 188
69 108 188
68 108 188
68 108 188
68 108 186
69 108 188
69 108 188
69 108 188
68 108 188
68 108 186
68 108 188
68 108 188
68 108 186
69 108 184
69 108 188
67 107 186
69 109 188
69 108 184
69 108 181
69 108 183
69 108 184
70 109 181
68 108 183
68 107 179
68 108 184
69 108 181
69 108 181
68 107 172
68 107 175
67 106 160
68 107 166
67 106 162
102 131 139
179 202 69
180 200 25
180 201 25
172 194 75
180 201 38
178 200 80
175 197 63
174 196 80
177 200 0
182 203 56
182 203 56
181 204 56
180 202 56
176 199 56
180 202 56
180 203 56
182 204 38
183 205 80
182 204 38
182 204 38
181 203 97
181 204 80
183 204 38
182 203 0
181 204 56
183 205 80
180 202 56
182 204 56
179 201 56
185 206 80
184 205 69
181 202 56
183 204 0
181 203 0
184 205 38
184 205 38
183 204 38
183 204 38
179 202 69
184 206 80
205 222 194
212 228 224
195 214 153
184 205 38
183 203 0
183 204 0
183 204 0
183 204 0
183 204 0
179 201 0
183 204 0
181 203 0
182 203 0
184 205 0
184 204 0
183 203 0
180 202 0
181 203 0
183 204 0
180 202 0
182 204 0
181 202 0
181 203 0
180 203 0
183 204 0
182 204 0
180 203 0
182 204 0
182 204 0
182 204 0
179 201 0
180 202 0
181 202 0
184 205 0
183 204 0
182 203 0
182 204 0
183 204 0
183 204 0
183 204 0
181 203 0
182 204 0
182 204 0
181 202 0
183 204 0
182 203 0
182 204 0
180 202 0
179 202 0
181 203 0
181 203 0
180 202 0
180 203 0
182 203 0
185 205 0
182 204 0
182 204 0
184 205 0
182 204 0
183 204 0
181 202 0
183 204 0
182 204 0
181 203 0
181 203 0
181 202 0
184 205 0
179 202 0
184 205 0
180 202 0
182 204 0
181 203 0
182 204 0
183 203 0
181 203 0
179 202 0
182 204 0
179 202 0
180 202 0
181 203 0
182 204 0
182 204 0
183 204 0
180 203 0
181 203 0
183 204 0
182 204 0
181 203 0
182 204 0
183 204 0
177 199 0
182 204 0
181 202 0
181 203 0
181 203 0
182 204 0
184 205 0
180 203 0
182 203 0
180 203 0
182 203 0
182 203 0
183 204 0
181 203 0
182 204 0
179 201 0
183 204 0
180 203 0
180 202 0
180 203 0
179 201 0
183 204 0
182 203 0
181 203 0
182 204 0
182 203 0
180 203 0
180 203 0
182 203 0
182 204 0
183 204 0
181 203 0
181 202 0
181 202 0
183 204 0
183 204 0
183 204 0
182 204 0
184 205 0
179 200 0
180 203 0
182 204 0
182 204 0
182 204 0
180 203 0
182 204 0
182 204 0
180 203 0
181 203 0
183 204 0
182 204 0
183 204 0
179 201 0
182 204 0
182 204 0
182 203 0
183 204 0
182 204 0
181 203 0
180 203 0
183 204 0
180 202 0
181 203 0
183 204 0
181 203 0
183 204 0
180 203 0
182 204 0
180 202 0
182 204 0
180 203 0
182 203 0
181 203 0
182 204 0
180 203 0
180 203 0
180 202 0
181 203 0
182 204 0
179 202 0
179 202 0
180 203 0
181 203 0
179 201 0
181 203 0
181 203 0
183 204 0
181 203 0
180 203 0
180 201 0
183 204 0
181 203 0
184 205 0
180 202 0
182 204 0
180 202 0
181 203 0
182 203 0
181 203 0
176 198 0
180 203 0
180 201 0
183 204 0
185 205 0
178 201 0
180 202 0
181 203 0
180 202 0
182 204 0
182 203 0
181 203 0
179 202 0
182 204 0
179 202 0
181 203 0
183 204 0
180 202 0
182 204 0
180 202 0
182 204 0
179 200 0
183 203 0
183 204 0
182 203 0
179 202 0
179 202 0
181 203 0
184 205 0
182 204 0
179 201 0
177 200 0
181 202 0
181 203 0
182 204 0
178 200 0
177 200 0
182 204 0
177 199 0
177 200 0
179 201 0
180 202 0
179 202 0
176 197 0
181 203 0
181 202 0
181 202 0
181 203 0
179 202 0
181 203 0
173 195 0
182 203 0
175 196 0
182 203 0
177 200 0
181 202 0
178 200 0
179 201 0
179 200 0
177 199 0
178 201 0
178 201 0
177 200 0
171 193 0
177 198 0
178 199 0
173 195 0
178 200 0
176 197 0
179 200 0
180 201 0
169 193 0
179 201 0
180 201 0
176 198 0
178 200 0
176 199 0
175 197 0
176 199 0
176 198 0
177 199 0
172 194 0
181 202 0
180 201 0
177 199 0
177 198 0
172 194 0
172 194 0
173 195 0
173 196 0
173 196 0
166 188 0
176 198 0
174 196 0
172 194 0
165 188 0
171 193 0
172 193 0
171 193 0
171 194 0
171 193 0
178 200 0
105 134 139
70 109 177
69 108 170
69 108 179
69 108 177
69 108 181
68 107 177
69 108 181
69 108 183
69 108 181
69 109 188
70 109 188
69 108 179
69 108 184
67 107 186
69 109 186
69 108 186
69 109 186
68 108 186
68 108 188
70 109 188
69 108 188
69 109 188
68 108 188
68 108 186
69 108 188
68 108 188
67 107 186
68 108 188
67 107 188
69 108 188
68 108 188
68 108 188
68 108 188
69 109 188
67 107 188
69 108 188
68 108 188
68 108 186
69 109 188
68 108 188
68 108 188
69 109 188
69 109 186
69 108 188
68 107 186
69 109 188
68 108 184
68 108 184
69 109 186
68 108 186
67 107 184
68 108 188
69 108 184
69 108 183
68 108 183
68 107 179
69 108 183
69 108 184
69 109 183
68 107 179
69 108 179
68 107 177
69 108 179
69 107 172
70 108 179
69 107 166
67 106 166
67 105 156
188 206 174
179 200 89
180 202 56
185 207 97
180 201 0
182 203 97
177 198 56
182 204 69
178 199 38
179 201 56
182 203 0
179 202 69
182 204 38
178 201 69
182 203 56
180 202 0
182 204 56
179 202 38
181 204 56
183 204 38
181 204 80
178 201 0
182 204 69
180 203 38
184 205 56
182 204 0
183 205 80
181 203 56
182 204 69
184 205 56
181 203 38
182 204 56
183 204 0
180 203 38
181 202 38
181 203 38
182 203 0
182 204 56
195 213 149
213 228 224
211 227 218
190 210 124
183 204 0
179 201 0
181 202 0
183 204 0
181 203 0
183 204 0
179 201 0
183 204 0
183 204 0
182 203 0
182 204 0
182 204 0
182 204 0
185 204 0
184 205 0
183 204 0
185 205 0
179 202 0
184 205 0
180 202 0
177 199 0
183 203 0
184 205 0
182 203 0
182 203 0
183 203 0
180 201 0
182 204 0
181 202 0
182 203 0
182 204 0
181 203 0
183 204 0
181 202 0
182 204 0
184 204 0
182 204 0
180 201 0
181 203 0
183 204 0
184 205 0
182 203 0
184 205 0
182 204 0
184 205 0
183 204 0
181 202 0
182 204 0
179 202 0
181 202 0
180 202 0
183 204 0
179 201 0
182 204 0
182 203 0
182 204 0
183 204 0
183 204 0
181 203 0
181 202 0
181 203 0
181 203 0
183 203 0
181 203 0
182 204 0
177 200 0
182 204 0
180 203 0
183 204 0
182 204 0
182 203 0
184 205 0
181 203 0
184 205 0
180 202 0
182 204 0
182 204 0
181 203 0
182 203 0
182 204 0
183 204 0
185 205 0
180 203 0
180 202 0
184 205 0
182 204 0
180 202 0
181 203 0
184 205 0
181 203 0
180 203 0
180 203 0
177 200 0
183 204 0
182 204 0
181 203 0
181 202 0
183 204 0
182 204 0
182 203 0
182 204 0
183 204 0
182 204 0
183 204 0
182 203 0
182 203 0
182 204 0
183 203 0
181 203 0
179 201 0
182 203 0
181 203 0
181 202 0
181 202 0
180 202 0
182 204 0
183 204 0
183 204 0
181 203 0
182 204 0
181 202 0
182 204 0
182 204 0
184 205 0
184 205 0
181 203 0
184 205 0
183 204 0
183 204 0
183 204 0
183 204 0
183 204 0
183 204 0
182 204 0
184 205 0
181 203 0
181 203 0
181 203 0
184 205 0
184 205 0
183 204 0
182 203 0
181 203 0
181 203 0
181 203 0
183 204 0
180 202 0
183 204 0
181 203 0
182 204 0
179 201 0
183 204 0
182 204 0
179 202 0
182 204 0
183 204 0
181 203 0
184 205 0
182 203 0
181 203 0
181 203 0
183 204 0
181 203 0
181 203 0
181 202 0
179 201 0
179 202 0
183 204 0
180 203 0
183 204 0
182 204 0
181 203 0
181 203 0
180 202 0
183 204 0
183 204 0
182 204 0
182 204 0
184 205 0
183 204 0
183 204 0
183 204 0
177 200 0
180 202 0
181 203 0
181 203 0
181 203 0
182 204 0
180 203 0
179 201 0
180 202 0
178 200 0
182 204 0
183 204 0
183 204 0
181 203 0
182 203 0
179 201 0
183 204 0
177 200 0
178 200 0
182 204 0
181 203 0
184 205 0
180 202 0
178 201 0
181 203 0
177 199 0
178 200 0
179 201 0
181 203 0
178 200 0
181 202 0
182 203 0
179 202 0
182 204 0
177 199 0
177 200 0
176 198 0
180 202 0
181 203 0
180 202 0
180 202 0
182 204 0
177 199 0
179 201 0
184 204 0
178 200 0
179 201 0
178 201 0
176 199 0
179 201 0
180 202 0
181 202 0
181 202 0
177 200 0
181 203 0
176 198 0
179 202 0
176 198 0
177 199 0
178 199 0
180 202 0
179 201 0
176 198 0
177 200 0
176 197 0
180 201 0
176 199 0
177 199 0
183 204 0
181 202 0
180 201 0
181 202 0
177 199 0
175 197 0
176 198 0
180 203 0
177 198 0
177 199 0
180 202 0
177 198 0
180 201 0
181 201 0
176 199 0
171 195 0
174 195 0
174 196 0
179 200 0
173 196 0
174 196 0
179 200 0
174 196 0
177 200 0
179 202 0
168 191 0
169 191 0
165 188 0
177 198 0
170 192 0
172 193 0
161 183 0
173 195 0
170 192 0
173 196 0
176 198 0
171 194 0
173 195 0
162 184 63
67 104 137
70 108 177
69 108 179
69 108 177
71 109 181
70 109 184
69 109 183
68 108 186
69 108 181
69 108 184
68 108 183
69 108 181
68 108 184
69 108 184
70 109 186
69 108 184
68 108 188
68 108 188
68 108 188
68 108 188
68 108 184
68 108 186
68 108 188
68 108 186
68 108 188
69 108 188
68 108 188
68 108 188
69 108 188
69 108 188
69 109 188
69 108 188
68 108 188
68 108 188
69 109 188
69 108 188
69 108 188
69 108 188
68 108 186
68 108 188
68 108 188
69 108 188
69 108 188
69 108 188
69 109 186
69 109 188
68 108 188
69 108 188
68 108 184
69 108 184
69 108 186
69 108 186
68 108 188
68 108 188
69 108 183
68 108 183
68 107 177
68 108 184
69 109 186
69 108 177
69 109 183
70 109 179
70 109 177
68 107 177
68 107 175
67 106 168
67 106 166
68 106 166
66 105 160
154 174 193
215 230 234
196 214 166
181 203 56
181 202 69
178 201 56
181 202 0
183 205 56
180 202 89
181 203 69
183 204 56
181 203 89
179 201 38
182 204 38
179 201 56
182 203 69
181 203 38
182 203 0
179 200 38
178 200 0
181 203 0
181 203 38
180 202 38
181 204 80
182 202 0
183 204 38
180 202 0
183 205 69
182 204 69
182 203 0
183 204 0
183 204 38
183 203 38
181 202 38
184 204 38
184 205 38
188 209 124
206 223 198
213 229 226
204 221 198
185 205 104
180 202 0
183 204 0
181 202 0
182 203 0
182 204 0
183 204 0
180 202 0
181 203 0
183 203 0
182 204 0
183 204 0
179 201 0
180 201 0
181 202 0
180 202 0
184 205 0
180 203 0
178 201 0
181 202 0
181 202 0
183 204 0
183 204 0
181 203 0
182 203 0
184 205 0
178 200 0
184 205 0
182 204 0
182 204 0
183 203 0
181 202 0
180 202 0
182 204 0
182 203 0
184 205 0
180 202 0
180 203 0
181 202 0
180 201 0
183 204 0
181 203 0
181 203 0
180 202 0
182 203 0
182 203 0
179 201 0
183 204 0
183 204 0
181 203 0
178 201 0
179 200 0
183 204 0
183 204 0
184 205 0
182 204 0
180 203 0
184 205 0
181 203 0
176 198 0
181 203 0
182 204 0
179 201 0
180 202 0
182 204 0
181 203 0
182 204 0
183 203 0
183 203 0
183 204 0
181 203 0
180 203 0
180 203 0
181 203 0
182 204 0
182 204 0
181 203 0
181 203 0
183 204 0
181 203 0
180 202 0
182 204 0
182 204 0
182 204 0
182 204 0
181 203 0
183 204 0
182 204 0
182 204 0
184 205 0
181 203 0
180 202 0
182 203 0
183 204 0
182 204 0
180 202 0
184 205 0
182 204 0
182 204 0
183 204 0
181 203 0
180 203 0
182 203 0
182 204 0
185 205 0
184 205 0
181 203 0
180 203 0
181 203 0
182 204 0
183 204 0
181 203 0
179 201 0
183 204 0
182 204 0
181 203 0
182 204 0
181 203 0
183 204 0
183 204 0
183 204 0
180 203 0
179 201 0
180 202 0
183 204 0
180 202 0
184 205 0
183 204 0
183 204 0
183 204 0
182 204 0
185 205 0
183 204 0
179 202 0
183 204 0
183 204 0
182 204 0
185 205 0
182 203 0
181 202 0
183 204 0
185 205 0
180 202 0
181 203 0
182 204 0
182 204 0
177 201 0
184 205 0
182 204 0
182 204 0
182 204 0
184 205 0
180 203 0
182 204 0
182 204 0
182 204 0
183 204 0
181 202 0
183 204 0
180 202 0
182 204 0
180 202 0
183 204 0
182 204 0
178 201 0
181 202 0
181 203 0
182 204 0
181 203 0
178 201 0
177 200 0
183 204 0
180 201 0
181 203 0
181 203 0
179 201 0
183 204 0
180 203 0
181 203 0
179 200 0
182 203 0
182 204 0
182 204 0
182 204 0
182 204 0
182 204 0
179 201 0
180 202 0
181 203 0
180 202 0
182 204 0
182 203 0
183 204 0
180 202 0
183 204 0
180 203 0
183 204 0
181 203 0
180 202 0
182 203 0
183 204 0
179 202 0
182 204 0
182 203 0
179 201 0
181 202 0
180 202 0
181 203 0
177 200 0
179 201 0
180 202 0
179 201 0
182 203 0
180 201 0
180 202 0
182 203 0
182 204 0
181 202 0
180 202 0
181 203 0
179 200 0
180 202 0
181 203 0
179 201 0
180 202 0
178 200 0
182 204 0
179 202 0
181 202 0
182 204 0
180 202 0
181 202 0
178 200 0
181 203 0
180 202 0
176 197 0
179 201 0
176 199 0
177 198 0
177 199 0
179 201 0
178 201 0
179 201 0
174 197 0
176 199 0
180 201 0
179 201 0
180 201 0
178 200 0
178 199 0
184 205 0
179 201 0
177 198 0
181 203 0
179 200 0
180 201 0
177 200 0
177 199 0
175 197 0
181 202 0
174 197 0
174 196 0
175 198 0
183 204 0
174 197 0
176 198 0
176 198 0
178 200 0
172 194 0
171 192 0
174 197 0
178 200 0
170 192 0
176 198 0
168 190 0
178 199 0
179 201 0
171 193 0
170 193 0
171 193 0
177 198 0
171 193 0
171 193 0
169 190 0
176 197 0
171 192 0
172 193 0
170 191 0
178 200 0
172 194 0
142 166 114
70 109 181
68 107 168
69 108 175
68 107 172
69 108 175
70 109 184
69 108 179
69 108 181
68 108 181
69 108 181
69 108 181
69 108 186
70 109 186
69 108 184
67 107 184
69 108 186
69 108 184
70 109 184
68 108 186
68 108 188
70 109 188
68 108 188
68 108 186
69 109 188
68 108 188
68 108 188
68 108 186
67 107 188
69 109 188
69 108 188
69 108 188
69 108 188
69 108 188
68 108 188
68 108 186
69 109 188
69 109 188
69 108 188
68 108 188
69 108 186
67 107 188
69 108 188
68 108 188
68 108 188
69 109 186
68 108 186
69 108 188
69 108 186
69 108 186
68 108 186
68 108 186
69 109 188
68 108 183
69 108 188
68 108 183
68 107 174
69 109 184
68 107 174
69 108 181
69 108 183
69 108 183
67 106 175
69 108 183
70 108 177
68 107 168
69 108 174
67 106 164
68 107 172
68 106 160
102 130 174
211 225 237
212 226 234
207 222 215
199 216 170
180 203 56
177 200 69
182 204 0
179 201 56
185 206 69
178 200 80
183 204 0
181 203 0
182 202 38
181 203 56
181 203 0
182 203 0
182 204 56
181 203 0
181 204 69
182 203 38
182 204 69
180 202 38
182 203 56
180 202 0
183 205 56
182 204 69
182 204 56
182 204 38
184 205 56
184 205 69
181 203 38
182 204 38
182 204 69
191 211 153
204 221 191
213 228 226
205 222 204
193 212 162
183 204 69
180 202 0
179 201 0
181 203 0
179 201 0
179 200 0
182 203 0
183 204 0
184 205 0
183 204 0
182 204 0
181 202 0
182 204 0
183 204 0
182 204 0
185 205 0
183 204 0
184 204 0
181 202 0
182 203 0
184 204 0
183 204 0
181 203 0
181 203 0
182 203 0
183 204 0
179 202 0
181 202 0
181 203 0
183 204 0
181 202 0
182 203 0
182 204 0
182 203 0
181 203 0
183 204 0
182 204 0
183 204 0
183 204 0
180 202 0
180 202 0
184 204 0
180 202 0
182 204 0
183 204 0
182 204 0
183 204 0
181 203 0
182 204 0
182 203 0
181 202 0
184 205 0
182 204 0
179 201 0
179 201 0
180 202 0
183 204 0
181 203 0
182 203 0
181 203 0
182 203 0
183 204 0
179 202 0
181 203 0
184 205 0
182 204 0
180 202 0
183 204 0
180 202 0
179 202 0
179 202 0
184 205 0
181 203 0
181 203 0
182 203 0
181 203 0
181 203 0
179 201 0
182 204 0
183 204 0
182 204 0
182 204 0
181 203 0
183 204 0
182 204 0
183 204 0
182 204 0
183 204 0
181 202 0
179 201 0
183 204 0
182 204 0
182 204 0
181 203 0
179 202 0
181 203 0
182 204 0
183 204 0
182 204 0
183 204 0
180 202 0
183 204 0
181 203 0
183 204 0
182 203 0
183 204 0
183 204 0
181 203 0
181 203 0
182 204 0
180 203 0
181 203 0
183 204 0
182 203 0
183 204 0
184 205 0
183 204 0
182 204 0
182 203 0
184 204 0
182 203 0
182 203 0
182 203 0
179 202 0
182 204 0
184 205 0
182 204 0
181 203 0
181 202 0
181 203 0
181 203 0
181 203 0
181 203 0
182 204 0
178 200 0
181 203 0
182 203 0
182 204 0
181 202 0
181 203 0
184 205 0
182 204 0
181 202 0
180 203 0
182 204 0
183 204 0
181 203 0
180 203 0
184 205 0
182 204 0
182 204 0
181 203 0
181 203 0
179 201 0
182 203 0
183 204 0
183 204 0
184 205 0
184 205 0
182 203 0
185 205 0
181 202 0
180 202 0
180 203 0
180 202 0
181 203 0
182 204 0
181 203 0
182 204 0
180 202 0
180 203 0
183 204 0
181 203 0
182 204 0
181 203 0
183 204 0
183 203 0
180 202 0
178 200 0
180 203 0
182 203 0
182 204 0
181 203 0
180 203 0
180 202 0
180 202 0
178 202 0
182 203 0
181 203 0
180 203 0
180 203 0
178 200 0
184 205 0
179 201 0
180 202 0
183 203 0
178 201 0
181 203 0
181 203 0
182 203 0
181 203 0
183 204 0
181 203 0
178 200 0
181 203 0
179 202 0
184 205 0
182 204 0
182 204 0
178 200 0
183 204 0
182 204 0
183 204 0
182 203 0
176 199 0
182 204 0
179 202 0
179 201 0
180 203 0
179 201 0
181 203 0
180 202 0
179 201 0
182 204 0
181 202 0
178 200 0
180 203 0
178 200 0
180 203 0
175 198 0
181 203 0
183 204 0
181 203 0
181 202 0
179 200 0
180 201 0
180 202 0
181 203 0
180 203 0
179 202 0
180 201 0
172 195 0
181 202 0
181 202 0
180 203 0
180 201 0
179 201 0
181 202 0
182 203 0
182 203 0
179 201 0
178 199 0
183 204 0
181 203 0
177 199 0
177 200 0
179 200 0
180 202 0
180 202 0
172 195 0
179 201 0
172 195 0
174 196 0
173 195 0
176 199 0
173 195 0
177 198 0
178 200 0
171 193 0
174 196 0
177 200 0
175 197 0
175 197 0
169 192 0
173 195 0
178 200 0
169 190 0
169 191 0
170 192 0
177 199 0
174 196 0
172 193 0
174 197 0
172 194 0
166 187 0
172 194 0
176 198 0
160 183 0
172 195 0
173 194 0
163 185 0
118 146 139
68 107 170
69 108 175
68 107 172
69 108 175
69 108 177
71 109 181
68 107 172
69 108 181
68 107 177
69 108 186
69 108 179
69 108 183
69 108 186
69 108 183
70 109 188
69 108 186
68 108 188
69 109 188
68 108 188
69 108 188
68 108 188
67 107 186
69 109 188
69 109 188
69 109 188
69 109 188
69 108 188
69 109 188
68 108 188
69 109 188
68 108 188
68 108 188
68 108 188
69 108 188
69 109 188
69 108 186
69 109 188
69 108 186
67 107 188
68 108 186
68 108 184
69 109 188
69 109 184
70 109 188
68 108 183
69 108 184
68 108 188
68 108 186
69 108 186
69 109 188
69 108 186
69 109 184
69 109 188
69 108 188
69 108 184
69 108 184
69 108 183
69 108 181
67 107 175
68 108 177
68 107 181
68 108 184
69 108 179
68 107 175
69 108 174
69 108 179
67 106 170
68 106 160
67 105 156
66 104 151
198 215 228
213 228 239
210 226 237
214 228 239
217 231 239
203 220 194
188 209 144
183 205 80
184 205 56
178 200 38
183 205 56
178 200 69
178 201 80
180 202 56
182 204 38
183 205 89
182 203 0
183 205 69
181 203 0
179 202 89
184 205 38
184 205 56
184 205 38
183 205 38
181 203 56
183 205 89
185 205 38
180 202 38
180 202 38
180 202 0
187 206 104
196 214 166
213 228 221
216 230 234
208 225 215
208 225 213
194 213 166
178 200 0
183 204 0
181 203 0
178 200 0
179 201 0
180 202 0
177 200 0
182 203 0
182 203 0
183 204 0
180 202 0
181 203 0
180 201 0
184 205 0
181 202 0
180 202 0
180 201 0
182 203 0
183 204 0
183 204 0
181 202 0
181 203 0
183 204 0
182 204 0
183 204 0
182 203 0
183 204 0
181 203 0
181 202 0
183 204 0
183 204 0
178 200 0
182 204 0
179 201 0
182 202 0
181 203 0
182 203 0
184 205 0
182 204 0
180 203 0
180 203 0
182 203 0
180 203 0
180 202 0
181 202 0
180 202 0
182 204 0
181 203 0
182 204 0
183 204 0
179 202 0
182 204 0
184 205 0
181 203 0
181 203 0
183 204 0
182 204 0
182 204 0
182 204 0
180 202 0
180 201 0
182 204 0
182 203 0
183 204 0
182 204 0
182 203 0
181 203 0
181 203 0
184 205 0
181 203 0
181 203 0
183 204 0
183 204 0
181 203 0
179 201 0
182 204 0
182 204 0
182 204 0
182 204 0
180 202 0
181 203 0
182 203 0
178 200 0
179 201 0
182 203 0
183 204 0
181 203 0
182 204 0
183 204 0
181 203 0
178 201 0
181 203 0
180 202 0
181 202 0
181 203 0
180 202 0
181 203 0
182 204 0
179 202 0
180 202 0
182 204 0
181 203 0
182 204 0
183 204 0
180 202 0
183 204 0
181 203 0
181 203 0
183 204 0
181 203 0
182 204 0
184 204 0
179 202 0
181 203 0
182 204 0
182 204 0
182 204 0
181 203 0
183 204 0
181 203 0
183 204 0
182 204 0
182 204 0
181 203 0
183 204 0
182 204 0
181 203 0
180 202 0
181 203 0
181 203 0
183 204 0
184 205 0
180 203 0
184 205 0
184 204 0
182 204 0
181 203 0
183 204 0
180 203 0
183 203 0
182 204 0
183 204 0
180 202 0
182 203 0
181 203 0
182 204 0
184 205 0
181 203 0
181 203 0
184 205 0
183 204 0
181 203 0
181 203 0
180 203 0
183 204 0
181 203 0
180 202 0
185 205 0
183 204 0
182 204 0
183 204 0
183 204 0
182 204 0
184 205 0
181 203 0
183 204 0
180 203 0
180 202 0
181 203 0
182 203 0
183 204 0
183 204 0
179 202 0
181 203 0
183 204 0
182 204 0
181 203 0
182 203 0
181 203 0
181 203 0
184 205 0
181 203 0
179 202 0
182 203 0
181 203 0
183 204 0
183 204 0
183 204 0
180 202 0
180 202 0
179 202 0
182 204 0
182 204 0
179 202 0
183 204 0
181 203 0
181 203 0
182 204 0
180 203 0
180 203 0
182 203 0
180 202 0
181 203 0
180 202 0
182 203 0
180 202 0
182 204 0
183 204 0
181 202 0
179 201 0
181 202 0
179 202 0
181 203 0
182 203 0
177 199 0
182 203 0
182 203 0
180 201 0
180 202 0
182 204 0
179 201 0
179 202 0
178 200 0
182 204 0
176 198 0
179 200 0
180 203 0
182 204 0
180 202 0
177 199 0
181 203 0
181 203 0
182 203 0
181 202 0
179 201 0
173 195 0
181 203 0
175 198 0
177 200 0
180 202 0
178 200 0
182 202 0
180 202 0
176 198 0
179 201 0
178 200 0
178 200 0
179 202 0
176 199 0
179 200 0
177 199 0
180 202 0
173 196 0
176 197 0
172 195 0
176 198 0
175 197 0
175 197 0
174 197 0
176 200 0
178 200 0
172 194 0
176 198 0
180 202 0
175 198 0
177 200 0
175 197 0
171 193 0
174 196 0
179 200 0
174 195 0
171 194 0
175 198 0
174 196 0
169 191 0
163 186 0
174 195 0
168 190 0
178 200 0
175 196 0
174 196 0
171 194 0
179 201 0
173 195 0
170 191 0
173 194 0
179 200 0
170 192 0
172 194 0
170 192 0
171 193 0
170 192 0
81 116 158
68 107 170
69 107 170
67 106 166
68 107 174
70 109 179
70 109 181
70 109 183
68 107 179
67 107 175
70 109 183
67 107 177
69 108 186
69 108 184
69 108 184
68 107 186
69 108 186
69 108 188
69 108 186
69 109 188
69 108 184
69 108 186
68 108 184
69 108 188
69 108 186
69 109 188
68 108 188
68 108 188
69 109 188
68 108 188
69 108 188
68 108 186
68 108 188
69 108 188
69 108 186
68 108 186
69 109 186
67 108 188
70 109 188
68 108 184
69 108 186
68 108 188
68 108 186
68 108 186
68 108 188
69 108 186
69 108 184
70 109 184
68 108 188
69 108 186
69 108 188
69 108 184
68 107 183
71 110 188
69 108 181
69 108 181
68 108 183
69 108 183
69 108 183
69 108 186
69 108 175
68 107 179
68 107 179
69 108 184
68 107 175
70 108 168
69 108 183
68 106 166
69 107 172
68 106 162
69 107 160
166 187 199
187 205 191
202 219 221
203 219 229
215 230 241
217 232 239
221 234 244
217 231 232
207 222 198
192 211 153
183 205 89
185 205 80
176 198 56
181 203 80
180 202 38
184 205 56
184 205 56
183 205 69
181 202 38
182 204 69
181 204 80
184 205 38
180 203 56
183 204 56
182 203 38
178 201 38
180 203 38
192 212 149
206 222 194
214 229 218
220 234 246
212 227 224
210 226 215
206 224 215
192 212 162
182 203 69
181 202 0
177 200 0
176 198 0
177 199 0
182 203 0
181 203 0
179 200 0
181 202 0
182 203 0
182 203 0
181 202 0
180 202 0
179 200 0
181 202 0
182 203 0
181 202 0
180 202 0
181 203 0
183 203 0
183 203 0
184 205 0
180 202 0
182 203 0
181 202 0
184 205 0
181 203 0
183 204 0
186 205 0
183 204 0
180 202 0
183 204 0
182 204 0
181 203 0
181 203 0
179 202 0
182 204 0
181 203 0
179 201 0
181 203 0
180 202 0
181 203 0
180 202 0
180 202 0
183 204 0
174 197 0
185 205 0
183 203 0
182 204 0
182 203 0
183 204 0
182 204 0
183 204 0
182 204 0
183 204 0
182 204 0
184 205 0
182 204 0
179 202 0
182 203 0
182 203 0
183 204 0
181 202 0
181 203 0
182 203 0
181 203 0
183 204 0
180 203 0
182 204 0
184 205 0
182 203 0
182 204 0
180 203 0
183 204 0
182 204 0
182 204 0
182 204 0
180 203 0
182 204 0
180 202 0
179 201 0
181 203 0
180 202 0
182 204 0
183 204 0
184 205 0
181 203 0
183 204 0
182 204 0
180 203 0
181 202 0
182 204 0
181 203 0
181 203 0
179 202 0
183 204 0
179 202 0
183 204 0
180 203 0
181 203 0
182 204 0
182 204 0
181 203 0
182 204 0
183 204 0
179 201 0
181 202 0
181 203 0
181 203 0
183 204 0
180 203 0
181 203 0
184 205 0
183 204 0
181 202 0
181 203 0
180 203 0
183 204 0
181 203 0
183 204 0
182 203 0
183 204 0
182 203 0
179 202 0
182 204 0
183 204 0
182 204 0
182 204 0
180 203 0
183 204 0
182 203 0
181 203 0
181 203 0
182 203 0
182 204 0
183 204 0
181 203 0
183 204 0
183 204 0
182 204 0
183 204 0
181 203 0
183 204 0
182 204 0
183 204 0
180 203 0
182 203 0
182 204 0
183 204 0
181 203 0
184 205 0
180 202 0
182 204 0
181 203 0
182 203 0
179 201 0
182 204 0
181 203 0
179 202 0
183 204 0
183 204 0
181 203 0
180 202 0
181 203 0
180 203 0
184 205 0
182 203 0
181 203 0
183 204 0
180 202 0
180 202 0
184 205 0
183 204 0
183 204 0
184 205 0
183 204 0
181 203 0
182 204 0
180 201 0
183 204 0
182 204 0
181 203 0
181 203 0
184 205 0
181 203 0
182 203 0
177 199 0
182 204 0
181 203 0
183 204 0
180 202 0
183 204 0
177 200 0
181 203 0
181 203 0
179 202 0
180 202 0
180 202 0
181 203 0
180 201 0
180 201 0
182 203 0
182 204 0
181 203 0
179 201 0
184 205 0
183 203 0
182 204 0
180 202 0
183 203 0
179 202 0
180 201 0
183 204 0
182 203 0
180 201 0
181 203 0
181 203 0
182 204 0
182 203 0
181 203 0
181 203 0
182 203 0
182 204 0
182 204 0
182 203 0
176 198 0
183 204 0
181 202 0
179 200 0
180 202 0
181 202 0
173 196 0
183 204 0
183 204 0
181 202 0
179 201 0
180 202 0
179 201 0
180 202 0
176 199 0
179 200 0
178 200 0
176 198 0
178 200 0
178 199 0
176 199 0
178 199 0
179 201 0
177 201 0
177 199 0
176 198 0
179 200 0
173 196 0
177 199 0
181 203 0
179 201 0
178 199 0
180 202 0
179 199 0
180 202 0
180 202 0
172 194 0
178 200 0
180 202 0
179 202 0
176 198 0
173 195 0
177 199 0
178 201 0
177 199 0
175 197 0
172 194 0
178 199 0
174 196 0
172 193 0
168 189 0
177 200 0
176 198 0
175 197 0
179 199 0
178 200 0
178 200 0
174 196 0
175 196 0
174 195 0
166 188 0
172 194 0
168 191 0
173 195 0
164 186 0
171 193 0
173 195 0
167 189 0
152 176 75
68 106 166
69 107 168
70 109 181
69 108 177
68 106 174
69 107 170
70 108 177
69 109 183
68 107 177
69 109 188
69 108 183
70 109 184
69 108 186
68 107 183
69 108 184
70 109 186
69 108 187
70 109 184
69 109 188
69 108 184
69 109 188
69 108 186
68 108 188
68 108 184
69 108 188
68 108 188
69 108 186
70 109 188
68 108 186
69 109 188
69 109 188
69 109 188
68 108 188
68 107 184
68 108 188
68 108 188
69 109 188
69 108 184
68 108 186
69 108 188
68 108 186
68 107 184
68 108 186
69 109 188
69 109 188
69 108 186
69 108 188
70 109 186
69 108 183
70 109 184
68 108 183
69 109 184
68 108 188
69 109 184
69 109 186
68 107 183
68 108 181
69 108 183
68 108 184
69 108 181
70 109 181
69 108 175
69 108 181
69 108 174
70 108 179
69 107 174
67 106 166
68 106 162
68 107 166
68 106 166
66 104 149
118 146 142
175 197 89
185 204 166
203 221 224
210 228 241
208 224 232
213 229 229
216 231 239
217 231 246
216 230 232
219 233 244
216 231 234
210 227 218
200 218 184
199 217 166
199 217 162
196 215 153
194 212 139
187 207 124
186 206 104
192 211 149
195 213 149
197 215 153
204 221 181
208 224 201
207 224 207
219 233 237
217 232 237
220 234 246
213 229 226
209 225 218
200 219 191
198 218 191
185 207 97
181 203 0
179 201 0
183 204 0
180 202 0
180 202 0
176 198 0
180 201 0
181 203 0
181 202 0
181 202 0
181 202 0
182 203 0
180 203 0
182 204 0
181 203 0
183 204 0
182 204 0
176 198 0
175 196 0
181 203 0
182 204 0
183 204 0
182 202 0
181 203 0
180 201 0
182 203 0
180 201 0
182 203 0
181 202 0
182 204 0
180 202 0
183 204 0
181 203 0
182 204 0
185 205 0
181 203 0
181 203 0
177 199 0
180 201 0
180 202 0
185 205 0
178 201 0
181 202 0
182 203 0
178 201 0
182 204 0
185 205 0
180 201 0
179 201 0
179 202 0
182 204 0
184 204 0
182 204 0
181 203 0
183 204 0
182 204 0
179 200 0
183 204 0
182 204 0
182 204 0
179 202 0
182 204 0
182 204 0
182 203 0
182 204 0
183 204 0
178 201 0
183 204 0
182 203 0
183 204 0
183 204 0
182 204 0
184 205 0
181 203 0
181 203 0
181 203 0
183 204 0
180 203 0
182 204 0
179 201 0
181 203 0
184 205 0
182 204 0
182 204 0
180 203 0
183 204 0
181 203 0
182 204 0
181 202 0
181 203 0
182 204 0
181 203 0
184 205 0
182 204 0
181 203 0
184 204 0
183 204 0
183 204 0
180 202 0
183 204 0
180 203 0
181 203 0
181 203 0
183 204 0
182 203 0
183 204 0
180 203 0
182 204 0
180 203 0
182 204 0
182 204 0
181 203 0
182 203 0
182 204 0
181 203 0
181 203 0
179 201 0
184 204 0
182 204 0
181 203 0
181 203 0
182 204 0
180 203 0
182 203 0
179 201 0
183 204 0
183 204 0
182 204 0
182 204 0
181 203 0
181 203 0
181 203 0
182 204 0
181 203 0
185 205 0
183 204 0
182 204 0
182 204 0
184 205 0
180 202 0
180 201 0
184 205 0
182 204 0
181 203 0
183 204 0
180 203 0
183 204 0
184 205 0
182 204 0
180 202 0
179 202 0
182 203 0
180 203 0
182 204 0
183 204 0
180 202 0
184 205 0
181 203 0
181 203 0
181 203 0
183 204 0
181 203 0
183 204 0
184 205 0
182 204 0
182 204 0
185 205 0
177 199 0
181 203 0
180 202 0
183 203 0
182 204 0
180 203 0
179 202 0
183 204 0
179 201 0
181 203 0
182 202 0
180 202 0
181 202 0
180 203 0
181 202 0
182 203 0
182 204 0
180 202 0
181 203 0
182 203 0
177 200 0
180 201 0
181 202 0
180 202 0
180 201 0
181 203 0
181 203 0
179 201 0
179 202 0
182 204 0
182 204 0
183 204 0
182 204 0
184 205 0
180 202 0
182 204 0
183 204 0
181 203 0
179 202 0
182 203 0
177 200 0
182 203 0
181 203 0
181 203 0
181 203 0
182 203 0
180 201 0
177 200 0
181 203 0
181 203 0
181 202 0
181 203 0
181 203 0
182 204 0
183 204 0
182 204 0
180 202 0
180 202 0
180 202 0
180 202 0
180 202 0
178 199 0
180 200 0
180 202 0
178 200 0
180 202 0
183 204 0
182 203 0
180 202 0
178 200 0
180 202 0
176 198 0
177 200 0
178 200 0
183 203 0
176 199 0
182 204 0
170 191 0
181 203 0
176 198 0
182 203 0
177 200 0
181 202 0
178 200 0
182 204 0
176 199 0
175 196 0
179 201 0
177 199 0
175 198 0
177 199 0
175 198 0
175 198 0
182 203 0
177 198 0
179 199 0
178 200 0
175 198 0
176 198 0
175 198 0
179 201 0
175 197 0
176 198 0
172 195 0
179 200 0
176 198 0
169 192 0
170 193 0
174 197 0
177 198 0
171 192 0
169 192 0
169 192 0
176 198 0
177 199 0
177 199 0
174 195 0
172 194 0
168 190 0
161 182 0
171 193 0
175 197 0
171 192 0
172 194 0
170 192 0
176 198 0
175 196 0
139 162 97
68 106 168
69 108 170
68 107 166
68 106 164
69 108 179
69 108 179
68 107 177
70 109 181
68 107 177
69 108 181
68 108 186
69 108 181
69 108 184
69 108 183
69 109 184
70 109 181
69 108 188
69 109 186
68 108 188
69 108 186
70 109 188
69 108 188
69 108 188
68 108 188
68 108 188
68 108 186
69 109 188
69 108 188
69 108 186
69 108 188
69 108 186
68 108 186
68 108 188
68 108 188
68 108 188
69 109 188
69 109 186
69 109 188
67 108 188
69 108 188
68 108 188
69 109 188
69 109 188
68 108 186
69 108 188
68 108 188
69 108 186
68 108 186
68 108 184
69 109 188
69 108 188
69 109 186
69 109 188
69 108 186
68 107 184
68 107 175
68 107 184
69 108 186
69 108 177
70 109 183
69 108 181
68 108 179
70 109 175
69 108 181
69 108 181
69 108 179
68 107 168
68 107 174
69 108 175
70 108 172
67 105 151
81 115 144
168 190 0
163 186 38
174 195 104
185 204 181
189 209 184
202 219 226
210 228 229
209 225 229
212 228 239
213 229 239
215 231 241
218 233 244
217 231 246
221 235 251
220 234 241
219 234 246
211 226 232
214 228 229
214 228 239
218 232 241
217 232 237
218 232 239
220 234 253
216 231 239
214 230 239
213 229 234
210 227 232
207 225 221
207 225 226
193 214 166
187 208 97
179 201 0
177 200 0
180 203 0
177 199 0
179 201 0
179 201 0
182 204 0
181 202 0
183 204 0
180 201 0
182 203 0
178 200 0
183 204 0
182 204 0
177 199 0
183 204 0
181 203 0
181 203 0
184 205 0
183 203 0
182 203 0
185 205 0
179 201 0
183 203 0
182 203 0
182 204 0
181 203 0
184 205 0
179 201 0
180 202 0
181 203 0
180 202 0
184 205 0
181 202 0
183 204 0
182 203 0
182 203 0
181 203 0
184 205 0
181 203 0
180 203 0
182 204 0
180 202 0
182 204 0
182 203 0
181 203 0
182 203 0
179 202 0
182 204 0
182 203 0
177 199 0
183 204 0
183 204 0
182 204 0
182 204 0
183 204 0
179 200 0
181 203 0
178 200 0
181 203 0
182 203 0
183 204 0
182 204 0
182 204 0
182 204 0
182 203 0
181 202 0
182 204 0
181 203 0
179 202 0
181 203 0
180 202 0
181 203 0
182 204 0
181 203 0
182 204 0
182 204 0
184 205 0
184 205 0
181 203 0
182 204 0
180 202 0
181 203 0
180 203 0
182 204 0
181 203 0
181 203 0
181 203 0
181 203 0
183 204 0
182 204 0
182 203 0
183 204 0
183 204 0
181 203 0
180 202 0
178 201 0
184 205 0
182 204 0
181 203 0
182 204 0
182 204 0
182 203 0
181 203 0
182 204 0
183 204 0
180 202 0
182 204 0
182 204 0
181 203 0
184 205 0
184 205 0
182 204 0
180 202 0
181 203 0
182 204 0
183 204 0
181 203 0
181 203 0
181 203 0
184 205 0
184 205 0
182 204 0
182 204 0
181 203 0
184 205 0
183 204 0
182 204 0
182 204 0
182 204 0
181 203 0
182 203 0
184 205 0
183 204 0
182 204 0
182 204 0
182 204 0
183 204 0
178 201 0
181 202 0
182 204 0
184 205 0
182 204 0
182 203 0
182 204 0
179 202 0
181 203 0
182 203 0
180 203 0
180 202 0
181 203 0
178 200 0
180 201 0
183 204 0
182 204 0
181 203 0
182 204 0
177 200 0
180 203 0
181 203 0
180 203 0
180 203 0
183 204 0
182 204 0
182 204 0
180 202 0
176 198 0
183 204 0
182 204 0
184 205 0
180 203 0
180 202 0
181 202 0
181 203 0
180 202 0
183 204 0
182 203 0
184 205 0
181 203 0
181 203 0
180 201 0
183 204 0
180 203 0
179 201 0
182 204 0
182 204 0
181 202 0
182 203 0
181 203 0
181 202 0
183 204 0
180 203 0
180 202 0
182 203 0
184 205 0
179 201 0
181 203 0
180 203 0
182 204 0
182 204 0
179 202 0
178 199 0
181 203 0
180 202 0
183 204 0
179 201 0
183 204 0
181 203 0
183 204 0
183 204 0
179 201 0
177 199 0
176 198 0
181 203 0
181 203 0
181 203 0
183 204 0
180 202 0
182 204 0
181 203 0
179 201 0
180 202 0
182 203 0
182 204 0
181 203 0
184 205 0
181 202 0
181 202 0
180 201 0
178 201 0
183 204 0
183 204 0
177 199 0
181 202 0
182 203 0
182 204 0
178 199 0
177 200 0
181 203 0
178 200 0
179 200 0
179 200 0
174 197 0
179 201 0
181 203 0
181 202 0
180 202 0
174 197 0
178 200 0
182 203 0
176 198 0
180 201 0
177 199 0
179 201 0
173 195 0
181 202 0
181 203 0
178 200 0
175 196 0
177 199 0
179 202 0
174 196 0
182 204 0
177 200 0
179 201 0
173 195 0
176 198 0
176 198 0
176 198 0
177 199 0
177 198 0
175 198 0
181 202 0
173 196 0
181 202 0
176 198 0
175 196 0
170 193 0
178 198 0
175 196 0
176 198 0
171 192 0
178 198 0
172 194 0
174 195 0
178 199 0
172 194 0
172 195 0
164 187 0
170 192 0
167 189 0
166 189 0
172 195 0
175 197 0
170 191 0
163 184 0
116 142 132
67 105 153
69 107 170
69 107 164
69 108 181
69 107 174
68 107 168
70 109 183
69 108 177
68 108 183
68 107 172
69 108 183
68 108 183
68 108 181
68 108 184
70 109 186
68 108 186
68 108 186
69 109 186
68 108 183
69 109 186
67 107 183
69 108 186
69 108 184
69 109 188
68 107 183
68 108 186
68 108 186
69 108 186
68 108 184
68 108 188
68 108 188
69 109 186
68 108 188
69 108 188
68 108 188
68 108 188
69 109 188
68 108 186
68 108 186
68 108 188
69 108 186
69 109 188
68 108 188
68 108 181
70 109 184
69 109 184
69 108 184
68 108 186
69 108 186
68 108 181
68 107 183
69 108 186
67 107 186
69 108 183
69 109 183
69 108 183
70 109 184
70 109 181
69 108 177
68 107 174
70 109 183
67 106 170
68 108 179
69 108 175
70 109 183
68 108 177
69 107 168
68 107 168
69 108 175
68 107 168
68 107 164
66 104 142
160 182 38
171 194 0
163 186 0
164 187 0
164 187 69
176 198 144
181 201 188
206 224 241
200 218 218
209 226 234
203 220 221
202 219 218
212 228 234
214 230 239
212 229 232
210 226 229
214 230 239
213 229 229
216 232 249
210 226 232
217 232 244
209 226 213
209 226 229
206 223 215
206 223 215
202 220 204
194 214 181
185 207 134
183 205 97
177 199 0
181 202 0
180 202 0
180 202 0
174 197 0
181 203 0
174 196 0
179 201 0
179 200 0
179 201 0
182 203 0
178 200 0
179 199 0
183 204 0
181 202 0
180 201 0
181 203 0
182 203 0
181 203 0
180 201 0
183 204 0
180 203 0
180 201 0
182 203 0
180 202 0
180 203 0
182 203 0
184 205 0
183 203 0
179 201 0
178 200 0
185 205 0
182 203 0
178 199 0
184 205 0
183 204 0
181 203 0
178 200 0
186 206 0
179 200 0
183 204 0
182 204 0
182 203 0
180 201 0
179 201 0
182 204 0
180 203 0
182 203 0
183 204 0
182 203 0
179 200 0
184 205 0
182 203 0
181 203 0
180 202 0
180 201 0
179 201 0
181 203 0
182 203 0
182 204 0
182 203 0
183 204 0
180 203 0
180 202 0
182 204 0
181 203 0
183 204 0
180 201 0
181 203 0
181 203 0
183 204 0
181 203 0
183 204 0
183 204 0
182 203 0
182 204 0
181 203 0
180 203 0
176 198 0
181 203 0
181 203 0
182 204 0
180 202 0
183 204 0
181 203 0
179 202 0
182 204 0
183 204 0
183 204 0
184 205 0
181 203 0
183 204 0
181 203 0
184 205 0
183 204 0
183 204 0
180 203 0
184 205 0
179 201 0
179 202 0
183 204 0
180 203 0
181 203 0
183 204 0
180 203 0
183 204 0
182 203 0
181 203 0
181 203 0
179 201 0
180 203 0
181 203 0
182 204 0
182 204 0
182 204 0
182 203 0
182 203 0
182 204 0
182 204 0
182 204 0
183 204 0
180 201 0
183 204 0
183 204 0
181 203 0
182 204 0
181 203 0
182 204 0
183 204 0
182 204 0
182 204 0
183 204 0
182 203 0
181 203 0
181 203 0
183 204 0
181 203 0
182 203 0
182 203 0
183 204 0
184 205 0
179 202 0
182 204 0
184 205 0
180 203 0
182 204 0
180 202 0
181 203 0
181 203 0
182 204 0
181 203 0
181 203 0
183 204 0
183 204 0
180 203 0
177 199 0
181 203 0
181 203 0
182 204 0
179 202 0
182 203 0
182 204 0
181 203 0
180 202 0
184 205 0
179 201 0
182 204 0
180 202 0
181 203 0
180 203 0
182 204 0
180 202 0
182 204 0
183 204 0
183 204 0
182 203 0
182 204 0
183 204 0
181 203 0
182 204 0
181 202 0
180 202 0
183 204 0
180 202 0
178 200 0
181 203 0
182 203 0
181 202 0
183 203 0
182 203 0
184 205 0
183 204 0
182 204 0
180 202 0
182 203 0
177 199 0
179 200 0
181 202 0
181 203 0
183 204 0
182 203 0
181 202 0
183 204 0
184 205 0
182 204 0
181 202 0
182 203 0
182 204 0
180 202 0
180 202 0
179 201 0
179 201 0
179 202 0
179 202 0
183 204 0
178 200 0
181 202 0
181 203 0
182 203 0
180 202 0
179 200 0
179 201 0
181 202 0
179 201 0
179 202 0
181 203 0
180 202 0
177 199 0
180 201 0
178 200 0
183 204 0
180 202 0
177 198 0
182 204 0
183 204 0
178 200 0
176 199 0
178 201 0
178 200 0
173 196 0
179 202 0
179 201 0
181 203 0
178 199 0
180 202 0
179 200 0
180 202 0
175 197 0
180 202 0
175 197 0
180 203 0
177 199 0
180 202 0
178 201 0
179 202 0
179 201 0
174 196 0
176 199 0
176 199 0
179 200 0
181 203 0
179 201 0
176 199 0
178 200 0
178 199 0
180 202 0
179 202 0
179 201 0
179 201 0
176 197 0
176 199 0
179 200 0
176 197 0
176 199 0
176 198 0
177 199 0
172 193 0
177 199 0
176 197 0
178 199 0
172 195 0
174 196 0
174 196 0
169 193 0
173 196 0
171 193 0
166 188 0
170 192 0
173 196 0
167 189 0
170 191 0
172 192 0
164 187 0
169 191 0
170 191 0
174 195 0
174 196 0
171 192 0
109 137 134
69 107 172
67 106 158
69 108 174
70 108 175
69 108 183
68 107 174
69 108 177
68 108 181
69 108 179
68 108 177
69 108 183
69 108 172
69 109 186
69 108 183
69 108 186
69 108 188
68 107 181
69 109 188
69 108 181
69 109 188
69 108 186
70 109 188
69 108 188
69 109 188
68 108 183
68 108 184
68 108 184
69 109 188
68 108 188
69 109 186
67 107 188
69 109 188
69 109 188
68 108 188
69 109 188
69 108 186
69 108 186
69 109 188
68 108 186
68 108 186
68 108 188
69 109 188
69 108 186
69 108 188
69 109 186
69 108 184
68 107 183
67 107 186
68 108 186
69 109 186
69 108 186
70 109 186
70 109 184
69 109 183
69 108 183
69 108 179
69 108 186
69 108 181
69 108 181
68 107 175
69 108 179
67 107 175
68 107 177
68 107 177
70 109 184
70 108 177
70 108 174
69 108 174
69 108 175
67 106 160
68 106 160
67 106 160
153 175 69
166 189 0
164 186 0
165 187 0
163 186 0
170 192 0
162 186 0
171 193 80
175 197 129
171 192 144
189 209 181
199 218 215
192 211 191
199 218 210
203 221 218
204 222 218
199 218 218
205 224 224
201 219 213
200 219 194
198 217 191
192 212 184
192 213 177
188 210 162
177 199 80
175 198 38
178 201 0
175 198 0
176 198 0
177 199 0
183 204 0
181 202 0
179 201 0
179 201 0
179 200 0
179 201 0
179 200 0
181 203 0
181 202 0
179 201 0
183 204 0
181 202 0
179 200 0
185 205 0
180 201 0
177 199 0
181 203 0
182 203 0
182 204 0
179 200 0
183 203 0
183 204 0
181 202 0
181 202 0
182 204 0
182 204 0
185 205 0
177 200 0
179 201 0
181 202 0
182 203 0
181 202 0
182 203 0
180 202 0
182 203 0
181 203 0
179 201 0
181 202 0
180 202 0
181 203 0
180 202 0
182 203 0
181 203 0
181 203 0
178 201 0
183 204 0
184 205 0
181 203 0
180 203 0
183 204 0
180 203 0
181 203 0
182 203 0
179 202 0
183 204 0
181 203 0
182 204 0
181 203 0
182 204 0
181 203 0
178 201 0
184 205 0
177 199 0
180 203 0
179 202 0
181 203 0
181 203 0
181 203 0
183 204 0
178 200 0
183 204 0
181 202 0
180 202 0
180 203 0
181 203 0
182 204 0
180 202 0
181 203 0
183 204 0
180 201 0
180 202 0
182 204 0
182 204 0
181 203 0
182 203 0
182 204 0
180 202 0
180 203 0
184 205 0
184 205 0
181 202 0
182 204 0
182 204 0
182 203 0
187 206 0
182 204 0
180 202 0
181 203 0
182 204 0
181 202 0
185 205 0
182 203 0
182 204 0
179 201 0
182 204 0
184 205 0
182 203 0
182 203 0
179 202 0
180 203 0
181 203 0
184 205 0
182 204 0
183 204 0
181 203 0
181 203 0
183 204 0
180 202 0
183 204 0
183 204 0
182 204 0
181 203 0
182 204 0
180 202 0
180 203 0
183 204 0
182 204 0
181 203 0
180 202 0
180 203 0
185 205 0
182 204 0
182 204 0
182 204 0
181 203 0
182 204 0
181 203 0
183 204 0
184 205 0
181 203 0
182 204 0
183 204 0
182 204 0
183 204 0
181 202 0
181 203 0
178 202 0
182 204 0
182 204 0
178 202 0
182 204 0
180 202 0
180 203 0
184 205 0
182 204 0
181 203 0
183 204 0
182 204 0
184 205 0
184 205 0
180 202 0
183 204 0
180 203 0
181 202 0
183 204 0
181 202 0
181 203 0
182 204 0
181 203 0
184 205 0
183 204 0
181 203 0
182 204 0
184 205 0
181 203 0
182 204 0
178 200 0
180 203 0
181 203 0
182 204 0
182 204 0
183 204 0
182 203 0
181 202 0
180 202 0
179 202 0
183 204 0
181 202 0
180 203 0
182 203 0
184 205 0
181 203 0
182 204 0
180 202 0
180 203 0
182 204 0
180 201 0
180 203 0
181 203 0
181 202 0
183 204 0
182 204 0
182 204 0
181 203 0
182 204 0
182 203 0
180 202 0
182 204 0
179 201 0
181 203 0
179 200 0
179 201 0
178 201 0
182 204 0
181 202 0
181 202 0
180 201 0
178 200 0
176 198 0
177 200 0
183 204 0
180 202 0
182 204 0
179 201 0
184 205 0
180 203 0
179 201 0
180 202 0
180 202 0
180 203 0
179 201 0
179 200 0
178 200 0
183 204 0
180 203 0
181 202 0
181 203 0
175 196 0
178 201 0
177 199 0
178 201 0
181 203 0
181 202 0
177 199 0
179 201 0
179 201 0
178 200 0
177 200 0
178 200 0
181 203 0
179 201 0
175 197 0
179 200 0
179 202 0
181 203 0
177 199 0
181 203 0
181 201 0
178 200 0
180 202 0
175 196 0
174 197 0
181 203 0
180 202 0
173 195 0
180 200 0
177 199 0
173 196 0
173 195 0
179 200 0
182 203 0
177 199 0
180 201 0
178 200 0
173 195 0
171 194 0
177 198 0
176 198 0
173 194 0
179 201 0
177 199 0
177 199 0
169 190 0
171 193 0
173 195 0
171 193 0
171 193 0
174 196 0
174 196 0
165 187 0
168 189 0
170 193 0
160 181 0
165 187 0
166 189 0
176 197 0
173 194 0
88 121 153
69 107 172
69 108 172
69 108 170
70 109 179
70 109 175
69 108 179
70 109 183
69 108 183
68 107 177
69 108 179
70 109 184
70 109 184
70 109 183
69 109 183
68 107 184
68 108 186
69 109 186
68 108 186
68 108 184
69 108 181
68 108 186
67 107 184
68 108 184
68 108 186
68 108 186
69 108 186
69 108 188
69 108 183
69 108 188
68 108 186
69 109 188
69 108 188
68 108 188
68 108 184
69 108 186
68 108 184
69 108 188
69 108 188
69 108 184
69 109 188
69 108 186
69 108 186
68 107 181
69 108 188
68 107 183
68 108 184
69 109 186
68 108 186
69 108 188
69 108 184
70 109 183
69 108 186
69 108 183
69 108 179
68 107 179
69 109 183
70 109 183
68 107 172
69 108 184
69 108 177
70 109 186
69 108 177
70 109 183
68 107 177
68 107 174
68 107 179
69 108 172
68 107 174
68 106 170
67 106 168
69 107 164
66 104 153
135 158 80
159 180 0
170 192 0
168 191 0
166 188 0
164 185 0
161 183 0
167 189 0
168 191 0
167 189 0
165 188 0
177 200 56
175 197 69
174 196 104
179 202 97
171 194 69
176 197 118
180 202 111
176 198 69
176 198 80
179 201 0
177 198 0
175 198 0
169 192 0
173 196 0
177 198 0
173 195 0
178 200 0
178 200 0
176 198 0
176 197 0
180 202 0
179 200 0
176 198 0
183 204 0
178 200 0
177 199 0
178 199 0
180 200 0
180 202 0
184 204 0
177 198 0
181 201 0
178 199 0
178 199 0
181 202 0
181 203 0
179 201 0
182 204 0
183 203 0
180 202 0
181 201 0
182 204 0
179 201 0
182 204 0
181 203 0
182 204 0
184 205 0
184 205 0
181 203 0
181 202 0
178 200 0
182 204 0
183 204 0
180 202 0
181 202 0
181 203 0
180 203 0
179 200 0
185 205 0
181 203 0
184 205 0
181 203 0
181 202 0
183 204 0
181 203 0
182 203 0
178 201 0
180 202 0
182 203 0
181 203 0
183 203 0
181 203 0
181 203 0
182 203 0
183 204 0
180 202 0
180 201 0
180 203 0
183 204 0
182 204 0
181 202 0
179 201 0
181 203 0
184 205 0
184 205 0
183 204 0
181 203 0
182 204 0
180 203 0
182 204 0
181 203 0
184 205 0
183 204 0
181 203 0
182 204 0
182 204 0
182 204 0
181 203 0
182 204 0
182 204 0
182 204 0
180 203 0
186 206 0
183 204 0
181 203 0
183 204 0
180 203 0
184 205 0
183 203 0
181 203 0
180 201 0
181 203 0
182 203 0
182 204 0
180 202 0
183 204 0
181 203 0
180 202 0
180 201 0
183 204 0
184 205 0
182 204 0
183 204 0
182 204 0
181 203 0
180 203 0
183 204 0
182 204 0
181 203 0
183 204 0
182 204 0
182 204 0
182 204 0
183 204 0
180 202 0
182 204 0
182 203 0
181 203 0
182 203 0
181 203 0
184 205 0
184 205 0
182 204 0
182 204 0
183 204 0
183 204 0
183 204 0
182 204 0
182 204 0
183 204 0
180 202 0
183 204 0
185 205 0
183 204 0
180 202 0
185 205 0
182 204 0
183 204 0
182 204 0
181 203 0
181 203 0
180 203 0
181 203 0
184 205 0
184 205 0
180 202 0
180 202 0
182 204 0
182 204 0
178 201 0
180 202 0
181 202 0
182 203 0
181 203 0
183 204 0
184 205 0
181 203 0
176 199 0
182 204 0
181 203 0
182 204 0
182 204 0
180 202 0
179 201 0
181 203 0
183 204 0
179 201 0
181 203 0
181 203 0
182 203 0
182 204 0
183 204 0
183 204 0
182 203 0
182 203 0
184 205 0
182 204 0
181 203 0
182 204 0
183 204 0
182 204 0
184 205 0
183 204 0
179 202 0
180 203 0
182 204 0
183 204 0
182 204 0
180 201 0
181 203 0
184 205 0
181 203 0
181 203 0
182 203 0
182 203 0
180 202 0
182 204 0
180 201 0
183 204 0
181 203 0
182 204 0
177 199 0
180 203 0
177 198 0
177 200 0
181 202 0
177 200 0
181 202 0
182 204 0
184 205 0
179 202 0
181 203 0
180 203 0
182 203 0
183 204 0
181 202 0
179 201 0
181 203 0
183 204 0
179 200 0
180 203 0
182 204 0
181 202 0
177 201 0
180 201 0
184 205 0
182 204 0
177 200 0
181 202 0
177 198 0
179 201 0
180 202 0
181 202 0
178 199 0
178 200 0
180 201 0
182 204 0
179 201 0
179 202 0
174 197 0
182 203 0
179 201 0
179 201 0
181 202 0
180 203 0
183 204 0
178 201 0
175 197 0
178 200 0
177 199 0
181 202 0
178 200 0
177 200 0
179 200 0
180 202 0
179 200 0
176 198 0
180 201 0
175 197 0
179 201 0
177 199 0
178 201 0
179 201 0
180 203 0
180 202 0
176 198 0
176 197 0
182 204 0
174 197 0
176 197 0
170 191 0
177 198 0
174 198 0
181 203 0
174 196 0
175 197 0
176 198 0
183 204 0
169 191 0
174 194 0
170 192 0
172 195 0
167 190 0
166 188 0
173 195 0
174 196 0
178 199 0
173 194 0
168 189 0
171 193 0
171 193 0
167 187 0
174 195 0
163 185 0
171 192 0
167 189 0
76 112 151
69 108 175
68 107 174
68 106 166
68 108 181
67 106 168
69 108 177
69 108 174
70 109 183
68 107 172
68 107 170
69 108 177
69 108 184
69 108 179
68 107 177
69 108 183
69 108 184
69 108 183
69 108 181
68 108 183
68 108 186
68 108 186
69 109 186
68 108 183
68 108 184
69 109 188
68 108 184
69 108 188
69 108 188
69 109 188
69 109 186
70 109 188
69 108 186
69 108 188
70 109 188
70 109 186
69 109 188
69 108 188
69 108 188
69 108 181
68 108 183
68 108 186
68 108 186
68 108 184
68 108 183
70 109 186
68 108 186
70 109 183
68 107 183
68 108 184
69 109 186
68 108 181
70 109 183
69 108 186
69 108 181
69 108 183
69 108 181
69 108 183
68 107 175
68 108 183
69 108 177
69 108 174
69 108 183
69 108 183
68 107 175
69 108 172
68 107 172
68 107 170
69 108 175
69 108 174
69 107 162
68 106 170
67 105 151
131 155 97
169 191 0
159 181 0
162 184 0
167 189 0
163 185 0
162 185 0
171 194 0
174 196 0
159 182 0
173 195 0
168 190 0
165 188 0
168 190 0
175 198 0
174 197 0
173 196 0
168 191 0
178 200 0
176 198 0
176 199 0
168 191 0
173 195 0
176 198 0
176 198 0
178 200 0
176 197 0
177 199 0
179 201 0
181 202 0
178 200 0
179 201 0
182 203 0
177 200 0
181 202 0
179 201 0
180 202 0
179 201 0
179 199 0
180 201 0
181 202 0
184 205 0
179 200 0
179 201 0
181 202 0
182 203 0
180 200 0
184 205 0
184 205 0
181 202 0
184 205 0
184 205 0
180 202 0
183 203 0
180 201 0
182 203 0
181 202 0
181 202 0
180 203 0
179 201 0
178 200 0
177 199 0
182 203 0
183 204 0
181 203 0
180 202 0
177 199 0
180 202 0
179 202 0
184 205 0
181 202 0
182 203 0
180 202 0
182 203 0
180 202 0
182 203 0
179 201 0
183 204 0
184 205 0
183 204 0
181 203 0
179 200 0
183 204 0
182 204 0
179 201 0
179 201 0
180 203 0
182 204 0
183 204 0
181 203 0
182 204 0
180 203 0
181 203 0
182 203 0
184 204 0
181 203 0
180 202 0
183 204 0
180 203 0
181 202 0
184 205 0
181 203 0
181 202 0
180 203 0
182 204 0
180 201 0
183 204 0
180 202 0
178 200 0
181 203 0
182 203 0
179 202 0
182 203 0
180 203 0
182 204 0
184 205 0
181 203 0
182 204 0
183 204 0
183 204 0
182 204 0
180 203 0
181 203 0
181 203 0
181 203 0
182 204 0
183 204 0
183 204 0
182 204 0
182 204 0
180 202 0
182 204 0
182 204 0
181 203 0
181 202 0
183 204 0
183 204 0
182 204 0
182 204 0
182 204 0
184 205 0
180 203 0
182 204 0
181 203 0
180 203 0
180 202 0
183 204 0
181 203 0
180 203 0
183 204 0
181 203 0
181 203 0
181 203 0
181 203 0
182 203 0
181 203 0
181 203 0
181 203 0
180 202 0
183 204 0
183 204 0
180 203 0
181 203 0
181 203 0
178 200 0
182 204 0
184 205 0
182 204 0
181 202 0
183 204 0
181 203 0
181 203 0
182 204 0
184 205 0
181 203 0
182 204 0
184 205 0
184 205 0
182 204 0
181 203 0
182 204 0
182 203 0
184 205 0
183 204 0
178 200 0
182 204 0
181 203 0
183 204 0
183 204 0
180 203 0
183 204 0
180 202 0
181 202 0
182 204 0
182 204 0
181 203 0
183 204 0
182 204 0
181 202 0
182 203 0
182 203 0
183 204 0
181 203 0
181 203 0
181 203 0
183 204 0
183 204 0
182 204 0
183 204 0
180 202 0
178 201 0
181 203 0
180 202 0
182 204 0
180 203 0
181 203 0
181 203 0
183 204 0
182 204 0
180 202 0
181 202 0
180 201 0
181 203 0
180 203 0
179 202 0
181 203 0
179 202 0
181 203 0
182 204 0
181 203 0
182 204 0
182 204 0
182 204 0
181 203 0
182 204 0
181 202 0
177 199 0
183 204 0
182 204 0
183 204 0
182 203 0
182 204 0
182 204 0
181 203 0
182 203 0
182 204 0
179 201 0
181 203 0
178 201 0
181 202 0
182 203 0
179 201 0
180 202 0
181 202 0
182 204 0
180 203 0
180 201 0
181 202 0
182 204 0
180 202 0
182 203 0
179 201 0
183 204 0
179 201 0
178 201 0
177 198 0
179 201 0
179 202 0
179 201 0
180 202 0
181 203 0
181 202 0
180 201 0
177 201 0
181 203 0
173 196 0
180 202 0
176 198 0
181 202 0
177 200 0
175 197 0
175 197 0
174 198 0
180 202 0
179 200 0
183 203 0
180 202 0
170 194 0
179 201 0
175 197 0
171 194 0
181 203 0
177 200 0
175 197 0
175 198 0
179 201 0
174 197 0
178 201 0
171 194 0
178 200 0
178 200 0
176 198 0
177 200 0
172 194 0
175 197 0
178 199 0
174 197 0
176 198 0
175 196 0
172 194 0
175 196 0
172 194 0
172 193 0
177 199 0
169 191 0
174 196 0
176 198 0
169 189 0
169 191 0
169 191 0
172 193 0
174 195 0
159 180 0
164 185 0
167 187 0
170 192 0
168 190 0
68 106 162
70 108 172
69 108 170
67 106 160
70 109 183
67 106 172
69 107 172
70 109 184
67 107 177
67 107 177
70 108 179
70 109 184
68 107 175
69 108 181
68 107 183
70 109 184
70 109 183
69 108 184
70 109 188
67 107 184
69 109 186
69 109 188
69 108 186
69 108 184
69 108 186
70 109 186
68 108 188
69 108 183
68 108 186
69 108 188
68 108 186
69 108 186
70 109 184
69 108 181
68 108 184
71 110 188
70 109 188
69 108 184
68 108 184
70 109 188
68 108 186
69 108 184
68 108 184
69 108 184
69 109 184
69 108 184
69 109 184
69 109 188
69 108 181
69 108 188
68 108 181
69 108 181
68 108 184
71 110 186
68 108 181
70 109 186
69 108 181
70 109 179
71 110 181
68 107 177
70 109 183
70 109 177
69 107 177
68 108 179
68 107 175
69 108 177
68 107 175
68 107 168
69 108 172
67 106 164
66 104 162
68 106 158
67 106 164
132 157 124
163 184 0
166 188 0
162 184 0
162 184 0
163 186 0
163 184 0
171 193 0
173 196 0
167 189 0
170 192 0
165 187 0
168 191 0
175 197 0
170 192 0
169 191 0
182 203 0
169 192 0
179 200 0
174 196 0
171 194 0
172 194 0
178 200 0
175 197 0
175 197 0
177 199 0
174 195 0
180 202 0
172 193 0
172 194 0
178 200 0
180 201 0
177 199 0
179 199 0
179 200 0
178 200 0
178 200 0
179 200 0
182 203 0
175 197 0
180 202 0
179 201 0
179 200 0
178 199 0
179 201 0
180 201 0
179 200 0
180 202 0
173 194 0
181 203 0
184 204 0
179 201 0
180 202 0
178 200 0
183 204 0
180 202 0
185 205 0
180 201 0
182 203 0
178 199 0
183 204 0
184 205 0
178 200 0
182 203 0
181 203 0
178 201 0
180 202 0
183 204 0
183 204 0
183 204 0
182 204 0
183 203 0
182 203 0
178 200 0
182 204 0
182 204 0
177 199 0
180 202 0
183 204 0
180 203 0
181 203 0
183 204 0
182 203 0
178 200 0
183 204 0
178 201 0
177 200 0
181 203 0
179 201 0
181 203 0
179 202 0
180 203 0
179 202 0
181 203 0
183 204 0
182 203 0
182 203 0
180 202 0
181 203 0
180 202 0
182 204 0
181 203 0
181 203 0
181 203 0
183 204 0
182 204 0
180 201 0
181 203 0
182 204 0
180 203 0
181 203 0
182 204 0
182 204 0
182 204 0
182 204 0
184 204 0
182 204 0
179 201 0
180 202 0
184 204 0
181 203 0
182 204 0
179 202 0
183 204 0
181 203 0
180 203 0
180 203 0
182 204 0
182 204 0
182 203 0
181 203 0
183 204 0
181 203 0
182 203 0
180 203 0
182 204 0
182 204 0
181 203 0
182 204 0
181 203 0
182 204 0
181 202 0
183 204 0
181 203 0
183 204 0
183 204 0
182 204 0
182 204 0
183 204 0
182 204 0
182 204 0
183 204 0
183 204 0
183 204 0
182 204 0
183 204 0
181 203 0
181 203 0
180 203 0
182 204 0
184 205 0
181 203 0
181 203 0
182 204 0
182 204 0
181 203 0
181 203 0
182 204 0
180 202 0
181 203 0
183 204 0
183 204 0
181 203 0
180 202 0
181 203 0
181 203 0
182 204 0
180 203 0
182 204 0
181 203 0
182 204 0
182 204 0
184 205 0
181 203 0
179 202 0
184 205 0
181 203 0
181 203 0
176 199 0
184 205 0
182 204 0
180 203 0
178 201 0
183 204 0
181 202 0
181 203 0
183 204 0
181 203 0
183 204 0
181 203 0
182 204 0
184 205 0
182 204 0
181 203 0
178 201 0
181 203 0
181 203 0
181 202 0
179 201 0
182 204 0
180 203 0
183 204 0
181 203 0
183 204 0
179 202 0
178 201 0
182 203 0
180 202 0
181 203 0
183 204 0
180 202 0
180 201 0
181 203 0
179 202 0
182 204 0
182 204 0
179 201 0
182 204 0
182 204 0
182 204 0
179 200 0
183 204 0
180 202 0
182 204 0
178 201 0
176 199 0
182 204 0
182 203 0
180 202 0
179 200 0
180 202 0
182 203 0
180 202 0
180 202 0
181 202 0
180 203 0
181 202 0
179 201 0
182 204 0
180 201 0
181 203 0
184 205 0
182 203 0
181 203 0
182 204 0
183 204 0
180 202 0
180 201 0
179 200 0
181 202 0
177 200 0
182 204 0
183 204 0
183 204 0
180 202 0
182 204 0
183 204 0
182 203 0
179 201 0
178 200 0
180 202 0
181 202 0
177 199 0
179 201 0
175 198 0
173 195 0
180 203 0
181 202 0
184 205 0
178 200 0
178 200 0
182 203 0
176 199 0
175 197 0
177 198 0
179 201 0
179 201 0
177 200 0
179 200 0
179 200 0
171 193 0
173 196 0
176 197 0
175 197 0
178 200 0
181 202 0
173 196 0
176 198 0
177 199 0
180 202 0
175 197 0
179 201 0
175 197 0
176 197 0
178 200 0
178 199 0
176 198 0
171 193 0
170 192 0
175 197 0
177 198 0
174 196 0
176 197 0
171 193 0
172 195 0
174 197 0
166 188 0
176 198 0
168 190 0
169 191 0
167 189 0
166 188 0
170 193 0
159 181 0
172 193 0
154 175 0
160 182 25
68 105 151
69 107 164
68 107 170
70 109 177
69 107 175
68 107 172
69 108 175
69 107 181
69 108 174
70 109 184
70 110 188
68 107 177
69 108 184
67 107 177
69 108 179
69 109 184
68 108 183
68 108 179
68 107 175
69 108 183
69 108 186
69 108 183
69 109 186
68 108 184
68 108 186
69 108 188
69 108 186
68 108 186
69 108 184
70 109 181
69 108 184
69 109 186
69 109 186
68 107 186
68 108 186
69 109 188
70 109 188
69 108 186
69 108 186
71 110 186
69 108 184
67 108 188
69 108 183
68 108 184
69 109 186
69 108 183
69 108 183
69 109 188
69 108 183
68 108 184
69 109 184
67 107 181
68 107 184
71 110 186
69 108 183
69 108 179
69 109 186
70 109 186
69 108 179
68 107 175
68 108 177
68 108 179
70 109 181
69 107 175
69 108 181
69 108 177
69 108 175
67 105 160
70 108 172
69 107 166
68 107 166
67 105 151
66 104 147
111 138 101
160 182 0
161 182 0
169 191 0
174 196 0
163 185 0
166 188 0
176 197 0
171 193 0
171 194 0
173 195 0
171 193 0
177 199 0
176 198 0
175 198 0
162 184 0
170 192 0
182 204 0
177 200 0
174 196 0
174 196 0
173 196 0
173 196 0
172 194 0
176 199 0
174 196 0
180 202 0
179 200 0
174 196 0
178 199 0
179 201 0
180 201 0
177 199 0
178 200 0
177 199 0
178 200 0
179 200 0
180 202 0
179 200 0
181 203 0
180 201 0
180 201 0
180 202 0
180 202 0
180 201 0
182 204 0
180 200 0
180 202 0
180 201 0
182 204 0
184 205 0
179 201 0
180 202 0
179 201 0
180 201 0
182 203 0
177 199 0
181 203 0
179 200 0
179 201 0
181 202 0
181 202 0
177 198 0
183 204 0
183 204 0
180 202 0
181 202 0
185 205 0
180 203 0
181 202 0
181 202 0
183 204 0
183 204 0
181 202 0
183 204 0
182 204 0
182 203 0
180 202 0
180 202 0
184 205 0
181 202 0
183 204 0
179 201 0
180 202 0
182 203 0
182 204 0
182 203 0
182 204 0
181 203 0
182 204 0
179 201 0
179 201 0
181 202 0
181 203 0
182 204 0
180 203 0
180 202 0
183 204 0
184 205 0
183 204 0
180 203 0
182 204 0
178 201 0
183 204 0
181 203 0
177 200 0
180 202 0
184 205 0
181 203 0
181 203 0
179 202 0
180 202 0
182 204 0
181 203 0
184 205 0
184 205 0
184 205 0
180 202 0
181 203 0
181 203 0
181 203 0
182 204 0
183 204 0
182 204 0
184 205 0
178 199 0
184 205 0
183 204 0
181 203 0
184 205 0
183 203 0
183 204 0
180 203 0
184 205 0
177 201 0
183 204 0
184 205 0
184 205 0
180 203 0
183 204 0
180 202 0
182 204 0
180 202 0
184 205 0
182 203 0
181 203 0
181 203 0
181 203 0
180 203 0
181 203 0
180 202 0
183 204 0
178 201 0
183 204 0
181 202 0
182 204 0
182 204 0
183 204 0
183 204 0
181 203 0
183 204 0
182 204 0
180 203 0
182 203 0
182 203 0
180 202 0
183 204 0
180 203 0
181 203 0
179 202 0
181 203 0
183 204 0
178 201 0
182 204 0
181 203 0
182 204 0
183 204 0
183 204 0
182 204 0
182 204 0
184 205 0
181 202 0
183 204 0
181 203 0
181 203 0
183 204 0
182 204 0
182 204 0
180 203 0
180 202 0
182 204 0
181 203 0
185 205 0
181 202 0
182 204 0
183 204 0
183 204 0
183 204 0
182 204 0
179 201 0
182 204 0
182 204 0
182 204 0
183 204 0
180 202 0
181 203 0
180 203 0
183 204 0
181 203 0
181 203 0
181 203 0
182 204 0
179 202 0
184 205 0
182 204 0
181 203 0
182 204 0
178 200 0
181 203 0
180 202 0
182 203 0
179 201 0
178 200 0
181 203 0
181 202 0
178 200 0
181 201 0
182 204 0
182 203 0
179 201 0
178 200 0
180 203 0
183 204 0
182 204 0
178 201 0
180 203 0
178 200 0
177 199 0
178 200 0
182 204 0
180 202 0
180 203 0
179 200 0
180 201 0
181 203 0
183 204 0
182 203 0
180 203 0
182 204 0
177 199 0
179 201 0
182 204 0
177 200 0
177 199 0
179 201 0
179 201 0
182 204 0
179 201 0
180 202 0
180 202 0
180 201 0
180 202 0
180 202 0
178 201 0
182 204 0
181 202 0
179 201 0
182 203 0
181 203 0
180 202 0
180 203 0
174 196 0
179 201 0
182 203 0
176 199 0
178 200 0
182 203 0
176 199 0
176 197 0
181 203 0
177 199 0
179 201 0
173 195 0
183 204 0
179 200 0
176 198 0
176 198 0
178 200 0
179 201 0
174 197 0
182 203 0
178 199 0
177 200 0
178 200 0
177 200 0
176 197 0
179 201 0
178 199 0
175 197 0
177 199 0
170 191 0
176 198 0
175 196 0
171 194 0
175 196 0
175 198 0
175 196 0
178 199 0
178 199 0
173 196 0
168 190 0
167 189 0
167 189 0
174 197 0
159 181 0
160 181 0
165 186 0
170 191 0
172 193 0
169 191 0
171 192 0
164 185 0
166 187 0
170 193 0
165 187 0
170 192 0
160 183 25
69 107 164
67 106 168
67 106 162
70 108 175
69 108 172
68 107 174
70 109 181
68 107 174
69 108 174
67 106 172
67 107 179
69 108 184
69 108 181
69 108 181
69 108 181
69 109 184
68 107 181
69 108 183
69 108 186
69 108 183
69 108 186
68 108 183
69 109 184
69 108 184
68 108 186
69 108 184
68 108 186
69 108 188
69 108 188
69 108 183
70 109 186
70 109 188
70 109 186
70 109 186
69 108 188
68 108 186
69 108 184
68 108 181
69 108 186
70 109 188
70 109 186
69 109 184
69 109 186
69 108 186
69 108 188
69 108 186
69 108 183
69 108 183
69 108 186
68 107 181
69 108 186
69 108 181
69 108 184
70 109 184
69 108 184
69 108 181
70 109 188
70 109 181
70 109 183
69 108 177
68 108 179
69 108 177
68 107 175
68 108 181
68 107 177
68 107 174
67 106 172
68 106 168
68 107 168
67 106 166
67 106 164
68 107 162
69 107 158
124 150 119
153 174 0
161 182 0
167 189 0
160 182 0
165 186 0
166 187 0
164 185 0
171 193 0
171 193 0
168 189 0
171 194 0
170 192 0
167 189 0
164 186 0
165 188 0
176 198 0
173 194 0
173 195 0
171 192 0
171 193 0
174 196 0
174 196 0
171 194 0
173 194 0
181 203 0
177 198 0
170 193 0
176 198 0
175 198 0
174 195 0
175 197 0
178 199 0
178 199 0
180 202 0
176 198 0
181 202 0
178 199 0
179 200 0
182 203 0
182 203 0
179 201 0
178 200 0
182 203 0
180 201 0
181 202 0
180 202 0
179 200 0
182 202 0
182 203 0
181 202 0
181 203 0
181 203 0
183 204 0
180 202 0
182 203 0
177 199 0
182 204 0
182 204 0
181 202 0
179 201 0
182 204 0
183 204 0
182 203 0
182 203 0
180 202 0
176 197 0
181 203 0
180 202 0
184 205 0
179 201 0
182 203 0
182 203 0
182 203 0
181 202 0
182 204 0
179 202 0
183 204 0
184 205 0
181 202 0
183 204 0
182 203 0
184 205 0
181 203 0
179 201 0
181 203 0
182 203 0
184 205 0
182 203 0
182 203 0
179 201 0
180 202 0
183 204 0
183 203 0
183 204 0
180 201 0
178 200 0
179 201 0
183 204 0
180 202 0
181 203 0
183 204 0
182 203 0
181 203 0
183 204 0
181 202 0
181 203 0
179 200 0
183 204 0
182 204 0
183 204 0
180 203 0
182 204 0
183 204 0
183 204 0
179 201 0
182 203 0
183 204 0
181 203 0
184 205 0
180 203 0
179 202 0
180 202 0
183 204 0
182 204 0
181 203 0
181 202 0
183 204 0
182 204 0
182 204 0
182 204 0
181 203 0
182 204 0
183 204 0
184 205 0
182 203 0
181 202 0
179 202 0
182 204 0
182 204 0
181 203 0
182 204 0
182 204 0
179 202 0
184 205 0
182 203 0
184 205 0
181 203 0
183 204 0
182 203 0
179 202 0
181 203 0
181 202 0
179 201 0
182 204 0
181 203 0
182 204 0
182 204 0
182 204 0
184 205 0
183 204 0
182 204 0
183 204 0
182 204 0
179 202 0
183 204 0
181 203 0
179 202 0
181 203 0
180 203 0
184 205 0
181 203 0
184 205 0
181 202 0
181 203 0
182 204 0
181 203 0
182 203 0
182 204 0
182 204 0
181 203 0
179 201 0
182 204 0
181 203 0
180 203 0
179 201 0
182 204 0
181 203 0
182 204 0
180 202 0
182 204 0
182 204 0
182 204 0
182 204 0
182 204 0
181 203 0
182 204 0
182 203 0
180 202 0
179 202 0
183 204 0
181 203 0
183 204 0
180 202 0
181 202 0
180 202 0
183 204 0
182 204 0
181 203 0
182 204 0
181 203 0
181 203 0
180 202 0
178 201 0
180 203 0
181 203 0
182 203 0
181 203 0
182 204 0
178 201 0
179 202 0
180 203 0
180 202 0
180 203 0
181 203 0
183 203 0
181 203 0
179 201 0
182 204 0
181 202 0
182 204 0
181 203 0
184 205 0
182 203 0
181 203 0
178 199 0
178 201 0
181 202 0
183 204 0
179 201 0
179 201 0
182 203 0
181 203 0
181 203 0
181 203 0
176 198 0
182 204 0
180 202 0
180 203 0
181 203 0
181 203 0
179 202 0
180 203 0
179 202 0
178 200 0
183 204 0
180 202 0
182 204 0
182 204 0
182 204 0
180 202 0
181 203 0
181 202 0
179 201 0
182 203 0
182 203 0
178 200 0
181 203 0
179 201 0
177 199 0
177 199 0
180 202 0
179 201 0
180 202 0
176 198 0
176 198 0
182 204 0
174 196 0
177 198 0
173 196 0
179 201 0
177 199 0
177 199 0
178 200 0
179 202 0
179 201 0
174 195 0
175 198 0
179 202 0
179 201 0
179 201 0
176 198 0
176 199 0
177 200 0
180 203 0
172 194 0
172 194 0
178 199 0
175 198 0
175 196 0
172 194 0
177 199 0
175 197 0
172 193 0
178 200 0
176 197 0
176 198 0
179 201 0
175 196 0
168 190 0
176 196 0
175 198 0
168 190 0
170 192 0
171 193 0
159 181 0
178 199 0
171 192 0
166 187 0
169 190 0
167 189 0
173 194 0
170 191 0
165 185 0
167 188 0
163 185 0
165 187 48
67 105 156
68 106 162
68 107 170
69 108 175
68 107 170
66 105 164
69 108 174
69 107 178
70 109 183
70 109 183
70 108 179
70 109 184
69 109 188
70 109 188
69 109 184
70 108 177
69 108 181
69 108 183
69 109 186
69 108 184
68 108 183
68 108 183
68 108 184
69 109 188
69 109 186
69 108 184
69 108 181
69 108 183
68 108 184
69 109 186
68 108 188
69 109 186
68 108 186
68 108 183
70 109 188
69 108 181
70 109 183
68 108 184
69 108 184
68 108 188
67 107 184
69 109 186
68 107 184
69 109 188
69 108 184
69 108 188
69 108 183
69 109 186
69 109 186
69 108 183
70 109 184
69 109 186
69 108 183
69 108 183
69 108 184
69 108 174
70 109 181
70 109 186
67 107 177
69 108 179
69 108 181
69 108 175
70 108 175
69 108 177
68 107 170
70 109 179
69 107 172
69 107 175
69 107 166
69 107 166
70 108 168
68 106 160
67 105 153
127 152 111
144 165 0
161 182 0
166 188 0
163 185 0
170 192 0
165 187 0
166 188 0
166 188 0
163 185 0
171 192 0
168 190 0
168 189 0
167 190 0
176 198 0
166 188 0
169 191 0
161 183 0
177 199 0
176 198 0
170 192 0
179 201 0
178 199 0
173 194 0
173 195 0
178 199 0
177 199 0
176 198 0
178 199 0
176 198 0
181 202 0
175 197 0
183 203 0
174 195 0
180 202 0
180 201 0
183 203 0
176 197 0
180 201 0
180 201 0
179 201 0
180 200 0
181 202 0
177 199 0
179 201 0
179 200 0
182 202 0
180 201 0
184 205 0
180 201 0
178 199 0
180 202 0
180 201 0
178 199 0
182 203 0
182 203 0
177 199 0
181 202 0
178 200 0
181 203 0
180 202 0
180 201 0
181 201 0
183 204 0
183 204 0
180 202 0
181 202 0
182 203 0
183 204 0
181 202 0
181 202 0
179 202 0
181 203 0
179 201 0
180 202 0
181 203 0
181 202 0
178 200 0
182 204 0
179 201 0
182 204 0
182 204 0
182 204 0
180 201 0
180 202 0
181 202 0
181 202 0
181 203 0
180 202 0
180 203 0
179 201 0
180 202 0
182 203 0
181 203 0
181 202 0
181 202 0
181 203 0
183 204 0
183 204 0
181 203 0
182 203 0
183 204 0
181 203 0
181 203 0
182 204 0
177 199 0
180 202 0
181 202 0
182 204 0
182 204 0
182 204 0
182 204 0
183 204 0
182 203 0
184 205 0
180 203 0
182 204 0
182 204 0
182 204 0
183 204 0
179 201 0
182 204 0
184 205 0
179 201 0
183 204 0
182 203 0
179 202 0
183 204 0
180 202 0
183 204 0
184 205 0
180 203 0
182 204 0
182 204 0
182 204 0
181 203 0
183 204 0
180 202 0
181 203 0
183 203 0
182 204 0
182 204 0
181 203 0
183 204 0
181 203 0
185 205 0
181 203 0
182 204 0
181 203 0
180 203 0
183 204 0
181 202 0
181 203 0
183 204 0
180 202 0
180 202 0
183 204 0
180 202 0
182 204 0
181 203 0
182 203 0
182 203 0
182 204 0
182 204 0
182 204 0
183 204 0
182 204 0
182 204 0
182 204 0
183 204 0
181 203 0
182 204 0
182 204 0
182 204 0
183 204 0
180 203 0
179 202 0
182 204 0
184 205 0
181 203 0
184 205 0
184 205 0
181 203 0
181 203 0
182 204 0
180 202 0
179 201 0
180 203 0
179 202 0
183 204 0
180 203 0
184 205 0
183 204 0
179 202 0
182 204 0
181 203 0
182 204 0
181 203 0
180 203 0
183 204 0
183 203 0
179 201 0
179 202 0
182 203 0
180 203 0
182 204 0
179 201 0
182 204 0
179 201 0
179 202 0
182 204 0
180 202 0
181 203 0
182 204 0
181 203 0
180 202 0
180 203 0
181 203 0
183 204 0
179 202 0
183 204 0
182 204 0
182 203 0
181 203 0
179 202 0
178 199 0
181 203 0
184 205 0
178 200 0
182 203 0
182 203 0
181 203 0
183 204 0
183 204 0
183 204 0
180 203 0
181 203 0
180 202 0
181 203 0
181 203 0
180 202 0
181 203 0
178 200 0
179 201 0
179 200 0
178 200 0
180 201 0
182 204 0
177 200 0
182 203 0
181 202 0
179 201 0
180 202 0
179 200 0
178 200 0
178 200 0
182 203 0
179 201 0
180 202 0
180 202 0
177 199 0
181 202 0
183 204 0
181 202 0
176 199 0
180 202 0
176 199 0
181 203 0
179 201 0
180 201 0
175 198 0
179 200 0
182 204 0
178 200 0
179 201 0
181 202 0
180 202 0
180 202 0
176 198 0
177 200 0
181 203 0
175 198 0
181 201 0
178 200 0
176 199 0
177 198 0
180 201 0
175 198 0
175 197 0
178 200 0
175 197 0
181 202 0
180 201 0
175 197 0
177 199 0
179 200 0
171 193 0
175 197 0
172 195 0
181 202 0
177 199 0
174 195 0
174 197 0
173 194 0
169 191 0
177 200 0
175 197 0
175 196 0
170 192 0
158 180 0
170 192 0
172 194 0
178 200 0
166 190 0
166 189 0
168 190 0
179 200 0
164 185 0
168 191 0
175 196 0
166 188 0
167 189 0
166 187 0
168 190 0
157 178 0
171 192 0
160 182 25
67 105 162
69 108 170
68 106 160
68 107 170
69 107 174
69 107 166
67 106 174
70 109 179
69 108 184
70 108 174
69 108 179
69 108 179
69 108 181
69 108 175
68 107 181
69 108 181
68 107 172
69 108 179
68 107 179
68 107 181
68 108 184
70 109 183
70 109 184
70 109 183
69 108 183
69 109 186
69 109 188
69 109 186
69 109 186
68 108 188
69 108 184
70 109 184
69 108 184
69 109 186
69 108 183
69 108 183
68 108 181
69 108 184
68 107 181
69 109 186
70 109 186
69 109 184
68 108 186
70 109 188
69 109 186
69 109 186
69 108 179
68 107 181
69 108 181
70 109 186
69 109 186
70 109 184
69 107 177
69 108 184
69 108 181
69 108 179
68 108 179
70 108 179
70 109 179
69 108 175
69 108 175
69 108 181
68 107 175
68 107 172
70 109 181
69 107 174
70 109 175
69 108 164
70 108 166
69 108 168
69 107 158
69 106 160
68 105 149
122 147 121
168 189 0
160 181 0
160 181 0
167 189 0
167 189 0
174 196 0
171 191 0
169 191 0
167 188 0
170 192 0
170 192 0
157 179 0
171 193 0
171 193 0
171 193 0
172 194 0
172 195 0
172 193 0
174 196 0
171 192 0
167 189 0
171 193 0
177 199 0
174 196 0
173 194 0
176 198 0
174 197 0
174 195 0
179 201 0
168 190 0
175 196 0
179 201 0
174 196 0
178 199 0
178 200 0
179 200 0
177 198 0
181 202 0
180 201 0
181 202 0
180 202 0
182 204 0
177 198 0
177 198 0
181 202 0
179 200 0
180 201 0
178 199 0
182 204 0
180 202 0
177 200 0
181 202 0
181 203 0
178 198 0
180 200 0
183 204 0
181 203 0
179 201 0
183 204 0
180 201 0
180 201 0
182 203 0
182 203 0
181 202 0
183 204 0
181 202 0
181 203 0
182 204 0
181 203 0
179 202 0
181 203 0
182 204 0
176 198 0
180 201 0
180 201 0
178 201 0
182 203 0
182 204 0
183 204 0
179 200 0
182 203 0
180 203 0
183 204 0
183 204 0
181 203 0
181 203 0
180 202 0
178 200 0
180 202 0
182 204 0
180 202 0
181 202 0
182 203 0
182 203 0
182 203 0
181 202 0
181 203 0
180 203 0
182 204 0
178 200 0
179 202 0
179 201 0
179 201 0
180 202 0
180 202 0
181 203 0
181 203 0
183 203 0
181 203 0
182 204 0
182 203 0
181 203 0
183 204 0
180 202 0
182 203 0
182 203 0
183 204 0
182 204 0
182 203 0
182 203 0
182 203 0
181 203 0
181 203 0
182 204 0
182 204 0
181 203 0
181 203 0
182 204 0
183 204 0
183 204 0
183 204 0
180 202 0
185 205 0
183 204 0
183 204 0
182 204 0
183 204 0
180 203 0
182 204 0
181 203 0
183 204 0
181 203 0
180 202 0
181 203 0
182 204 0
180 203 0
181 203 0
182 204 0
179 201 0
180 202 0
182 204 0
182 203 0
177 201 0
181 202 0
183 204 0
183 204 0
180 203 0
182 203 0
181 203 0
181 203 0
179 202 0
183 204 0
182 204 0
184 205 0
180 202 0
182 204 0
182 204 0
182 204 0
184 205 0
183 204 0
184 205 0
180 202 0
182 204 0
181 203 0
183 204 0
180 203 0
182 204 0
182 203 0
180 202 0
181 203 0
181 203 0
181 203 0
183 204 0
182 204 0
179 202 0
182 204 0
183 204 0
179 201 0
181 203 0
180 202 0
182 203 0
182 203 0
182 204 0
182 203 0
181 203 0
182 204 0
183 204 0
182 204 0
184 205 0
183 204 0
183 204 0
183 204 0
182 203 0
181 203 0
179 202 0
183 204 0
183 204 0
180 202 0
181 203 0
182 203 0
182 203 0
183 204 0
182 203 0
180 202 0
183 204 0
181 203 0
183 204 0
181 203 0
183 204 0
183 204 0
181 203 0
185 204 0
179 201 0
182 204 0
182 204 0
182 204 0
183 204 0
181 203 0
182 203 0
182 204 0
181 203 0
182 203 0
181 203 0
180 202 0
181 203 0
183 204 0
177 200 0
181 203 0
182 204 0
181 203 0
182 203 0
180 202 0
181 203 0
177 200 0
182 204 0
181 203 0
178 200 0
179 201 0
184 205 0
176 199 0
180 202 0
183 203 0
180 203 0
180 202 0
179 201 0
180 201 0
182 204 0
182 204 0
179 202 0
181 202 0
180 202 0
181 203 0
180 203 0
177 199 0
181 202 0
174 195 0
178 201 0
180 202 0
177 198 0
176 198 0
180 203 0
182 203 0
179 201 0
179 201 0
181 203 0
178 200 0
178 201 0
180 202 0
179 200 0
183 204 0
177 199 0
177 200 0
180 201 0
173 196 0
178 200 0
173 196 0
172 193 0
178 200 0
174 196 0
177 198 0
175 197 0
174 195 0
178 199 0
175 197 0
173 196 0
180 202 0
173 195 0
178 200 0
175 197 0
178 200 0
177 199 0
174 197 0
177 199 0
173 195 0
168 190 0
175 196 0
177 198 0
177 199 0
172 193 0
168 190 0
177 198 0
172 194 0
171 193 0
176 197 0
168 190 0
169 191 0
167 188 0
164 185 0
166 188 0
167 189 0
178 198 0
169 189 0
161 182 0
164 187 0
164 184 0
166 188 0
76 109 139
69 107 170
68 106 164
68 107 166
70 109 179
68 107 172
69 106 162
68 107 175
69 108 181
68 107 174
69 108 183
70 109 183
68 108 179
68 107 177
68 107 177
69 108 181
69 108 183
69 108 184
70 109 183
68 108 183
69 108 179
69 108 179
69 108 181
69 108 183
69 108 183
69 108 184
69 109 186
69 109 188
69 108 186
69 108 183
69 109 186
69 108 186
69 109 183
67 107 177
70 109 188
69 109 188
68 108 186
68 108 186
69 108 188
69 108 184
69 108 183
69 108 184
69 108 186
69 109 184
70 109 186
68 108 179
67 106 179
69 108 177
69 108 179
69 108 179
70 109 179
68 107 179
69 108 183
70 108 179
68 108 183
70 109 183
69 109 184
69 108 179
68 107 177
70 109 183
68 107 168
68 107 172
70 109 179
69 107 172
70 108 175
69 107 172
69 107 172
68 107 175
70 109 175
68 107 170
68 106 162
68 106 162
68 105 158
136 159 108
160 181 0
154 174 0
154 175 0
167 188 0
171 192 0
173 194 0
166 189 0
173 195 0
173 194 0
170 191 0
171 192 0
167 190 0
172 193 0
175 197 0
170 193 0
176 198 0
176 198 0
174 195 0
174 195 0
173 194 0
169 192 0
179 201 0
180 201 0
171 194 0
175 196 0
173 195 0
175 197 0
174 196 0
175 197 0
180 202 0
175 198 0
171 193 0
179 202 0
176 198 0
178 200 0
181 202 0
179 201 0
180 201 0
181 203 0
182 203 0
180 201 0
177 198 0
179 201 0
176 198 0
180 201 0
177 199 0
179 201 0
181 202 0
180 202 0
182 203 0
184 205 0
179 201 0
182 203 0
179 202 0
182 203 0
184 205 0
176 198 0
181 202 0
182 202 0
176 199 0
180 202 0
184 205 0
181 203 0
182 203 0
184 205 0
180 203 0
179 200 0
185 205 0
179 200 0
182 204 0
182 203 0
183 204 0
179 201 0
182 204 0
182 204 0
182 203 0
180 202 0
180 202 0
181 203 0
183 204 0
183 204 0
179 201 0
181 202 0
184 205 0
179 201 0
182 203 0
180 203 0
183 204 0
182 204 0
185 205 0
183 204 0
183 204 0
180 203 0
181 203 0
181 203 0
179 202 0
183 204 0
182 203 0
180 203 0
184 205 0
183 204 0
182 204 0
184 205 0
183 204 0
179 202 0
177 200 0
183 203 0
181 203 0
180 203 0
182 204 0
181 203 0
179 202 0
182 203 0
178 200 0
181 203 0
181 202 0
180 203 0
181 202 0
181 203 0
181 203 0
182 204 0
182 204 0
184 205 0
177 200 0
182 204 0
183 204 0
180 202 0
182 204 0
183 204 0
181 203 0
181 202 0
183 204 0
182 204 0
181 203 0
181 203 0
182 203 0
182 203 0
181 203 0
183 204 0
181 203 0
184 205 0
181 203 0
181 203 0
181 203 0
182 204 0
182 204 0
185 205 0
182 204 0
182 203 0
181 203 0
182 204 0
180 203 0
182 204 0
182 203 0
181 203 0
182 204 0
180 202 0
184 205 0
181 203 0
181 203 0
184 205 0
181 203 0
181 203 0
184 205 0
180 203 0
181 202 0
181 203 0
181 203 0
180 203 0
182 204 0
182 204 0
181 203 0
182 204 0
186 206 0
182 204 0
184 205 0
182 204 0
182 204 0
181 203 0
181 203 0
180 203 0
182 203 0
183 204 0
180 202 0
183 204 0
183 204 0
181 203 0
178 201 0
181 203 0
180 203 0
183 204 0
182 203 0
183 204 0
182 204 0
183 203 0
180 203 0
181 203 0
181 203 0
183 204 0
182 203 0
181 203 0
181 203 0
183 204 0
182 204 0
182 203 0
182 204 0
182 204 0
182 204 0
181 203 0
180 202 0
180 202 0
181 203 0
181 203 0
181 203 0
182 204 0
181 203 0
179 201 0
182 204 0
180 203 0
181 202 0
181 203 0
182 203 0
181 203 0
180 203 0
180 202 0
179 201 0
184 205 0
182 204 0
182 204 0
180 202 0
182 204 0
181 203 0
179 201 0
182 203 0
177 200 0
179 202 0
179 201 0
181 203 0
178 201 0
184 205 0
180 203 0
172 194 0
179 202 0
181 203 0
178 200 0
177 200 0
182 204 0
184 205 0
179 202 0
185 205 0
182 204 0
181 203 0
183 204 0
181 203 0
182 204 0
181 202 0
179 201 0
179 201 0
178 200 0
182 203 0
180 203 0
176 198 0
178 200 0
180 202 0
181 203 0
179 200 0
183 204 0
184 204 0
180 202 0
177 200 0
180 202 0
179 201 0
176 199 0
181 203 0
179 200 0
183 204 0
182 204 0
183 204 0
180 202 0
179 201 0
178 198 0
175 197 0
176 199 0
175 198 0
175 197 0
179 202 0
176 198 0
175 198 0
181 202 0
179 200 0
177 200 0
172 196 0
176 198 0
172 195 0
176 198 0
169 192 0
177 199 0
178 201 0
180 201 0
175 197 0
170 193 0
171 193 0
178 199 0
179 200 0
173 194 0
173 195 0
173 196 0
177 199 0
172 194 0
174 196 0
175 197 0
174 195 0
172 195 0
168 190 0
169 191 0
176 197 0
178 199 0
165 186 0
173 194 0
171 193 0
151 173 0
161 183 0
168 190 0
165 187 0
157 178 0
168 189 0
93 122 132
68 106 158
68 106 160
68 106 164
69 108 175
66 105 164
68 107 170
69 108 172
69 108 172
69 108 175
69 108 179
69 108 179
68 108 181
69 108 175
69 108 179
70 109 183
69 108 179
69 108 183
70 109 181
67 107 181
69 108 181
70 109 181
69 108 184
70 109 181
69 108 177
69 109 188
69 108 186
70 109 186
70 109 184
69 108 184
68 108 186
70 109 186
69 108 186
69 108 183
68 107 181
69 108 184
70 109 186
70 109 184
69 109 186
68 108 184
69 108 184
69 108 179
68 108 181
69 108 177
68 108 184
68 107 177
70 109 181
69 108 179
70 109 184
68 108 181
68 107 183
69 108 181
68 107 174
68 107 179
70 109 183
68 107 179
69 108 175
69 108 181
69 108 179
69 108 179
68 107 175
71 109 183
69 108 177
71 110 186
69 108 175
70 108 175
68 106 162
67 106 158
68 106 166
69 108 174
69 107 164
68 107 168
67 105 156
145 168 108
161 182 0
157 178 0
153 174 0
173 194 0
173 194 0
166 187 0
167 188 0
170 191 0
162 183 0
170 192 0
177 198 0
172 194 0
175 195 0
173 195 0
172 193 0
175 197 0
177 198 0
173 193 0
172 194 0
175 196 0
178 199 0
177 198 0
177 198 0
171 193 0
171 193 0
174 195 0
177 199 0
179 201 0
176 197 0
176 198 0
170 193 0
180 201 0
175 197 0
177 198 0
177 199 0
181 202 0
176 197 0
176 198 0
179 201 0
176 198 0
179 200 0
175 197 0
181 202 0
183 204 0
183 203 0
180 201 0
180 201 0
178 200 0
180 202 0
181 203 0
182 203 0
182 204 0
181 202 0
181 202 0
177 200 0
180 202 0
182 204 0
183 204 0
176 198 0
181 203 0
176 198 0
183 204 0
183 204 0
182 203 0
182 204 0
179 201 0
182 203 0
181 203 0
180 201 0
183 204 0
181 203 0
182 203 0
180 201 0
181 203 0
181 203 0
180 202 0
184 205 0
183 204 0
179 202 0
184 205 0
183 204 0
180 202 0
182 202 0
180 202 0
180 202 0
181 202 0
181 203 0
179 201 0
182 203 0
183 204 0
183 204 0
181 203 0
181 203 0
183 204 0
182 204 0
182 203 0
181 202 0
179 201 0
181 203 0
181 202 0
181 203 0
183 204 0
181 203 0
181 203 0
181 203 0
184 204 0
178 200 0
182 204 0
183 204 0
180 202 0
181 203 0
180 202 0
181 203 0
184 205 0
179 201 0
183 204 0
180 202 0
183 204 0
181 203 0
181 203 0
182 203 0
184 205 0
184 205 0
182 204 0
183 204 0
181 203 0
181 202 0
183 204 0
180 202 0
180 203 0
181 203 0
181 203 0
182 203 0
182 203 0
181 203 0
181 203 0
178 200 0
181 203 0
181 203 0
181 203 0
183 204 0
182 203 0
181 203 0
180 202 0
180 203 0
180 203 0
180 202 0
181 203 0
182 204 0
181 203 0
183 204 0
183 204 0
182 204 0
181 203 0
184 205 0
183 204 0
181 203 0
181 203 0
182 204 0
183 204 0
178 201 0
180 203 0
182 203 0
181 203 0
183 204 0
181 203 0
183 204 0
182 204 0
182 204 0
180 203 0
181 203 0
182 204 0
181 203 0
181 203 0
181 203 0
182 203 0
181 203 0
182 204 0
181 202 0
180 203 0
181 203 0
180 202 0
180 202 0
179 201 0
182 203 0
178 200 0
180 203 0
182 204 0
183 204 0
180 202 0
181 203 0
182 204 0
181 203 0
182 204 0
180 203 0
181 203 0
181 203 0
182 204 0
183 203 0
182 203 0
182 204 0
181 203 0
182 204 0
181 203 0
180 203 0
179 202 0
180 202 0
181 203 0
182 204 0
181 203 0
183 204 0
180 201 0
182 203 0
181 203 0
176 199 0
181 202 0
181 203 0
182 204 0
180 203 0
180 202 0
181 203 0
183 203 0
182 204 0
179 201 0
183 204 0
182 203 0
176 198 0
183 204 0
180 203 0
182 204 0
179 202 0
180 201 0
178 200 0
184 205 0
183 204 0
182 204 0
179 200 0
181 202 0
180 203 0
180 203 0
177 199 0
181 203 0
181 202 0
181 203 0
181 203 0
178 200 0
181 203 0
185 205 0
179 202 0
180 201 0
177 199 0
179 201 0
180 201 0
180 203 0
182 203 0
180 202 0
182 204 0
179 200 0
178 200 0
179 201 0
179 201 0
182 203 0
177 198 0
180 202 0
181 202 0
177 199 0
176 199 0
179 200 0
179 201 0
178 201 0
177 198 0
183 204 0
173 196 0
179 201 0
179 201 0
182 204 0
181 202 0
177 198 0
180 202 0
178 200 0
176 199 0
175 198 0
179 201 0
182 203 0
179 200 0
176 198 0
180 201 0
177 199 0
176 199 0
180 201 0
179 201 0
172 195 0
173 196 0
178 198 0
175 197 0
177 200 0
174 196 0
178 200 0
180 201 0
177 198 0
170 193 0
177 198 0
170 192 0
172 194 0
169 191 0
178 199 0
176 197 0
170 193 0
176 198 0
176 198 0
171 193 0
169 192 0
171 194 0
167 189 0
175 197 0
171 192 0
170 192 0
170 192 0
165 186 0
166 188 0
169 190 0
161 183 0
158 180 0
167 189 0
164 186 0
158 179 0
101 129 134
68 106 160
66 104 153
70 108 166
69 108 172
68 106 170
68 107 172
68 106 166
69 107 170
69 107 170
67 106 168
70 109 183
70 109 183
68 107 174
68 107 183
70 109 184
70 109 181
68 107 177
69 109 183
68 107 179
69 108 177
70 109 179
68 108 181
68 108 179
68 107 179
68 108 183
69 109 186
68 107 180
69 108 186
68 107 179
70 109 184
67 107 183
68 108 186
69 108 184
71 110 188
68 108 179
69 109 188
68 108 179
68 107 181
69 108 184
69 109 186
68 108 181
69 108 183
69 108 179
68 108 183
68 108 183
69 109 183
68 107 177
69 108 186
69 108 177
70 109 184
69 108 184
69 108 184
68 108 186
69 108 181
69 108 177
70 109 184
68 107 172
69 108 179
70 108 175
69 108 177
69 108 175
69 108 179
66 105 160
68 107 174
69 108 175
68 107 168
67 105 158
68 106 156
68 106 164
68 105 156
68 106 160
69 107 164
155 176 80
169 190 0
160 181 0
155 177 0
167 188 0
165 186 0
159 181 0
158 180 0
171 192 0
165 187 0
160 181 0
166 189 0
172 193 0
165 186 0
171 193 0
174 194 0
168 189 0
164 186 0
173 194 0
177 199 0
170 192 0
175 196 0
174 195 0
177 199 0
177 199 0
175 196 0
181 202 0
176 197 0
180 201 0
176 197 0
171 194 0
177 198 0
171 192 0
176 197 0
176 197 0
172 194 0
179 200 0
181 202 0
182 202 0
187 206 0
178 199 0
176 198 0
181 203 0
180 201 0
174 196 0
182 204 0
183 204 0
178 200 0
183 204 0
180 202 0
180 201 0
177 198 0
177 198 0
181 202 0
180 201 0
182 204 0
181 202 0
182 203 0
183 204 0
179 201 0
176 197 0
179 201 0
179 201 0
178 200 0
180 201 0
182 203 0
180 202 0
179 202 0
181 203 0
181 202 0
180 202 0
180 201 0
182 203 0
182 204 0
183 204 0
183 204 0
180 202 0
181 203 0
182 203 0
181 203 0
180 203 0
179 201 0
178 200 0
179 202 0
182 203 0
181 203 0
179 201 0
182 203 0
182 204 0
179 201 0
183 204 0
180 201 0
181 203 0
181 203 0
179 201 0
179 201 0
181 203 0
181 202 0
182 204 0
180 203 0
181 203 0
182 203 0
182 204 0
181 202 0
178 201 0
182 204 0
183 204 0
184 204 0
181 202 0
184 205 0
180 203 0
182 204 0
181 202 0
179 202 0
183 204 0
179 201 0
180 203 0
183 204 0
181 203 0
178 201 0
181 203 0
182 204 0
180 202 0
183 204 0
182 204 0
180 202 0
183 204 0
178 200 0
182 204 0
182 204 0
179 201 0
181 203 0
180 202 0
180 202 0
182 204 0
182 204 0
184 205 0
179 201 0
182 204 0
180 203 0
181 203 0
180 203 0
184 205 0
182 204 0
180 202 0
184 205 0
181 203 0
182 204 0
183 204 0
181 203 0
183 204 0
180 203 0
182 204 0
182 204 0
184 205 0
181 203 0
182 203 0
181 203 0
182 204 0
182 204 0
182 204 0
183 204 0
182 204 0
183 204 0
181 203 0
181 203 0
181 203 0
181 202 0
181 203 0
180 202 0
181 203 0
183 203 0
182 204 0
181 202 0
184 205 0
185 205 0
182 204 0
180 203 0
180 202 0
181 203 0
183 204 0
182 204 0
181 203 0
183 204 0
183 204 0
181 203 0
180 203 0
182 204 0
180 202 0
184 205 0
181 202 0
181 203 0
181 202 0
179 202 0
181 202 0
180 203 0
181 203 0
180 203 0
184 205 0
181 203 0
179 201 0
182 204 0
181 203 0
180 202 0
182 203 0
182 204 0
183 204 0
183 204 0
180 202 0
180 202 0
183 204 0
180 203 0
182 204 0
180 203 0
184 205 0
180 201 0
180 202 0
184 205 0
180 203 0
180 202 0
182 204 0
179 202 0
180 203 0
183 204 0
179 202 0
183 204 0
182 203 0
183 204 0
183 204 0
181 202 0
182 204 0
182 204 0
179 201 0
178 200 0
182 204 0
180 202 0
178 200 0
178 200 0
182 204 0
182 204 0
181 203 0
181 203 0
177 200 0
182 204 0
178 200 0
182 203 0
181 203 0
177 199 0
181 203 0
177 199 0
183 204 0
182 203 0
179 200 0
181 203 0
181 202 0
182 202 0
181 202 0
178 201 0
179 200 0
181 202 0
180 202 0
181 203 0
174 196 0
180 201 0
177 200 0
175 198 0
183 204 0
178 200 0
182 203 0
177 200 0
179 201 0
181 203 0
175 198 0
180 202 0
180 202 0
180 201 0
178 199 0
178 200 0
177 198 0
176 198 0
179 200 0
176 199 0
177 199 0
177 200 0
171 194 0
174 196 0
175 196 0
175 198 0
177 198 0
179 200 0
176 197 0
181 202 0
172 194 0
175 197 0
180 201 0
173 195 0
177 199 0
176 198 0
179 202 0
178 200 0
172 194 0
176 198 0
176 197 0
175 197 0
175 197 0
182 203 0
168 190 0
176 198 0
172 194 0
174 196 0
172 195 0
174 197 0
179 200 0
165 188 0
171 193 0
170 191 0
168 189 0
167 188 0
161 183 0
169 191 0
180 201 0
168 190 0
163 186 0
160 182 0
159 180 0
172 193 0
166 187 0
116 142 124
68 106 160
70 108 174
70 108 172
70 108 172
68 106 162
68 106 166
68 107 172
69 107 174
68 107 177
67 106 172
68 107 175
69 108 184
69 108 183
70 109 183
70 109 184
69 108 183
69 109 184
69 108 181
70 109 186
68 108 184
67 106 177
68 107 181
68 108 181
69 108 179
69 108 181
69 107 178
70 109 183
68 108 183
69 108 179
68 107 184
69 108 183
69 108 184
68 108 186
68 107 179
69 109 184
70 109 179
68 107 177
69 108 186
69 109 188
69 108 183
69 108 181
68 107 181
70 109 184
69 108 183
69 109 186
67 107 179
69 108 181
68 107 179
69 109 183
70 109 181
70 108 177
69 108 183
68 107 177
68 107 170
71 109 183
68 107 175
69 108 179
69 107 168
70 108 177
70 109 181
67 106 168
69 107 174
69 108 168
68 107 172
69 108 172
68 107 172
69 107 162
69 107 170
66 105 158
68 106 164
68 106 151
67 104 144
152 173 38
159 180 0
164 184 0
151 172 0
159 181 0
171 192 0
165 185 0
172 194 0
171 193 0
161 182 0
176 196 0
165 187 0
168 190 0
164 184 0
167 188 0
167 188 0
166 188 0
171 194 0
174 197 0
167 188 0
164 185 0
173 194 0
175 197 0
173 195 0
173 195 0
172 193 0
169 191 0
171 193 0
174 197 0
171 192 0
178 200 0
178 199 0
178 199 0
175 197 0
173 196 0
174 197 0
178 199 0
171 193 0
180 202 0
181 202 0
179 201 0
178 200 0
177 198 0
181 202 0
177 198 0
177 199 0
183 204 0
185 205 0
177 199 0
179 200 0
181 202 0
178 200 0
180 202 0
181 202 0
179 201 0
181 203 0
182 203 0
179 201 0
182 202 0
179 201 0
181 203 0
178 200 0
179 200 0
179 200 0
179 201 0
183 203 0
184 204 0
181 202 0
182 203 0
179 201 0
182 203 0
182 203 0
180 201 0
183 204 0
184 205 0
183 203 0
184 205 0
185 205 0
180 202 0
183 204 0
184 205 0
182 204 0
180 202 0
178 200 0
183 204 0
182 203 0
178 200 0
183 204 0
181 203 0
182 204 0
181 203 0
182 204 0
183 204 0
182 203 0
181 203 0
181 203 0
179 202 0
184 205 0
181 203 0
183 204 0
183 204 0
182 204 0
181 203 0
180 202 0
183 204 0
184 205 0
179 201 0
178 200 0
183 204 0
184 205 0
179 202 0
181 203 0
183 204 0
184 205 0
181 203 0
182 204 0
182 204 0
180 203 0
179 202 0
183 204 0
182 204 0
182 203 0
178 201 0
182 204 0
181 203 0
179 202 0
183 204 0
181 203 0
182 204 0
183 204 0
180 202 0
180 203 0
183 204 0
180 202 0
181 203 0
180 202 0
182 204 0
183 204 0
182 204 0
181 203 0
184 205 0
180 203 0
182 203 0
182 204 0
179 202 0
182 204 0
180 202 0
184 205 0
181 203 0
180 202 0
182 204 0
182 204 0
180 202 0
180 203 0
182 203 0
181 203 0
180 203 0
183 204 0
181 203 0
181 203 0
182 204 0
179 201 0
183 204 0
181 203 0
181 203 0
182 204 0
183 204 0
182 204 0
181 203 0
183 204 0
183 204 0
181 202 0
183 204 0
182 204 0
180 202 0
180 203 0
180 203 0
179 201 0
180 203 0
182 204 0
181 203 0
180 203 0
181 203 0
185 205 0
181 203 0
182 203 0
181 203 0
183 204 0
182 204 0
182 204 0
180 202 0
182 203 0
181 203 0
179 202 0
181 203 0
182 204 0
183 204 0
182 204 0
182 204 0
182 204 0
180 202 0
183 204 0
179 201 0
182 204 0
181 201 0
179 201 0
181 203 0
181 203 0
180 202 0
183 204 0
180 202 0
178 200 0
181 203 0
181 203 0
183 204 0
180 202 0
179 200 0
181 203 0
181 203 0
184 205 0
182 204 0
180 203 0
182 204 0
178 201 0
183 204 0
182 204 0
181 203 0
179 201 0
178 200 0
178 199 0
181 202 0
182 204 0
179 201 0
180 202 0
180 202 0
182 204 0
180 202 0
183 203 0
181 202 0
182 204 0
182 204 0
180 202 0
180 201 0
177 199 0
177 200 0
182 204 0
178 200 0
183 204 0
176 198 0
179 201 0
179 201 0
180 203 0
181 203 0
180 201 0
181 203 0
179 202 0
182 203 0
178 200 0
182 204 0
181 203 0
182 204 0
180 202 0
179 200 0
179 200 0
178 201 0
182 203 0
176 199 0
183 204 0
176 198 0
182 203 0
180 201 0
176 199 0
175 197 0
184 205 0
178 200 0
178 201 0
179 200 0
174 197 0
178 199 0
179 200 0
180 202 0
176 198 0
182 203 0
180 203 0
173 195 0
178 201 0
178 200 0
170 192 0
181 203 0
181 202 0
176 197 0
175 198 0
177 199 0
166 188 0
179 202 0
179 200 0
178 200 0
173 195 0
176 198 0
177 199 0
170 193 0
181 203 0
175 197 0
175 198 0
177 198 0
168 191 0
168 191 0
173 195 0
170 193 0
177 199 0
161 184 0
167 189 0
177 198 0
175 197 0
171 194 0
169 190 0
171 193 0
164 186 0
173 195 0
163 186 0
163 184 0
151 172 0
161 184 0
172 194 0
170 192 0
159 181 0
158 177 0
131 156 111
69 107 162
68 107 170
69 107 162
69 108 177
70 108 170
67 105 161
68 107 166
70 108 175
70 109 181
68 107 177
69 108 174
69 108 179
69 108 183
70 109 181
69 108 174
68 107 174
69 108 179
69 108 186
69 108 183
69 108 181
68 108 179
69 108 179
69 108 181
68 107 181
69 108 181
69 108 184
69 109 186
69 108 184
68 108 183
70 109 184
68 107 177
70 109 184
67 107 179
69 109 188
68 108 181
69 108 184
69 108 183
68 107 181
69 108 181
69 108 181
70 109 183
69 108 181
68 107 177
70 109 186
70 109 184
69 108 181
69 108 177
69 108 174
69 109 186
69 108 183
69 108 175
69 108 179
68 107 174
69 108 177
69 108 179
69 107 174
70 108 179
70 109 177
67 106 166
68 107 179
68 106 170
67 106 162
69 108 175
68 107 170
69 108 174
68 106 162
68 106 160
68 106 156
67 105 160
69 107 166
68 106 164
76 111 144
158 179 0
166 187 0
155 175 0
157 179 0
167 189 0
161 183 0
158 179 0
159 180 0
160 182 0
168 190 0
163 185 0
172 194 0
163 184 0
168 190 0
169 192 0
170 191 0
173 195 0
171 191 0
169 191 0
173 194 0
172 194 0
173 195 0
170 192 0
177 199 0
178 199 0
176 197 0
175 196 0
175 197 0
169 191 0
170 191 0
178 200 0
167 189 0
179 200 0
175 198 0
180 201 0
180 201 0
179 201 0
176 198 0
184 205 0
180 202 0
176 198 0
176 198 0
182 203 0
178 200 0
181 203 0
183 204 0
180 201 0
181 203 0
178 200 0
182 203 0
181 203 0
179 201 0
177 197 0
185 205 0
181 203 0
180 202 0
182 203 0
177 199 0
177 198 0
181 202 0
180 202 0
182 204 0
181 202 0
182 204 0
181 202 0
183 203 0
180 202 0
183 204 0
180 203 0
179 201 0
182 204 0
182 204 0
183 203 0
179 201 0
179 200 0
182 203 0
181 203 0
180 202 0
177 200 0
180 202 0
181 203 0
180 202 0
179 201 0
181 203 0
177 200 0
180 202 0
182 204 0
182 204 0
184 205 0
182 203 0
182 204 0
178 201 0
179 202 0
181 203 0
182 204 0
182 203 0
178 200 0
182 204 0
180 202 0
182 204 0
179 201 0
181 202 0
183 204 0
181 203 0
182 204 0
179 200 0
182 204 0
180 202 0
180 202 0
182 203 0
181 203 0
180 202 0
181 203 0
179 202 0
183 204 0
180 202 0
181 203 0
183 204 0
181 203 0
181 202 0
181 203 0
181 203 0
184 205 0
181 203 0
180 202 0
181 203 0
181 203 0
182 204 0
181 202 0
182 203 0
181 203 0
181 203 0
183 204 0
182 204 0
183 204 0
179 202 0
181 203 0
182 204 0
183 204 0
181 203 0
185 205 0
180 203 0
180 203 0
183 204 0
183 204 0
182 204 0
181 203 0
181 203 0
180 203 0
181 203 0
181 203 0
179 201 0
183 204 0
183 204 0
182 203 0
182 203 0
183 204 0
184 204 0
179 201 0
181 203 0
182 204 0
181 203 0
181 203 0
180 202 0
181 203 0
182 204 0
180 203 0
181 203 0
181 203 0
180 202 0
182 204 0
182 204 0
185 205 0
182 204 0
183 204 0
183 204 0
181 203 0
180 202 0
179 201 0
181 203 0
183 204 0
180 203 0
183 204 0
180 202 0
181 203 0
180 203 0
180 203 0
182 203 0
183 204 0
181 203 0
182 204 0
179 202 0
182 204 0
181 203 0
180 202 0
182 203 0
180 202 0
181 203 0
182 204 0
182 204 0
183 204 0
180 202 0
179 201 0
180 203 0
184 205 0
178 200 0
183 204 0
184 205 0
181 203 0
183 203 0
180 202 0
180 202 0
179 201 0
179 202 0
181 203 0
182 203 0
181 203 0
182 204 0
181 202 0
182 203 0
182 204 0
183 204 0
179 200 0
177 200 0
181 202 0
179 201 0
183 204 0
182 204 0
179 202 0
179 201 0
181 203 0
182 204 0
181 202 0
178 200 0
181 202 0
181 202 0
179 202 0
180 202 0
181 202 0
179 201 0
180 202 0
180 201 0
182 204 0
181 202 0
184 205 0
178 200 0
180 202 0
183 204 0
180 202 0
183 204 0
177 200 0
182 204 0
181 203 0
180 202 0
180 202 0
179 201 0
180 202 0
183 203 0
179 201 0
173 196 0
179 202 0
182 204 0
180 202 0
180 202 0
180 202 0
180 201 0
179 201 0
179 200 0
176 198 0
180 202 0
180 201 0
180 202 0
182 203 0
181 203 0
177 199 0
181 202 0
181 203 0
181 202 0
178 200 0
181 202 0
177 199 0
176 197 0
175 198 0
174 195 0
180 202 0
182 204 0
175 197 0
181 202 0
175 197 0
177 200 0
179 201 0
176 198 0
173 195 0
180 201 0
173 195 0
175 197 0
173 194 0
177 198 0
178 200 0
176 197 0
177 199 0
171 193 0
174 196 0
175 197 0
173 195 0
172 193 0
169 191 0
176 197 0
172 194 0
172 194 0
170 192 0
165 188 0
175 197 0
177 198 0
167 190 0
168 188 0
176 198 0
167 188 0
160 182 0
164 186 0
162 185 0
172 193 0
171 192 0
162 184 0
155 175 0
162 184 0
161 184 0
155 177 69
66 104 151
66 104 158
67 106 156
68 107 166
69 107 170
67 106 164
69 108 172
68 107 175
69 108 177
70 109 184
69 108 179
68 107 175
69 108 177
69 108 179
68 108 179
69 108 175
68 107 177
70 109 184
69 108 181
69 108 177
69 108 181
69 108 179
69 108 184
69 108 186
69 108 177
70 109 184
69 108 183
68 107 177
68 108 183
69 108 179
69 109 183
69 108 179
70 109 181
69 108 181
69 109 184
69 108 181
68 107 181
68 107 177
70 109 184
70 109 186
70 109 183
69 108 177
70 109 183
69 108 181
69 108 179
69 108 175
70 109 186
68 107 174
69 108 177
68 108 177
69 107 172
70 109 179
69 108 181
69 108 174
69 108 174
67 106 168
69 108 179
69 108 179
69 108 170
69 108 179
68 106 162
68 107 162
69 108 172
69 107 166
70 108 174
68 107 168
69 107 164
68 106 164
69 107 158
69 107 156
67 104 160
106 134 129
170 191 0
155 176 0
168 189 0
159 180 0
157 178 0
160 182 0
163 183 0
170 191 0
163 185 0
170 190 0
176 197 0
169 190 0
174 194 0
169 190 0
164 185 0
169 190 0
171 192 0
175 197 0
171 193 0
175 196 0
167 189 0
173 194 0
173 194 0
171 193 0
173 195 0
178 199 0
168 190 0
177 199 0
176 197 0
175 196 0
175 197 0
178 199 0
176 197 0
181 202 0
179 199 0
181 201 0
177 199 0
180 201 0
177 197 0
184 204 0
179 201 0
177 199 0
174 196 0
176 197 0
172 195 0
176 198 0
183 203 0
180 202 0
179 200 0
181 202 0
180 201 0
181 203 0
181 203 0
178 200 0
181 203 0
181 202 0
175 198 0
178 199 0
183 204 0
175 197 0
180 203 0
180 202 0
181 203 0
180 201 0
181 203 0
182 203 0
181 202 0
181 203 0
183 203 0
179 201 0
181 202 0
182 204 0
182 204 0
184 205 0
180 201 0
180 202 0
179 201 0
180 202 0
184 204 0
178 199 0
182 204 0
182 204 0
183 204 0
181 203 0
180 203 0
182 203 0
182 203 0
179 201 0
180 201 0
183 204 0
182 204 0
185 205 0
182 204 0
182 203 0
182 203 0
180 202 0
180 202 0
181 203 0
180 202 0
181 202 0
181 203 0
182 204 0
179 201 0
179 202 0
179 201 0
182 203 0
181 203 0
179 201 0
178 200 0
182 204 0
182 204 0
185 205 0
182 203 0
181 202 0
182 204 0
182 204 0
182 204 0
182 204 0
184 205 0
180 203 0
182 203 0
184 204 0
180 202 0
182 204 0
182 203 0
182 203 0
182 204 0
181 203 0
182 203 0
183 204 0
178 200 0
180 202 0
181 203 0
182 203 0
181 202 0
182 203 0
182 204 0
184 205 0
183 204 0
180 202 0
181 203 0
181 203 0
182 204 0
182 204 0
180 202 0
181 203 0
183 204 0
182 203 0
180 202 0
183 204 0
180 203 0
181 203 0
181 203 0
182 204 0
183 204 0
182 203 0
182 204 0
181 203 0
181 203 0
182 204 0
183 204 0
184 205 0
181 203 0
182 204 0
179 202 0
180 203 0
182 204 0
181 203 0
183 204 0
181 203 0
179 202 0
182 203 0
182 203 0
183 204 0
182 204 0
182 204 0
183 204 0
183 204 0
182 204 0
179 202 0
179 201 0
181 203 0
182 204 0
181 203 0
180 202 0
183 204 0
182 204 0
181 203 0
181 203 0
185 205 0
181 203 0
182 204 0
180 203 0
181 203 0
182 203 0
182 204 0
180 202 0
184 204 0
181 202 0
182 203 0
181 202 0
183 204 0
183 204 0
181 203 0
180 202 0
182 203 0
181 203 0
182 204 0
181 203 0
179 202 0
181 203 0
181 203 0
183 204 0
181 202 0
180 202 0
182 204 0
179 201 0
178 201 0
182 203 0
179 201 0
180 203 0
182 203 0
180 203 0
183 204 0
180 203 0
181 202 0
180 202 0
180 202 0
181 203 0
181 203 0
179 202 0
182 203 0
181 202 0
182 204 0
179 202 0
180 202 0
182 203 0
182 203 0
180 200 0
180 202 0
181 203 0
179 202 0
181 203 0
181 203 0
181 202 0
180 201 0
182 204 0
178 200 0
180 202 0
179 202 0
180 202 0
178 200 0
175 198 0
178 200 0
177 200 0
180 201 0
179 201 0
179 200 0
181 203 0
178 201 0
181 202 0
181 203 0
182 203 0
183 204 0
178 200 0
180 202 0
177 198 0
178 200 0
181 203 0
178 200 0
178 200 0
183 204 0
182 203 0
180 202 0
180 201 0
174 197 0
175 198 0
179 202 0
176 198 0
178 199 0
173 194 0
170 194 0
179 200 0
177 198 0
173 195 0
170 191 0
178 201 0
166 188 0
177 199 0
179 201 0
178 200 0
172 195 0
177 199 0
183 203 0
177 199 0
173 196 0
175 198 0
176 199 0
180 200 0
178 200 0
174 196 0
176 199 0
171 193 0
176 199 0
169 192 0
178 200 0
173 193 0
171 192 0
160 182 0
168 190 0
174 197 0
172 194 0
169 190 0
173 195 0
168 190 0
163 184 0
169 191 0
161 184 0
169 191 0
165 186 0
169 192 0
164 185 0
164 186 0
166 188 0
163 184 0
160 181 0
156 178 0
157 178 0
68 105 160
68 106 166
67 105 160
67 105 153
69 107 164
68 106 160
67 107 175
67 105 156
69 108 179
68 106 170
69 108 177
69 108 177
67 107 177
70 109 181
69 108 181
69 108 181
69 109 183
68 107 174
69 108 182
68 107 175
69 108 183
70 109 186
70 109 181
69 108 179
69 108 183
69 108 179
69 108 181
70 109 181
69 108 177
69 108 184
68 107 179
70 108 179
69 108 183
69 108 181
68 108 179
70 109 181
69 109 186
69 108 174
70 109 184
68 107 177
69 108 184
69 108 183
69 108 181
69 108 179
69 109 184
70 109 181
68 107 177
69 108 177
69 108 181
69 109 184
69 108 183
68 107 175
67 106 164
69 107 172
70 108 174
69 107 168
68 107 175
68 107 172
68 106 170
69 107 168
69 107 166
68 107 175
68 106 166
69 108 172
67 106 160
69 108 175
70 108 172
69 107 172
67 105 160
68 107 164
69 107 162
131 156 111
161 182 0
155 176 0
160 182 0
171 191 0
156 176 0
163 184 0
170 192 0
168 190 0
169 190 0
165 188 0
170 191 0
177 198 0
168 189 0
164 186 0
176 198 0
167 189 0
170 190 0
170 192 0
175 197 0
172 193 0
170 192 0
175 197 0
181 202 0
171 193 0
174 196 0
174 196 0
178 199 0
174 195 0
176 198 0
176 197 0
181 202 0
179 201 0
179 200 0
178 198 0
181 203 0
174 196 0
176 199 0
179 201 0
177 198 0
179 200 0
177 199 0
178 199 0
176 198 0
180 201 0
182 203 0
177 199 0
180 202 0
180 201 0
179 201 0
178 199 0
178 199 0
174 196 0
180 202 0
177 199 0
179 202 0
182 203 0
176 199 0
178 200 0
180 202 0
182 203 0
181 203 0
182 203 0
179 201 0
181 203 0
178 200 0
180 202 0
179 201 0
182 203 0
183 204 0
176 199 0
179 201 0
183 204 0
183 204 0
180 202 0
178 199 0
181 202 0
179 200 0
180 202 0
179 201 0
183 204 0
182 203 0
180 202 0
183 204 0
181 203 0
182 204 0
180 201 0
180 202 0
181 203 0
179 201 0
177 200 0
180 202 0
181 202 0
180 201 0
180 203 0
183 204 0
179 201 0
183 204 0
179 201 0
182 204 0
182 203 0
184 205 0
182 203 0
183 204 0
180 202 0
177 200 0
177 200 0
182 204 0
179 202 0
181 203 0
181 202 0
180 202 0
180 202 0
181 203 0
183 204 0
181 203 0
182 204 0
179 201 0
182 204 0
181 203 0
181 202 0
183 204 0
178 201 0
181 203 0
181 203 0
181 203 0
182 204 0
184 205 0
182 204 0
181 202 0
182 204 0
180 201 0
180 203 0
182 204 0
182 204 0
183 204 0
180 202 0
182 204 0
181 203 0
183 204 0
184 205 0
182 204 0
181 203 0
181 203 0
182 204 0
184 205 0
181 202 0
183 204 0
181 203 0
183 204 0
182 204 0
182 204 0
183 204 0
181 203 0
182 204 0
183 204 0
183 204 0
183 204 0
181 203 0
181 203 0
184 205 0
182 204 0
182 204 0
181 203 0
181 203 0
182 204 0
181 203 0
180 202 0
181 203 0
184 204 0
180 202 0
182 204 0
181 203 0
183 204 0
180 202 0
180 203 0
182 203 0
182 204 0
182 204 0
181 203 0
181 203 0
182 204 0
182 203 0
181 203 0
181 202 0
183 204 0
180 202 0
182 204 0
182 204 0
180 202 0
180 202 0
176 199 0
180 202 0
182 204 0
183 204 0
180 201 0
182 204 0
181 203 0
182 203 0
182 203 0
185 205 0
182 204 0
179 201 0
183 204 0
181 202 0
181 203 0
183 204 0
183 204 0
182 204 0
180 202 0
179 202 0
183 204 0
180 202 0
180 203 0
180 202 0
177 199 0
183 204 0
180 202 0
182 204 0
181 203 0
179 202 0
181 203 0
182 204 0
183 204 0
182 204 0
179 201 0
182 204 0
180 202 0
180 203 0
180 203 0
180 203 0
180 202 0
182 204 0
181 203 0
180 202 0
178 200 0
181 203 0
182 204 0
181 202 0
182 204 0
182 204 0
182 204 0
182 203 0
179 201 0
182 204 0
181 202 0
181 203 0
179 201 0
181 203 0
181 203 0
179 200 0
182 204 0
177 198 0
182 204 0
182 204 0
180 203 0
180 202 0
177 199 0
180 202 0
179 201 0
180 203 0
182 204 0
178 200 0
180 201 0
178 200 0
180 203 0
182 203 0
182 204 0
179 201 0
180 202 0
180 202 0
182 203 0
181 202 0
180 202 0
177 200 0
177 200 0
179 201 0
178 200 0
177 200 0
183 204 0
174 196 0
178 199 0
179 201 0
177 200 0
178 200 0
178 201 0
177 200 0
179 202 0
181 202 0
175 197 0
178 199 0
179 201 0
177 199 0
179 201 0
175 197 0
178 200 0
169 192 0
174 197 0
175 197 0
172 194 0
175 197 0
168 190 0
178 200 0
167 189 0
170 192 0
177 199 0
167 188 0
173 195 0
180 203 0
170 193 0
169 192 0
171 193 0
173 195 0
175 197 0
167 188 0
167 188 0
172 193 0
166 187 0
166 187 0
160 181 0
164 185 0
170 192 0
170 191 0
159 181 0
160 181 0
165 187 0
157 179 0
148 170 0
146 167 0
90 118 124
67 104 147
67 105 149
68 106 160
67 106 160
68 107 172
69 107 172
67 105 171
69 108 179
69 107 170
68 107 172
69 108 174
68 107 174
69 108 179
70 109 181
69 108 177
69 108 181
70 108 179
67 107 175
69 108 181
69 109 183
67 106 176
69 108 183
68 108 179
69 108 179
69 108 179
68 107 175
69 108 181
69 108 179
68 107 175
69 108 184
69 108 179
70 109 183
70 109 184
70 109 183
68 107 174
68 108 177
69 108 184
69 108 181
69 108 179
68 107 177
69 108 177
69 108 177
68 108 181
68 107 177
69 108 181
68 107 181
69 108 177
68 107 177
69 108 177
68 108 177
67 106 170
68 107 168
70 108 172
69 108 177
69 108 174
69 108 177
69 107 174
69 108 175
69 108 174
68 107 166
67 106 166
69 108 177
68 106 162
68 107 166
70 109 175
69 107 168
68 106 158
70 108 172
69 107 164
67 105 144
150 171 69
151 171 0
162 182 0
166 187 0
162 184 0
170 191 0
160 181 0
169 190 0
165 185 0
161 182 0
174 193 0
175 195 0
161 183 0
175 195 0
170 191 0
171 193 0
170 192 0
165 186 0
166 187 0
172 193 0
171 192 0
174 194 0
174 196 0
172 193 0
178 199 0
178 199 0
179 201 0
168 189 0
164 187 0
180 201 0
179 200 0
178 199 0
178 199 0
175 196 0
178 198 0
174 195 0
177 197 0
169 190 0
178 199 0
172 193 0
179 201 0
176 198 0
173 196 0
174 196 0
179 201 0
178 199 0
180 201 0
180 202 0
178 200 0
176 199 0
183 204 0
179 201 0
185 205 0
179 200 0
180 201 0
179 200 0
181 203 0
181 203 0
179 201 0
180 201 0
178 200 0
183 203 0
181 201 0
182 204 0
175 197 0
179 201 0
181 202 0
181 203 0
180 203 0
181 202 0
182 202 0
176 199 0
181 203 0
181 203 0
178 200 0
178 201 0
180 202 0
184 205 0
181 203 0
183 204 0
182 204 0
182 203 0
176 198 0
182 203 0
181 203 0
181 203 0
183 204 0
182 204 0
177 199 0
179 201 0
181 203 0
180 202 0
181 203 0
181 202 0
182 204 0
183 204 0
179 201 0
183 204 0
181 203 0
181 202 0
184 205 0
179 200 0
180 202 0
179 201 0
183 204 0
180 202 0
181 203 0
183 204 0
181 203 0
183 204 0
182 204 0
180 202 0
180 202 0
183 204 0
181 202 0
180 201 0
182 204 0
182 202 0
179 201 0
180 203 0
184 205 0
184 205 0
180 202 0
178 201 0
183 204 0
181 202 0
180 203 0
180 203 0
183 204 0
183 204 0
184 205 0
180 203 0
181 203 0
181 203 0
183 204 0
181 202 0
183 204 0
181 203 0
182 204 0
182 204 0
181 203 0
183 204 0
181 203 0
178 200 0
182 204 0
181 203 0
179 201 0
181 203 0
181 203 0
181 203 0
182 204 0
179 202 0
180 201 0
178 201 0
183 204 0
181 203 0
182 204 0
183 204 0
180 202 0
183 204 0
180 202 0
180 203 0
181 203 0
181 203 0
181 202 0
182 204 0
180 203 0
180 202 0
182 204 0
183 204 0
181 203 0
183 204 0
181 203 0
181 203 0
182 204 0
182 204 0
182 204 0
182 204 0
183 204 0
182 204 0
179 202 0
181 203 0
182 204 0
182 204 0
181 203 0
182 204 0
182 204 0
181 203 0
182 204 0
182 204 0
182 204 0
182 204 0
182 203 0
180 203 0
182 203 0
182 204 0
181 203 0
183 204 0
182 203 0
181 202 0
182 204 0
183 204 0
180 203 0
182 204 0
183 204 0
183 203 0
181 203 0
182 203 0
183 204 0
181 202 0
182 203 0
181 203 0
179 201 0
181 202 0
181 203 0
180 203 0
181 203 0
180 203 0
181 203 0
179 202 0
181 203 0
181 203 0
181 203 0
181 203 0
181 203 0
180 202 0
181 203 0
183 204 0
180 203 0
180 202 0
179 201 0
183 204 0
181 203 0
181 202 0
183 204 0
180 202 0
181 202 0
180 203 0
183 203 0
182 204 0
184 205 0
180 202 0
179 200 0
181 203 0
180 202 0
177 199 0
180 202 0
181 203 0
182 203 0
177 199 0
179 201 0
183 204 0
181 203 0
180 201 0
181 202 0
179 201 0
179 202 0
182 204 0
181 203 0
182 203 0
176 198 0
183 204 0
178 201 0
180 202 0
180 201 0
180 202 0
181 203 0
176 199 0
181 203 0
182 204 0
181 202 0
172 194 0
180 202 0
179 201 0
176 199 0
178 200 0
175 198 0
178 200 0
181 203 0
179 200 0
179 201 0
180 200 0
180 202 0
171 193 0
175 197 0
178 200 0
178 198 0
178 199 0
173 195 0
178 200 0
181 202 0
174 196 0
179 200 0
178 199 0
179 201 0
175 197 0
171 193 0
177 197 0
180 202 0
175 197 0
179 200 0
181 202 0
172 195 0
176 197 0
175 198 0
180 201 0
168 190 0
171 193 0
171 192 0
167 189 0
165 187 0
172 193 0
169 191 0
158 181 0
168 190 0
167 189 0
171 193 0
167 189 0
160 183 0
170 192 0
159 181 0
160 182 0
166 188 0
159 181 0
157 179 0
156 177 0
151 172 0
168 188 0
165 187 0
125 150 108
63 99 129
67 105 158
68 105 157
68 107 166
68 107 170
68 106 158
68 106 164
69 108 174
70 109 183
68 106 168
69 108 175
69 108 179
68 107 170
69 108 183
68 107 175
70 108 179
68 108 181
69 108 177
70 109 184
69 108 177
69 108 177
70 109 183
68 108 181
70 109 183
69 108 179
69 108 179
67 107 177
69 108 179
69 108 177
68 107 183
69 108 179
69 108 181
68 107 175
69 108 181
71 110 186
70 108 179
69 108 181
69 108 186
70 109 186
70 109 188
69 108 175
69 108 175
69 107 170
69 108 179
68 108 183
68 108 186
70 108 179
70 108 175
69 108 175
69 108 179
68 107 174
68 106 174
68 108 179
69 108 177
69 108 175
70 109 181
69 108 172
70 109 177
70 108 170
71 109 179
69 107 172
69 107 166
69 107 170
68 107 164
70 108 172
67 105 158
68 106 160
68 105 149
68 105 156
90 120 142
154 176 25
160 180 0
159 179 0
153 173 0
170 191 0
160 180 0
160 181 0
169 191 0
153 174 0
173 193 0
162 184 0
168 189 0
170 192 0
174 195 0
178 198 0
168 188 0
171 192 0
168 190 0
170 192 0
178 199 0
166 187 0
172 194 0
167 190 0
175 196 0
174 195 0
177 198 0
175 197 0
171 192 0
174 196 0
175 196 0
171 192 0
171 192 0
177 198 0
172 193 0
179 201 0
176 197 0
176 197 0
177 200 0
172 194 0
180 202 0
182 203 0
178 200 0
176 199 0
179 200 0
177 198 0
180 201 0
177 199 0
169 190 0
182 203 0
178 200 0
176 197 0
182 204 0
179 199 0
178 199 0
178 200 0
180 203 0
179 201 0
177 198 0
180 201 0
183 203 0
177 199 0
180 201 0
181 202 0
179 201 0
180 201 0
181 203 0
182 203 0
180 201 0
180 202 0
182 204 0
179 200 0
181 202 0
183 204 0
179 201 0
180 202 0
180 201 0
184 204 0
185 205 0
182 203 0
183 204 0
180 202 0
182 203 0
175 198 0
176 199 0
181 202 0
178 200 0
183 204 0
181 203 0
180 203 0
184 204 0
177 200 0
184 205 0
183 204 0
182 203 0
183 203 0
183 204 0
183 204 0
182 203 0
181 203 0
180 202 0
182 204 0
183 204 0
180 202 0
181 203 0
182 204 0
183 204 0
181 203 0
182 204 0
183 204 0
181 203 0
180 202 0
183 204 0
182 204 0
182 203 0
183 204 0
183 204 0
181 202 0
180 202 0
181 203 0
182 204 0
182 204 0
183 204 0
182 204 0
180 203 0
181 203 0
179 201 0
182 204 0
182 204 0
181 203 0
182 204 0
179 202 0
177 201 0
180 202 0
180 202 0
183 204 0
183 204 0
180 202 0
183 204 0
182 203 0
183 204 0
178 202 0
180 202 0
181 203 0
182 204 0
184 205 0
183 204 0
183 204 0
183 204 0
183 204 0
182 204 0
182 204 0
182 204 0
182 203 0
181 202 0
181 203 0
183 204 0
183 204 0
180 203 0
183 204 0
182 204 0
181 203 0
180 202 0
181 203 0
182 203 0
182 204 0
180 203 0
181 203 0
183 204 0
182 203 0
182 204 0
182 203 0
182 204 0
182 203 0
180 201 0
181 203 0
182 204 0
179 202 0
180 202 0
182 204 0
181 203 0
182 204 0
182 203 0
182 204 0
180 203 0
181 203 0
179 202 0
183 204 0
182 204 0
180 201 0
184 205 0
180 203 0
180 203 0
185 205 0
182 204 0
182 204 0
182 204 0
179 202 0
182 204 0
181 202 0
179 202 0
182 204 0
183 204 0
182 204 0
182 203 0
184 205 0
179 201 0
181 203 0
180 200 0
180 202 0
181 203 0
184 205 0
181 203 0
184 205 0
182 204 0
180 201 0
177 200 0
180 202 0
182 203 0
184 205 0
183 204 0
182 204 0
183 204 0
182 204 0
182 204 0
178 200 0
183 204 0
182 204 0
179 201 0
182 204 0
183 204 0
182 203 0
182 203 0
179 201 0
180 202 0
181 202 0
181 202 0
180 202 0
184 205 0
183 204 0
181 203 0
180 202 0
183 204 0
179 202 0
182 204 0
181 203 0
182 203 0
181 203 0
179 201 0
181 203 0
180 202 0
181 203 0
180 203 0
177 199 0
180 201 0
181 202 0
181 203 0
181 203 0
178 201 0
181 202 0
181 202 0
181 202 0
178 200 0
177 198 0
177 198 0
178 200 0
176 198 0
178 199 0
177 199 0
181 203 0
181 203 0
176 199 0
178 201 0
182 203 0
180 201 0
180 201 0
180 202 0
178 200 0
174 197 0
175 197 0
180 202 0
179 201 0
174 197 0
177 200 0
180 201 0
178 200 0
179 202 0
166 188 0
179 200 0
178 200 0
182 203 0
173 196 0
177 199 0
171 193 0
181 202 0
177 200 0
179 201 0
176 198 0
174 196 0
172 194 0
174 195 0
165 187 0
172 193 0
176 198 0
165 187 0
173 196 0
171 193 0
172 194 0
169 191 0
169 190 0
168 189 0
168 190 0
170 191 0
178 199 0
175 197 0
167 189 0
167 189 0
175 198 0
163 183 0
160 183 0
163 184 0
171 193 0
160 182 0
170 191 0
159 181 0
158 181 0
167 187 0
163 183 0
156 178 0
156 177 0
147 169 38
66 104 149
67 105 162
68 107 168
67 105 158
68 107 170
69 107 166
69 108 170
69 107 166
68 108 186
68 107 168
67 107 174
67 105 172
68 107 180
69 108 177
67 106 166
69 108 177
68 107 175
69 108 177
70 109 183
69 108 181
68 107 175
67 105 160
68 107 170
68 107 181
70 108 177
69 108 177
69 107 179
68 107 181
68 107 174
69 108 179
70 109 183
69 108 181
69 108 179
70 109 183
69 108 174
69 108 181
69 108 183
69 108 177
69 108 184
69 108 183
68 107 174
68 107 175
69 108 174
69 108 183
67 106 175
69 108 179
68 107 177
68 107 172
70 108 175
70 109 181
68 107 179
68 107 174
67 106 162
69 108 175
70 109 181
70 108 174
69 108 174
69 107 170
69 108 170
71 109 174
68 106 160
68 106 156
67 106 156
69 107 170
68 107 166
67 105 162
67 105 158
67 105 149
69 107 156
117 143 108
158 179 0
167 188 0
158 178 0
161 180 0
164 185 0
164 186 0
172 194 0
161 182 0
166 187 0
168 189 0
170 191 0
173 195 0
160 181 0
168 188 0
176 197 0
172 193 0
174 195 0
175 196 0
169 191 0
179 199 0
172 194 0
177 198 0
171 192 0
171 192 0
165 187 0
177 199 0
165 187 0
172 194 0
178 198 0
172 193 0
172 194 0
175 195 0
179 199 0
178 200 0
174 196 0
176 198 0
177 198 0
174 195 0
178 200 0
180 202 0
176 198 0
181 203 0
177 199 0
177 198 0
173 194 0
179 201 0
183 204 0
178 201 0
174 197 0
180 201 0
177 198 0
179 200 0
181 201 0
180 201 0
177 199 0
183 203 0
180 201 0
181 202 0
180 200 0
179 201 0
181 202 0
181 202 0
183 204 0
176 199 0
182 202 0
177 200 0
181 202 0
179 201 0
181 202 0
182 203 0
181 202 0
181 203 0
181 203 0
182 204 0
178 201 0
179 201 0
178 200 0
184 205 0
182 204 0
179 199 0
180 203 0
180 203 0
181 203 0
182 203 0
180 203 0
182 204 0
183 204 0
181 203 0
182 203 0
181 203 0
179 201 0
182 203 0
182 204 0
182 204 0
181 203 0
182 204 0
179 201 0
181 202 0
182 204 0
180 200 0
181 203 0
180 202 0
181 203 0
183 204 0
177 199 0
180 203 0
178 200 0
181 203 0
180 202 0
183 204 0
182 203 0
182 203 0
183 204 0
181 203 0
182 204 0
183 204 0
182 203 0
180 203 0
181 202 0
181 203 0
182 204 0
183 204 0
185 205 0
181 203 0
181 203 0
180 203 0
181 203 0
183 204 0
181 202 0
182 203 0
179 201 0
180 203 0
182 204 0
178 200 0
182 203 0
180 202 0
180 202 0
183 204 0
183 204 0
180 203 0
182 204 0
182 204 0
182 203 0
181 203 0
182 203 0
184 204 0
180 203 0
181 203 0
182 204 0
180 202 0
182 204 0
181 203 0
184 205 0
182 203 0
183 204 0
182 204 0
181 203 0
182 204 0
181 203 0
183 204 0
181 203 0
182 203 0
182 204 0
181 203 0
182 204 0
181 203 0
182 204 0
182 204 0
182 204 0
181 203 0
181 203 0
180 202 0
184 204 0
181 203 0
183 204 0
181 203 0
183 204 0
179 202 0
182 204 0
182 204 0
182 204 0
183 204 0
184 205 0
181 203 0
184 205 0
181 203 0
182 204 0
183 204 0
184 205 0
182 204 0
179 201 0
180 203 0
182 203 0
179 201 0
182 204 0
181 203 0
181 203 0
180 203 0
183 204 0
182 204 0
180 202 0
180 202 0
182 203 0
182 204 0
181 203 0
183 204 0
182 204 0
181 203 0
181 203 0
181 203 0
182 203 0
183 204 0
184 205 0
181 202 0
182 204 0
180 202 0
180 203 0
181 202 0
181 203 0
181 202 0
182 204 0
180 202 0
177 199 0
181 202 0
181 203 0
180 202 0
181 203 0
181 203 0
180 203 0
183 204 0
179 201 0
182 204 0
180 202 0
180 201 0
181 203 0
179 201 0
181 203 0
177 200 0
181 203 0
182 204 0
182 204 0
179 202 0
182 204 0
180 202 0
181 203 0
178 200 0
181 203 0
178 200 0
181 203 0
183 204 0
181 203 0
177 200 0
177 200 0
179 201 0
181 202 0
181 203 0
177 199 0
178 201 0
178 201 0
177 200 0
181 203 0
181 203 0
182 203 0
179 200 0
178 199 0
179 202 0
178 200 0
182 204 0
177 199 0
181 203 0
177 199 0
175 198 0
179 201 0
180 202 0
181 202 0
178 199 0
182 203 0
177 198 0
180 203 0
180 202 0
175 197 0
173 195 0
176 198 0
180 202 0
180 201 0
177 200 0
178 200 0
173 195 0
173 195 0
178 200 0
174 196 0
176 198 0
175 197 0
180 201 0
178 200 0
170 192 0
175 197 0
175 197 0
167 189 0
175 198 0
179 200 0
172 195 0
175 197 0
171 193 0
178 200 0
169 192 0
175 197 0
171 194 0
177 198 0
172 194 0
166 187 0
164 187 0
172 195 0
170 192 0
167 189 0
166 187 0
163 185 0
160 181 0
165 186 0
163 184 0
158 180 0
167 187 0
158 180 0
170 191 0
171 193 0
158 181 0
156 178 0
157 179 0
156 176 0
159 181 0
102 130 121
68 105 153
67 105 156
65 103 157
68 107 170
69 108 172
70 108 177
68 106 160
71 109 181
68 107 170
68 106 164
69 108 175
69 108 172
67 106 177
69 108 179
68 107 175
67 106 166
69 108 177
70 109 183
68 107 174
69 107 178
69 108 181
69 108 177
68 107 174
69 108 175
70 109 183
70 109 181
69 108 184
70 109 184
69 107 174
70 109 184
68 107 175
68 107 178
70 109 181
68 107 177
69 108 175
68 108 179
68 107 179
69 108 181
68 107 179
68 107 175
69 108 174
68 107 170
69 107 172
68 107 172
69 108 175
67 107 174
69 108 179
68 107 164
70 108 177
68 107 168
70 109 177
69 108 177
69 107 174
70 109 177
70 108 172
68 106 164
68 107 175
69 107 166
70 108 166
69 107 162
69 108 170
67 105 162
68 107 164
68 106 162
68 106 160
67 105 151
68 106 166
66 104 137
146 167 56
152 172 0
162 183 0
154 175 0
162 182 0
164 185 0
165 185 0
159 180 0
170 191 0
171 192 0
162 182 0
160 182 0
161 183 0
170 192 0
172 193 0
173 194 0
168 190 0
169 191 0
176 197 0
164 186 0
170 191 0
169 190 0
165 187 0
171 191 0
174 194 0
179 201 0
173 195 0
176 197 0
173 194 0
177 199 0
170 193 0
176 196 0
175 196 0
175 197 0
178 199 0
177 199 0
172 194 0
173 194 0
172 194 0
180 201 0
178 200 0
177 198 0
178 200 0
179 201 0
177 199 0
175 196 0
178 200 0
178 200 0
179 201 0
173 194 0
181 202 0
174 195 0
180 201 0
181 202 0
180 201 0
181 203 0
180 202 0
181 202 0
178 199 0
181 203 0
177 199 0
184 204 0
179 202 0
181 202 0
178 199 0
181 202 0
177 199 0
180 202 0
178 199 0
178 201 0
181 203 0
176 198 0
179 202 0
180 201 0
184 205 0
180 202 0
183 204 0
180 201 0
181 203 0
183 204 0
180 201 0
182 204 0
182 203 0
184 205 0
180 202 0
175 198 0
181 203 0
183 204 0
181 202 0
182 203 0
183 204 0
180 201 0
183 204 0
181 203 0
181 203 0
181 202 0
182 203 0
182 204 0
182 204 0
180 202 0
183 204 0
182 204 0
181 202 0
178 200 0
181 203 0
185 205 0
182 204 0
182 203 0
181 203 0
182 204 0
182 203 0
184 205 0
183 204 0
183 204 0
182 203 0
180 202 0
182 203 0
182 204 0
179 201 0
179 201 0
181 202 0
181 202 0
182 204 0
182 204 0
185 205 0
183 204 0
177 200 0
181 203 0
180 202 0
182 204 0
179 201 0
181 202 0
184 204 0
182 203 0
179 201 0
182 203 0
182 204 0
182 204 0
182 204 0
183 204 0
178 201 0
181 203 0
181 202 0
181 203 0
183 204 0
182 204 0
181 203 0
181 203 0
183 204 0
180 201 0
181 203 0
182 204 0
181 203 0
184 205 0
183 204 0
181 203 0
184 205 0
184 204 0
180 202 0
182 203 0
182 204 0
181 203 0
181 203 0
183 204 0
183 204 0
184 205 0
182 204 0
180 203 0
182 204 0
180 202 0
183 204 0
182 204 0
181 203 0
182 204 0
184 205 0
182 204 0
182 204 0
182 204 0
183 204 0
182 203 0
182 204 0
183 204 0
182 203 0
183 204 0
180 203 0
181 203 0
182 204 0
182 204 0
181 203 0
181 203 0
179 201 0
182 204 0
180 203 0
181 203 0
182 204 0
181 203 0
181 203 0
183 204 0
182 204 0
181 202 0
180 201 0
178 200 0
179 200 0
181 202 0
182 203 0
183 204 0
181 203 0
181 203 0
181 203 0
181 203 0
181 202 0
181 202 0
182 204 0
182 204 0
182 204 0
180 202 0
181 203 0
177 200 0
183 204 0
180 202 0
182 204 0
180 203 0
182 203 0
182 203 0
182 204 0
183 204 0
180 202 0
182 203 0
180 203 0
180 202 0
179 202 0
181 203 0
179 201 0
180 202 0
181 203 0
181 203 0
180 202 0
181 203 0
177 200 0
181 202 0
178 200 0
181 203 0
179 201 0
178 200 0
178 200 0
181 203 0
181 203 0
178 201 0
180 202 0
177 200 0
181 202 0
178 200 0
179 201 0
181 203 0
180 202 0
181 202 0
180 201 0
181 202 0
180 201 0
182 204 0
184 205 0
182 203 0
182 204 0
180 202 0
181 202 0
181 202 0
179 201 0
180 202 0
180 202 0
177 199 0
177 199 0
179 202 0
179 200 0
178 200 0
177 199 0
179 201 0
177 199 0
178 200 0
178 200 0
176 199 0
181 203 0
178 200 0
175 197 0
177 199 0
177 199 0
180 201 0
172 194 0
182 203 0
176 198 0
174 196 0
170 193 0
181 203 0
175 197 0
178 200 0
173 194 0
177 199 0
175 196 0
178 200 0
173 194 0
175 196 0
178 200 0
177 199 0
170 191 0
170 192 0
168 190 0
173 195 0
173 195 0
174 196 0
172 193 0
172 193 0
168 190 0
168 190 0
174 195 0
165 187 0
168 189 0
166 188 0
165 188 0
172 194 0
166 188 0
171 192 0
173 194 0
160 182 0
166 187 0
159 180 0
165 186 0
168 189 0
160 182 0
162 184 0
153 175 0
153 174 0
160 181 0
141 164 63
65 102 153
67 105 153
66 104 149
67 105 159
70 108 174
67 106 161
67 105 162
68 106 164
69 107 175
67 106 168
70 108 168
69 107 166
68 106 167
69 108 179
69 107 174
68 107 174
68 107 168
71 109 181
67 106 166
69 108 179
69 108 177
68 107 177
68 107 175
68 107 176
68 107 174
69 108 177
69 107 175
69 108 181
70 109 179
70 109 179
69 108 177
68 107 175
70 109 186
70 109 181
69 108 179
69 108 179
68 107 168
69 108 183
69 107 172
70 109 184
69 108 179
70 108 183
68 107 179
68 107 174
69 108 170
68 106 166
68 107 168
70 108 177
69 108 179
69 108 172
69 108 183
70 108 175
68 107 172
68 107 166
69 107 170
70 108 172
69 107 172
68 106 158
68 106 158
67 105 156
69 107 166
70 108 172
70 108 164
69 107 166
68 106 153
66 104 147
68 105 151
102 129 124
146 165 0
158 180 0
161 183 0
162 183 0
150 171 0
164 185 0
166 187 0
152 173 0
161 182 0
165 186 0
169 190 0
164 185 0
165 186 0
162 183 0
171 193 0
172 193 0
166 188 0
175 196 0
178 199 0
182 202 0
171 192 0
171 193 0
175 197 0
170 191 0
175 196 0
168 189 0
176 199 0
177 199 0
169 191 0
175 196 0
176 196 0
175 197 0
173 195 0
173 195 0
176 197 0
174 196 0
182 204 0
181 202 0
176 198 0
177 198 0
180 201 0
175 197 0
177 200 0
177 199 0
181 202 0
182 203 0
180 201 0
182 202 0
178 199 0
183 204 0
178 199 0
176 197 0
178 199 0
181 201 0
179 200 0
182 203 0
182 203 0
179 201 0
182 204 0
178 199 0
178 199 0
182 204 0
179 201 0
183 204 0
180 201 0
176 198 0
182 203 0
184 205 0
177 199 0
180 203 0
182 204 0
180 202 0
180 201 0
175 197 0
183 204 0
183 204 0
179 201 0
182 204 0
183 204 0
181 203 0
183 204 0
182 204 0
178 200 0
181 202 0
182 204 0
184 205 0
181 203 0
178 202 0
180 202 0
180 202 0
183 204 0
179 202 0
182 203 0
183 204 0
181 203 0
181 203 0
181 202 0
181 203 0
180 202 0
181 203 0
181 202 0
180 203 0
182 204 0
185 205 0
180 202 0
180 203 0
180 202 0
181 202 0
180 202 0
181 203 0
182 203 0
182 203 0
180 203 0
182 204 0
182 203 0
183 204 0
180 202 0
179 201 0
181 203 0
180 203 0
181 202 0
181 203 0
182 204 0
182 204 0
184 205 0
181 203 0
181 203 0
181 203 0
184 205 0
183 204 0
182 204 0
183 204 0
183 204 0
180 203 0
180 202 0
182 204 0
180 202 0
181 203 0
181 203 0
180 201 0
178 200 0
183 204 0
184 205 0
181 203 0
181 203 0
183 204 0
182 203 0
182 204 0
182 204 0
182 204 0
182 204 0
183 204 0
183 204 0
179 202 0
182 203 0
181 203 0
182 204 0
179 201 0
181 203 0
182 204 0
183 204 0
182 204 0
182 204 0
181 203 0
180 203 0
180 202 0
183 204 0
181 203 0
183 204 0
183 204 0
183 204 0
182 203 0
181 203 0
182 204 0
181 203 0
177 200 0
183 204 0
179 202 0
180 202 0
179 201 0
180 202 0
184 205 0
180 203 0
182 204 0
180 202 0
183 204 0
179 201 0
182 203 0
179 201 0
184 205 0
181 203 0
182 203 0
182 204 0
182 204 0
181 203 0
183 204 0
183 204 0
181 202 0
181 203 0
182 204 0
178 200 0
181 203 0
182 204 0
179 201 0
179 202 0
182 203 0
182 204 0
182 204 0
179 201 0
183 204 0
182 204 0
180 201 0
178 201 0
183 204 0
184 205 0
183 204 0
180 203 0
180 202 0
182 204 0
180 201 0
179 202 0
179 201 0
177 200 0
182 204 0
182 204 0
182 204 0
183 204 0
180 203 0
181 203 0
181 203 0
178 201 0
179 201 0
185 205 0
180 202 0
180 202 0
181 202 0
182 204 0
182 204 0
181 202 0
179 202 0
181 203 0
181 202 0
176 199 0
181 203 0
179 200 0
182 203 0
179 201 0
180 203 0
182 203 0
178 201 0
181 202 0
182 204 0
179 201 0
181 203 0
181 202 0
181 202 0
179 201 0
180 202 0
178 201 0
179 202 0
178 200 0
177 199 0
179 200 0
181 203 0
178 199 0
180 201 0
180 201 0
180 202 0
180 202 0
183 204 0
180 202 0
179 201 0
178 199 0
178 200 0
179 201 0
178 200 0
180 201 0
179 201 0
172 195 0
170 192 0
178 200 0
179 202 0
175 198 0
178 199 0
175 197 0
178 200 0
179 201 0
173 195 0
173 197 0
176 199 0
179 202 0
176 198 0
178 200 0
168 191 0
180 202 0
180 201 0
175 196 0
169 191 0
173 196 0
175 198 0
174 196 0
177 200 0
175 197 0
171 194 0
174 196 0
176 197 0
175 197 0
174 195 0
175 197 0
175 196 0
170 193 0
171 194 0
178 199 0
169 191 0
172 195 0
163 185 0
169 190 0
163 185 0
163 185 0
172 194 0
169 190 0
164 187 0
163 184 0
165 187 0
163 184 0
165 186 0
166 187 0
151 170 0
163 184 0
157 178 0
157 178 0
141 161 0
78 111 134
67 104 147
67 105 153
68 107 164
67 104 153
66 103 150
64 102 156
66 105 156
67 106 166
69 107 172
69 107 174
68 106 168
69 107 174
67 106 170
69 108 174
67 106 172
69 108 177
67 106 166
69 108 183
68 107 173
68 106 172
69 108 183
69 108 179
68 107 177
68 107 177
68 107 175
68 107 172
69 108 179
69 108 179
69 108 177
69 108 177
67 106 167
69 108 177
68 107 174
69 108 179
70 109 179
68 106 168
70 109 177
68 107 177
70 109 179
68 107 169
68 106 168
68 107 172
68 107 174
68 107 175
69 107 166
70 109 177
67 106 164
69 108 175
69 107 168
69 107 170
69 108 172
69 108 172
68 107 168
67 105 162
68 107 174
69 108 172
68 106 162
66 104 156
69 108 175
68 107 170
69 107 164
68 107 160
68 106 153
67 104 149
68 106 156
67 105 162
130 153 97
145 167 0
146 167 0
156 175 0
160 182 0
164 184 0
156 176 0
161 182 0
165 186 0
158 179 0
156 178 0
168 189 0
170 191 0
159 181 0
165 186 0
174 195 0
173 195 0
172 192 0
170 192 0
165 186 0
170 191 0
175 196 0
166 188 0
170 192 0
167 188 0
177 199 0
174 194 0
170 191 0
167 189 0
177 198 0
179 199 0
176 198 0
176 198 0
178 199 0
177 198 0
179 200 0
179 201 0
171 194 0
175 196 0
177 198 0
174 196 0
179 201 0
172 194 0
170 192 0
174 196 0
178 200 0
173 195 0
177 200 0
180 201 0
179 201 0
178 199 0
181 203 0
176 198 0
181 202 0
178 199 0
179 200 0
181 203 0
181 203 0
180 201 0
175 197 0
180 202 0
173 195 0
180 202 0
183 203 0
179 202 0
174 196 0
180 201 0
177 200 0
177 200 0
179 201 0
180 202 0
182 204 0
178 199 0
177 199 0
183 204 0
179 201 0
179 201 0
182 203 0
182 203 0
182 204 0
183 204 0
180 203 0
183 204 0
180 201 0
180 202 0
182 204 0
181 203 0
180 202 0
182 203 0
180 202 0
179 201 0
182 202 0
182 204 0
179 201 0
179 201 0
181 202 0
182 204 0
180 201 0
180 202 0
183 204 0
181 203 0
182 203 0
183 204 0
177 199 0
182 204 0
180 202 0
184 205 0
181 203 0
181 203 0
180 201 0
181 202 0
180 203 0
183 204 0
181 203 0
183 204 0
183 204 0
183 204 0
183 204 0
182 204 0
180 202 0
181 203 0
180 203 0
182 204 0
183 204 0
177 200 0
179 201 0
177 200 0
181 203 0
182 204 0
181 203 0
181 202 0
183 204 0
183 204 0
181 202 0
182 204 0
183 204 0
179 202 0
182 204 0
180 202 0
180 202 0
182 204 0
179 202 0
183 204 0
181 203 0
179 201 0
182 204 0
182 203 0
182 203 0
180 203 0
180 203 0
183 204 0
182 204 0
181 203 0
179 201 0
183 204 0
179 201 0
179 201 0
180 203 0
178 201 0
182 203 0
180 202 0
182 204 0
183 204 0
181 203 0
180 202 0
181 203 0
182 204 0
180 202 0
181 203 0
182 204 0
182 204 0
180 202 0
182 204 0
182 203 0
182 204 0
183 204 0
181 203 0
182 203 0
184 205 0
183 204 0
181 203 0
181 203 0
180 203 0
180 203 0
178 201 0
180 203 0
180 202 0
181 203 0
181 203 0
183 204 0
181 202 0
183 204 0
180 202 0
181 203 0
181 203 0
180 203 0
182 204 0
182 204 0
178 200 0
182 204 0
180 203 0
181 203 0
181 203 0
182 204 0
180 202 0
182 204 0
179 202 0
182 203 0
180 202 0
181 202 0
178 201 0
182 204 0
180 202 0
182 204 0
182 203 0
180 203 0
182 204 0
181 203 0
182 204 0
181 203 0
182 203 0
181 203 0
182 203 0
181 203 0
180 201 0
182 203 0
177 200 0
180 202 0
183 204 0
181 203 0
180 203 0
182 203 0
181 203 0
182 204 0
181 203 0
182 203 0
183 204 0
182 204 0
179 201 0
181 203 0
180 202 0
181 203 0
181 203 0
182 204 0
181 203 0
179 201 0
184 204 0
183 204 0
179 201 0
180 202 0
181 203 0
180 202 0
179 201 0
182 204 0
182 204 0
178 200 0
182 203 0
179 201 0
179 200 0
180 202 0
183 204 0
181 203 0
179 201 0
180 202 0
178 200 0
179 200 0
181 202 0
180 203 0
176 198 0
179 202 0
181 203 0
177 200 0
180 202 0
173 195 0
174 195 0
181 203 0
179 202 0
181 203 0
177 199 0
178 200 0
180 202 0
181 203 0
178 200 0
179 202 0
182 204 0
175 197 0
176 199 0
182 203 0
177 198 0
179 201 0
180 201 0
179 201 0
176 198 0
177 198 0
174 196 0
180 202 0
180 202 0
181 203 0
176 198 0
174 196 0
167 190 0
178 201 0
175 197 0
179 200 0
175 197 0
175 197 0
172 194 0
165 188 0
172 194 0
176 197 0
175 197 0
176 198 0
173 195 0
171 193 0
174 196 0
173 195 0
162 182 0
172 194 0
169 191 0
173 194 0
168 190 0
170 192 0
166 189 0
163 185 0
169 191 0
160 182 0
160 181 0
163 183 0
166 187 0
160 181 0
166 187 0
149 171 0
158 180 0
127 150 75
65 103 132
66 104 152
70 108 166
67 105 156
69 107 164
68 106 166
68 107 172
68 106 174
67 106 165
68 107 170
66 104 164
68 107 172
69 107 179
68 107 172
68 107 175
67 106 175
68 107 174
69 108 179
68 107 171
69 108 175
68 107 172
68 107 172
68 107 177
68 108 183
66 105 168
69 108 175
69 108 181
69 108 179
69 108 182
69 108 183
68 107 174
68 108 179
67 106 168
68 107 179
69 107 174
69 108 175
68 107 168
68 107 174
68 107 177
70 109 183
68 107 172
69 107 174
70 109 183
68 107 166
68 107 170
69 108 174
70 108 177
68 107 177
69 108 172
68 106 164
68 107 174
69 108 177
69 108 177
67 105 162
70 108 168
69 108 170
68 107 162
69 107 166
68 106 160
65 103 147
68 106 156
69 107 164
69 106 162
68 107 164
66 103 139
80 112 114
141 162 0
153 173 0
158 178 0
158 179 0
167 187 0
161 182 0
168 188 0
164 186 0
171 191 0
163 184 0
160 181 0
166 187 0
171 192 0
167 189 0
158 178 0
169 190 0
157 179 0
171 193 0
168 188 0
173 194 0
170 192 0
173 195 0
170 192 0
176 198 0
173 194 0
173 194 0
173 195 0
174 195 0
179 199 0
176 197 0
179 201 0
182 203 0
180 202 0
178 198 0
175 195 0
175 197 0
178 199 0
180 201 0
185 205 0
180 201 0
183 204 0
173 195 0
175 197 0
178 199 0
182 203 0
183 203 0
181 202 0
177 200 0
180 201 0
181 203 0
182 202 0
178 199 0
180 202 0
177 198 0
179 200 0
181 202 0
178 199 0
180 202 0
183 204 0
176 198 0
175 197 0
180 202 0
181 202 0
183 204 0
183 203 0
179 200 0
181 202 0
180 202 0
179 201 0
183 203 0
179 201 0
179 201 0
183 204 0
183 204 0
182 203 0
177 199 0
181 203 0
181 202 0
181 203 0
181 203 0
182 204 0
178 199 0
181 201 0
185 205 0
179 200 0
182 203 0
180 202 0
180 201 0
179 201 0
183 204 0
182 203 0
183 204 0
182 203 0
181 203 0
181 203 0
182 203 0
179 202 0
180 202 0
180 201 0
182 203 0
180 203 0
180 203 0
181 203 0
180 202 0
177 199 0
182 204 0
180 201 0
180 202 0
179 201 0
181 202 0
181 203 0
182 204 0
181 203 0
181 203 0
182 204 0
180 202 0
178 200 0
180 202 0
184 205 0
182 204 0
181 203 0
179 201 0
180 203 0
181 203 0
178 201 0
182 203 0
181 202 0
178 201 0
182 204 0
181 203 0
180 203 0
184 205 0
183 204 0
179 201 0
182 204 0
181 203 0
182 204 0
182 204 0
182 204 0
181 203 0
180 202 0
179 202 0
183 204 0
180 203 0
183 204 0
183 204 0
182 204 0
181 203 0
181 203 0
182 203 0
180 202 0
183 204 0
181 203 0
182 204 0
183 203 0
183 204 0
181 203 0
184 205 0
182 204 0
180 203 0
182 203 0
182 204 0
182 204 0
180 202 0
182 203 0
183 204 0
183 204 0
179 202 0
183 204 0
180 203 0
183 204 0
182 204 0
183 204 0
182 204 0
184 205 0
183 204 0
180 202 0
182 204 0
184 205 0
182 203 0
182 204 0
182 204 0
183 204 0
181 203 0
184 205 0
182 204 0
185 205 0
181 203 0
182 204 0
181 202 0
182 204 0
181 203 0
181 203 0
182 203 0
181 203 0
179 201 0
181 203 0
179 201 0
183 204 0
183 204 0
180 203 0
182 204 0
179 201 0
182 204 0
183 204 0
182 204 0
182 204 0
179 201 0
181 203 0
183 204 0
179 202 0
182 204 0
179 201 0
182 204 0
184 205 0
181 203 0
180 202 0
184 205 0
183 204 0
181 203 0
182 204 0
181 203 0
183 204 0
181 202 0
180 202 0
180 202 0
183 204 0
183 204 0
181 203 0
176 198 0
182 204 0
180 202 0
183 204 0
179 201 0
180 202 0
181 202 0
181 203 0
181 203 0
180 202 0
181 203 0
179 201 0
179 201 0
180 203 0
181 203 0
180 202 0
180 202 0
178 200 0
178 200 0
181 202 0
180 203 0
182 203 0
180 202 0
181 203 0
181 202 0
180 202 0
180 202 0
180 201 0
175 197 0
181 203 0
180 203 0
179 202 0
182 203 0
177 199 0
174 196 0
180 202 0
177 200 0
181 202 0
177 198 0
177 199 0
179 200 0
179 200 0
181 203 0
177 200 0
177 198 0
175 199 0
176 197 0
180 201 0
176 198 0
172 193 0
179 201 0
177 199 0
177 199 0
175 197 0
175 197 0
178 200 0
176 198 0
177 199 0
174 196 0
180 201 0
180 202 0
179 201 0
177 199 0
174 197 0
172 195 0
179 200 0
173 195 0
177 199 0
175 198 0
175 197 0
181 202 0
177 198 0
169 191 0
175 197 0
170 192 0
177 199 0
175 198 0
174 196 0
171 193 0
175 196 0
170 192 0
173 194 0
173 194 0
167 189 0
171 193 0
164 187 0
164 186 0
167 188 0
164 186 0
174 196 0
168 189 0
156 178 0
170 191 0
173 193 0
165 186 0
154 176 0
153 175 0
171 193 0
161 182 0
159 180 0
159 180 0
157 179 0
158 179 0
155 176 0
154 174 38
80 113 126
66 103 146
66 104 153
67 105 164
68 106 168
67 105 160
68 106 166
67 105 162
68 106 174
68 107 174
69 108 177
68 106 166
68 107 177
69 108 179
68 107 170
70 108 177
69 108 175
68 107 178
68 107 170
68 106 174
69 107 174
68 107 177
69 108 172
68 107 168
69 108 177
70 109 183
69 108 175
68 107 174
68 107 177
69 108 179
70 109 183
68 108 177
68 107 168
69 108 177
69 108 177
69 108 175
69 108 174
69 108 174
68 107 175
68 107 175
69 108 179
69 108 177
69 107 174
70 108 177
70 109 177
68 107 168
68 107 177
69 108 177
67 105 160
69 107 166
69 108 174
69 108 179
68 106 162
69 107 164
68 107 170
68 106 168
67 105 153
70 108 168
67 105 156
68 107 160
69 107 168
68 106 153
66 103 147
68 106 158
65 102 134
138 160 97
161 182 0
160 180 0
161 183 0
151 171 0
161 183 0
167 189 0
170 190 0
167 188 0
163 183 0
160 182 0
163 185 0
162 183 0
156 177 0
172 193 0
165 187 0
167 187 0
168 190 0
172 192 0
171 192 0
164 186 0
175 197 0
169 190 0
172 193 0
179 201 0
166 188 0
162 183 0
173 195 0
171 193 0
172 194 0
171 192 0
178 200 0
174 196 0
175 195 0
173 195 0
171 193 0
180 202 0
173 195 0
174 197 0
178 199 0
173 195 0
180 202 0
175 197 0
180 200 0
178 200 0
177 198 0
178 200 0
177 198 0
182 203 0
180 201 0
183 203 0
175 198 0
177 200 0
182 202 0
181 202 0
180 201 0
181 202 0
179 199 0
179 200 0
178 200 0
180 201 0
179 200 0
180 202 0
180 202 0
176 197 0
180 202 0
179 201 0
180 202 0
176 199 0
182 203 0
178 200 0
178 200 0
182 203 0
178 199 0
181 203 0
179 201 0
183 204 0
179 202 0
183 204 0
182 204 0
179 201 0
179 201 0
181 202 0
182 203 0
181 203 0
179 200 0
180 203 0
182 203 0
179 200 0
181 203 0
183 204 0
182 203 0
182 203 0
181 203 0
181 203 0
180 202 0
183 204 0
182 203 0
182 203 0
184 204 0
181 202 0
182 203 0
182 204 0
182 203 0
183 204 0
182 204 0
179 201 0
180 203 0
179 201 0
181 202 0
182 204 0
182 203 0
181 203 0
181 203 0
183 204 0
184 205 0
182 204 0
182 203 0
181 203 0
183 204 0
183 204 0
181 202 0
179 202 0
182 203 0
183 204 0
183 204 0
182 204 0
182 204 0
183 204 0
180 203 0
182 204 0
178 201 0
179 202 0
182 204 0
184 205 0
179 201 0
180 200 0
181 203 0
179 201 0
182 204 0
181 202 0
182 204 0
182 204 0
180 201 0
182 203 0
183 204 0
182 204 0
182 204 0
180 202 0
180 203 0
180 203 0
182 204 0
182 204 0
183 204 0
181 203 0
182 204 0
181 203 0
183 204 0
180 203 0
182 204 0
182 204 0
185 205 0
182 203 0
180 203 0
181 203 0
181 203 0
182 204 0
181 203 0
181 203 0
183 204 0
182 204 0
182 204 0
182 203 0
181 203 0
180 203 0
180 203 0
180 203 0
181 203 0
181 203 0
183 204 0
181 203 0
182 204 0
182 204 0
181 203 0
180 202 0
180 203 0
183 204 0
183 204 0
181 203 0
181 203 0
180 203 0
182 203 0
181 203 0
183 203 0
183 204 0
183 204 0
181 203 0
181 203 0
182 204 0
184 205 0
179 202 0
183 204 0
182 204 0
184 205 0
180 203 0
178 200 0
184 205 0
184 205 0
181 203 0
180 203 0
182 204 0
181 203 0
180 203 0
181 203 0
180 202 0
183 204 0
180 203 0
181 203 0
178 200 0
181 203 0
180 202 0
182 204 0
182 204 0
180 202 0
180 202 0
182 204 0
182 204 0
182 203 0
180 202 0
181 203 0
179 201 0
182 204 0
183 204 0
180 202 0
179 201 0
179 201 0
181 202 0
180 203 0
181 202 0
181 202 0
181 203 0
180 202 0
178 201 0
180 202 0
182 203 0
182 204 0
181 202 0
179 200 0
177 200 0
179 201 0
182 204 0
177 199 0
181 203 0
181 203 0
182 203 0
178 200 0
182 203 0
172 194 0
181 202 0
182 203 0
182 204 0
179 200 0
179 200 0
179 200 0
183 204 0
178 200 0
179 200 0
183 204 0
180 202 0
177 199 0
180 203 0
177 199 0
183 204 0
175 197 0
179 201 0
182 203 0
177 200 0
178 199 0
179 202 0
176 198 0
183 204 0
181 203 0
179 201 0
178 201 0
176 198 0
179 199 0
175 197 0
182 204 0
170 192 0
178 200 0
180 201 0
178 200 0
178 201 0
170 192 0
178 200 0
178 199 0
179 201 0
173 195 0
172 194 0
172 194 0
169 191 0
177 197 0
178 200 0
175 196 0
169 191 0
170 191 0
162 184 0
177 198 0
172 193 0
177 199 0
167 190 0
171 193 0
173 195 0
155 179 0
173 194 0
167 189 0
171 193 0
152 174 0
169 190 0
168 189 0
164 185 0
170 193 0
162 184 0
161 183 0
167 189 0
158 181 0
164 186 0
160 180 0
161 183 0
158 178 0
149 171 0
156 177 0
150 173 0
159 181 0
157 178 0
138 161 84
65 102 139
62 99 126
66 104 149
66 104 150
67 105 158
66 104 161
68 107 172
69 107 175
68 106 162
65 103 160
69 108 174
68 107 164
68 106 169
69 107 170
68 107 172
68 107 170
68 107 180
68 106 166
68 106 166
69 107 166
67 106 170
69 108 172
69 108 179
69 108 177
68 107 172
69 108 175
68 107 172
70 108 174
68 107 170
67 106 168
68 107 170
68 107 179
69 108 174
69 108 181
69 108 175
68 106 172
67 106 162
70 108 175
69 108 177
68 107 174
69 108 175
68 107 174
70 108 179
69 108 168
70 108 172
68 107 172
69 107 170
70 108 172
70 108 172
70 109 175
70 108 177
69 107 174
69 107 164
69 108 177
69 108 168
68 106 160
68 106 156
68 106 164
70 108 168
69 107 166
69 106 156
68 106 144
64 101 129
74 108 126
157 177 25
159 180 0
159 179 0
156 176 0
165 185 0
154 174 0
163 183 0
161 181 0
162 184 0
168 189 0
161 182 0
167 188 0
172 193 0
163 183 0
165 185 0
164 185 0
166 188 0
171 193 0
163 184 0
171 192 0
166 187 0
177 198 0
170 192 0
172 194 0
173 196 0
172 193 0
169 190 0
172 193 0
173 196 0
173 195 0
175 197 0
174 195 0
177 197 0
179 201 0
178 199 0
172 195 0
176 198 0
179 200 0
174 195 0
181 202 0
177 198 0
180 201 0
182 202 0
177 199 0
174 196 0
176 197 0
180 201 0
173 195 0
179 201 0
180 202 0
179 202 0
176 199 0
182 203 0
181 202 0
178 199 0
176 198 0
176 199 0
177 199 0
179 200 0
179 201 0
182 204 0
179 201 0
182 203 0
177 199 0
177 199 0
176 198 0
183 204 0
179 201 0
181 203 0
183 203 0
177 199 0
179 201 0
183 203 0
176 198 0
183 204 0
181 203 0
184 204 0
183 204 0
178 200 0
185 205 0
173 196 0
180 203 0
181 203 0
180 202 0
180 201 0
181 202 0
180 202 0
180 201 0
178 200 0
184 204 0
182 204 0
184 205 0
183 204 0
173 196 0
181 203 0
178 199 0
179 202 0
177 199 0
182 203 0
182 204 0
178 200 0
183 204 0
184 205 0
182 204 0
180 202 0
181 202 0
178 200 0
178 200 0
178 201 0
181 203 0
180 202 0
178 200 0
179 202 0
178 201 0
179 202 0
181 203 0
182 204 0
183 204 0
179 201 0
181 203 0
180 202 0
181 203 0
183 204 0
182 204 0
183 204 0
178 201 0
184 205 0
181 203 0
179 202 0
183 204 0
181 202 0
183 204 0
184 205 0
181 202 0
183 204 0
179 201 0
182 203 0
183 204 0
179 202 0
182 204 0
179 200 0
184 205 0
182 204 0
180 203 0
183 204 0
180 203 0
181 203 0
181 203 0
182 203 0
180 202 0
182 204 0
182 204 0
182 203 0
180 203 0
182 204 0
181 203 0
182 204 0
182 204 0
182 204 0
183 204 0
182 204 0
181 203 0
182 204 0
182 204 0
182 204 0
180 203 0
179 201 0
182 204 0
179 201 0
180 202 0
181 203 0
181 203 0
182 204 0
181 203 0
181 203 0
181 203 0
182 204 0
181 203 0
180 203 0
179 201 0
183 204 0
181 203 0
181 203 0
181 203 0
181 203 0
182 204 0
181 203 0
183 204 0
182 204 0
184 205 0
181 203 0
181 203 0
180 202 0
182 204 0
182 203 0
181 203 0
181 203 0
182 203 0
183 204 0
181 203 0
179 201 0
181 203 0
178 201 0
180 202 0
181 203 0
183 204 0
181 203 0
182 204 0
179 201 0
180 202 0
181 203 0
184 205 0
181 203 0
180 202 0
181 203 0
180 202 0
182 204 0
180 201 0
180 202 0
184 205 0
181 203 0
181 202 0
181 203 0
180 203 0
180 202 0
181 202 0
182 204 0
182 204 0
182 204 0
181 203 0
178 201 0
180 202 0
179 202 0
181 203 0
183 204 0
180 202 0
181 203 0
177 200 0
182 203 0
182 204 0
181 203 0
183 204 0
179 201 0
180 202 0
177 199 0
182 204 0
181 202 0
181 203 0
180 202 0
179 201 0
182 204 0
176 197 0
178 200 0
178 200 0
182 204 0
183 204 0
180 202 0
180 202 0
179 201 0
179 202 0
182 203 0
182 204 0
183 204 0
177 200 0
181 203 0
181 203 0
179 201 0
174 197 0
179 200 0
180 202 0
181 203 0
181 203 0
181 203 0
178 199 0
179 201 0
176 198 0
183 204 0
180 202 0
182 203 0
180 202 0
179 202 0
175 198 0
174 196 0
179 201 0
181 202 0
172 195 0
173 196 0
178 200 0
179 201 0
175 197 0
176 198 0
173 196 0
177 200 0
177 199 0
176 198 0
176 199 0
174 196 0
177 198 0
171 194 0
170 192 0
173 195 0
175 198 0
178 200 0
174 195 0
175 196 0
174 195 0
181 202 0
172 194 0
170 193 0
166 188 0
170 192 0
173 194 0
175 196 0
176 197 0
170 193 0
176 197 0
161 184 0
171 193 0
171 191 0
172 194 0
170 193 0
168 189 0
164 185 0
162 184 0
163 183 0
165 186 0
169 190 0
173 195 0
155 178 0
169 190 0
160 180 0
155 176 0
160 181 0
157 179 0
159 180 0
149 171 0
93 123 129
68 105 144
69 107 156
69 107 162
67 104 157
66 105 159
66 104 159
66 104 166
67 105 158
68 106 170
68 106 173
66 105 170
67 106 170
68 107 177
67 106 171
66 105 172
67 105 172
68 107 166
68 106 166
69 108 175
69 108 174
68 107 172
69 108 172
69 108 174
68 107 174
68 107 172
69 108 175
70 109 183
68 107 179
68 107 175
67 106 171
68 107 170
69 108 174
70 109 179
70 108 175
69 108 174
68 107 170
68 107 172
68 106 164
70 109 177
69 108 174
67 106 162
68 107 172
68 107 170
69 108 172
70 109 174
69 107 162
68 107 168
69 108 170
69 107 170
68 107 162
68 106 164
67 105 156
69 107 170
70 107 160
69 108 170
68 107 164
66 104 149
69 106 153
69 107 164
68 105 151
68 106 153
68 105 147
125 148 80
147 167 0
147 168 0
157 177 0
160 180 0
157 178 0
164 185 0
163 184 0
157 177 0
162 183 0
157 180 0
168 188 0
158 179 0
166 187 0
166 188 0
171 192 0
172 193 0
167 189 0
171 192 0
159 181 0
168 189 0
173 195 0
168 189 0
164 186 0
172 193 0
171 192 0
168 189 0
173 194 0
180 201 0
171 193 0
171 191 0
170 192 0
172 194 0
173 194 0
178 200 0
174 196 0
180 201 0
175 196 0
174 195 0
176 199 0
175 197 0
174 196 0
174 196 0
179 200 0
179 200 0
180 202 0
181 202 0
181 201 0
175 197 0
177 199 0
178 200 0
169 192 0
180 201 0
177 200 0
179 200 0
183 204 0
179 200 0
173 195 0
174 197 0
177 198 0
178 200 0
179 200 0
183 204 0
182 203 0
179 202 0
178 201 0
177 199 0
182 204 0
178 200 0
182 203 0
176 198 0
179 201 0
176 197 0
180 201 0
181 203 0
179 201 0
185 205 0
179 201 0
182 203 0
179 200 0
179 202 0
182 203 0
183 204 0
181 203 0
174 196 0
173 195 0
175 198 0
179 200 0
181 203 0
175 198 0
181 203 0
181 203 0
183 204 0
181 203 0
179 201 0
181 203 0
181 203 0
183 204 0
181 202 0
180 201 0
178 201 0
182 203 0
183 204 0
181 202 0
182 204 0
181 202 0
182 204 0
183 204 0
182 203 0
180 202 0
180 202 0
180 203 0
182 204 0
184 205 0
179 201 0
181 203 0
183 204 0
182 204 0
181 203 0
183 204 0
183 204 0
181 203 0
183 204 0
183 204 0
185 205 0
180 202 0
180 202 0
180 202 0
180 202 0
182 203 0
183 204 0
181 203 0
179 202 0
185 205 0
180 202 0
181 203 0
184 205 0
181 202 0
183 204 0
180 202 0
182 204 0
179 201 0
182 204 0
181 203 0
182 204 0
180 203 0
182 204 0
180 203 0
182 204 0
181 202 0
180 203 0
183 203 0
183 204 0
182 204 0
180 202 0
182 203 0
182 203 0
183 204 0
183 204 0
181 203 0
182 204 0
182 204 0
183 204 0
181 203 0
181 203 0
180 203 0
180 203 0
181 203 0
179 201 0
180 203 0
182 204 0
182 204 0
182 203 0
182 204 0
181 203 0
183 204 0
181 203 0
183 204 0
182 204 0
181 203 0
182 204 0
181 202 0
181 203 0
182 204 0
182 204 0
180 202 0
183 204 0
182 204 0
180 203 0
181 203 0
183 204 0
179 202 0
179 202 0
181 202 0
183 204 0
179 202 0
179 201 0
182 204 0
182 204 0
182 203 0
182 204 0
182 204 0
181 202 0
182 203 0
182 204 0
182 204 0
181 203 0
181 203 0
181 202 0
180 203 0
180 202 0
181 203 0
182 204 0
180 202 0
181 202 0
183 204 0
180 203 0
181 202 0
183 204 0
182 204 0
182 204 0
178 200 0
181 203 0
181 203 0
182 204 0
181 203 0
179 201 0
181 203 0
182 203 0
178 201 0
177 200 0
182 204 0
180 203 0
180 202 0
183 204 0
179 202 0
182 204 0
180 202 0
181 203 0
181 203 0
183 204 0
182 204 0
179 202 0
179 202 0
181 202 0
179 201 0
178 200 0
180 201 0
180 203 0
180 201 0
182 204 0
182 203 0
180 202 0
181 202 0
178 200 0
179 201 0
178 200 0
180 202 0
182 203 0
183 204 0
177 199 0
180 202 0
181 203 0
179 201 0
178 200 0
183 204 0
181 203 0
181 203 0
177 200 0
177 199 0
179 201 0
178 200 0
183 204 0
179 200 0
177 200 0
181 203 0
180 202 0
179 201 0
176 199 0
179 201 0
177 198 0
176 198 0
177 198 0
177 199 0
171 193 0
175 197 0
180 202 0
174 197 0
179 201 0
178 200 0
176 198 0
179 200 0
177 199 0
169 190 0
176 199 0
177 199 0
177 199 0
178 200 0
177 199 0
178 198 0
176 199 0
176 198 0
181 202 0
173 195 0
175 197 0
178 200 0
177 199 0
173 194 0
171 194 0
171 192 0
174 195 0
173 194 0
177 198 0
170 192 0
162 185 0
166 188 0
164 186 0
168 189 0
172 194 0
169 191 0
174 196 0
158 180 0
173 195 0
165 187 0
163 184 0
163 184 0
168 190 0
164 185 0
159 179 0
163 184 0
163 185 0
166 186 0
164 185 0
142 163 0
152 173 0
151 173 0
156 178 0
130 151 38
70 106 134
63 100 129
67 105 160
66 104 146
67 105 151
66 104 150
67 105 167
65 102 156
66 105 164
67 106 173
66 105 160
66 105 165
69 108 168
66 103 167
66 105 165
68 106 167
67 105 173
69 107 170
69 108 175
69 108 174
69 108 181
68 107 173
68 107 166
69 108 181
67 105 163
68 107 175
68 107 166
67 106 164
68 107 172
69 107 180
67 106 166
68 107 177
70 108 168
68 107 172
69 107 166
68 107 168
69 108 183
68 107 175
69 107 177
68 107 170
69 107 162
68 107 170
69 107 162
66 104 160
68 106 162
71 109 177
69 108 174
69 107 162
68 106 164
69 107 166
69 107 172
70 108 164
69 108 177
68 106 162
66 105 151
67 105 153
68 106 160
68 106 156
67 104 149
67 105 149
68 106 156
104 130 118
155 175 0
161 182 0
157 177 0
154 176 0
157 176 0
154 175 0
157 178 0
166 187 0
164 185 0
161 184 0
162 183 0
173 193 0
159 180 0
160 181 0
172 193 0
176 197 0
156 178 0
171 193 0
156 178 0
161 183 0
168 189 0
166 187 0
171 193 0
169 191 0
174 195 0
159 181 0
171 192 0
167 188 0
173 195 0
179 200 0
177 199 0
176 198 0
171 193 0
170 192 0
175 197 0
180 201 0
177 199 0
170 193 0
171 192 0
176 198 0
180 202 0
182 203 0
174 195 0
179 201 0
180 202 0
178 200 0
175 197 0
178 201 0
181 202 0
176 198 0
178 200 0
179 200 0
180 201 0
179 201 0
182 204 0
184 205 0
180 201 0
177 199 0
181 203 0
178 200 0
177 198 0
181 203 0
181 202 0
181 203 0
177 199 0
181 203 0
182 203 0
180 202 0
183 204 0
182 203 0
177 198 0
179 201 0
180 202 0
180 202 0
179 201 0
183 204 0
180 203 0
179 200 0
175 197 0
181 203 0
184 205 0
180 202 0
184 205 0
180 203 0
182 203 0
178 201 0
183 204 0
179 202 0
180 203 0
182 204 0
178 200 0
183 204 0
182 203 0
180 203 0
182 204 0
180 203 0
182 204 0
183 204 0
182 204 0
179 201 0
183 204 0
179 201 0
183 204 0
180 202 0
181 203 0
181 203 0
181 203 0
181 203 0
181 203 0
180 202 0
179 202 0
183 204 0
181 202 0
181 202 0
180 202 0
180 203 0
182 203 0
179 200 0
180 202 0
184 205 0
183 204 0
180 203 0
180 203 0
183 204 0
179 201 0
183 204 0
182 204 0
180 203 0
182 204 0
181 203 0
184 205 0
180 203 0
183 204 0
185 205 0
182 204 0
178 200 0
183 204 0
179 200 0
183 204 0
179 200 0
184 205 0
182 204 0
181 203 0
183 204 0
180 203 0
181 203 0
181 203 0
182 204 0
181 203 0
181 203 0
182 204 0
184 205 0
183 204 0
181 203 0
183 204 0
182 204 0
182 204 0
180 202 0
180 203 0
182 204 0
180 203 0
182 204 0
181 203 0
180 203 0
180 202 0
182 203 0
183 204 0
181 203 0
181 203 0
181 203 0
180 203 0
182 204 0
182 204 0
181 203 0
184 205 0
182 204 0
182 204 0
182 204 0
181 202 0
179 201 0
182 203 0
179 202 0
183 204 0
183 203 0
181 203 0
182 204 0
181 202 0
183 204 0
180 203 0
183 204 0
181 203 0
181 203 0
181 202 0
182 203 0
181 203 0
181 203 0
181 203 0
182 204 0
179 201 0
182 204 0
183 204 0
179 202 0
183 204 0
180 203 0
181 203 0
179 202 0
180 203 0
181 203 0
181 203 0
182 204 0
178 200 0
177 200 0
184 205 0
182 204 0
180 201 0
179 202 0
183 204 0
179 202 0
183 204 0
179 201 0
181 203 0
181 203 0
183 204 0
181 203 0
182 203 0
178 200 0
180 203 0
181 202 0
182 203 0
180 202 0
181 203 0
183 203 0
178 200 0
179 200 0
182 203 0
182 204 0
180 202 0
182 204 0
181 203 0
181 203 0
178 200 0
180 201 0
178 201 0
181 203 0
180 203 0
177 200 0
180 201 0
180 202 0
180 202 0
182 204 0
180 202 0
182 203 0
182 204 0
182 204 0
182 204 0
182 202 0
180 202 0
178 200 0
177 199 0
180 202 0
180 202 0
177 199 0
178 199 0
179 201 0
180 203 0
178 201 0
179 201 0
179 202 0
176 200 0
174 196 0
180 201 0
180 201 0
179 200 0
178 200 0
178 199 0
179 202 0
176 198 0
183 204 0
178 200 0
179 200 0
179 200 0
181 201 0
181 202 0
177 198 0
175 198 0
172 194 0
176 199 0
181 203 0
178 199 0
175 197 0
177 200 0
178 200 0
177 198 0
176 198 0
178 200 0
171 193 0
179 200 0
180 201 0
176 197 0
171 193 0
176 198 0
173 195 0
180 201 0
173 194 0
174 196 0
172 193 0
178 199 0
164 185 0
172 193 0
172 192 0
171 193 0
171 193 0
172 193 0
178 199 0
175 197 0
169 191 0
176 198 0
170 192 0
166 188 0
176 197 0
162 182 0
164 186 0
162 182 0
170 190 0
160 181 0
158 180 0
155 177 0
160 181 0
167 187 0
152 174 0
170 190 0
151 173 0
146 168 0
154 176 0
162 182 0
152 172 0
136 156 0
157 179 0
126 151 104
64 101 139
66 103 146
67 105 158
66 105 157
67 105 157
68 106 160
66 104 157
66 104 165
66 104 164
67 106 175
68 107 166
67 105 169
67 105 164
66 105 168
66 104 158
66 105 166
67 105 161
69 107 172
69 108 175
68 106 171
66 105 164
68 106 164
68 107 170
68 107 172
68 106 163
69 107 174
67 105 164
66 105 166
66 105 162
68 106 170
68 107 172
67 105 162
68 107 170
69 107 166
69 107 166
67 106 175
69 107 170
69 107 174
67 105 156
68 107 170
69 107 170
69 107 168
68 107 166
67 106 168
69 108 172
67 105 153
69 107 164
67 106 162
66 104 151
70 108 164
68 106 164
68 106 158
66 103 139
68 106 158
66 103 147
68 106 158
68 105 149
68 106 164
67 105 153
71 106 129
145 166 56
158 178 0
152 173 0
168 189 0
144 165 0
161 182 0
155 177 0
163 184 0
168 189 0
149 170 0
163 184 0
147 169 0
158 178 0
162 183 0
160 182 0
165 185 0
163 184 0
162 184 0
171 193 0
164 186 0
174 196 0
167 188 0
177 198 0
178 199 0
167 188 0
171 192 0
173 194 0
178 199 0
165 187 0
177 198 0
178 199 0
174 195 0
171 193 0
178 200 0
172 194 0
179 200 0
182 204 0
179 200 0
169 191 0
171 193 0
176 198 0
181 202 0
175 197 0
174 196 0
175 198 0
178 200 0
180 202 0
173 195 0
177 199 0
180 202 0
180 201 0
180 202 0
176 198 0
177 199 0
183 204 0
183 203 0
175 196 0
176 199 0
176 198 0
182 203 0
184 204 0
174 196 0
181 203 0
178 200 0
177 198 0
179 201 0
177 199 0
182 204 0
179 200 0
181 202 0
176 198 0
180 202 0
176 199 0
177 200 0
181 202 0
182 203 0
179 201 0
182 204 0
181 203 0
182 204 0
180 202 0
179 200 0
181 203 0
182 203 0
182 203 0
178 201 0
177 200 0
184 205 0
181 203 0
178 200 0
179 200 0
178 200 0
180 202 0
180 202 0
183 204 0
182 204 0
182 204 0
182 204 0
183 204 0
181 203 0
181 203 0
179 201 0
178 201 0
179 201 0
179 201 0
183 204 0
182 204 0
181 202 0
179 201 0
181 202 0
180 202 0
182 203 0
179 201 0
184 205 0
182 203 0
181 203 0
181 202 0
181 202 0
185 205 0
182 203 0
181 203 0
181 203 0
181 203 0
181 203 0
182 204 0
179 202 0
182 204 0
180 202 0
183 204 0
183 204 0
183 204 0
183 204 0
181 203 0
180 202 0
180 202 0
180 203 0
180 203 0
182 204 0
180 202 0
180 201 0
182 204 0
183 204 0
182 203 0
183 204 0
181 202 0
181 202 0
181 203 0
179 202 0
181 203 0
180 202 0
181 203 0
181 202 0
182 203 0
182 204 0
180 203 0
180 203 0
179 202 0
181 203 0
183 204 0
180 202 0
181 203 0
182 203 0
182 204 0
181 203 0
181 203 0
181 203 0
181 203 0
181 203 0
181 203 0
181 203 0
180 203 0
181 203 0
183 204 0
182 203 0
181 203 0
182 204 0
180 203 0
181 203 0
180 203 0
179 202 0
181 203 0
179 202 0
181 203 0
183 204 0
184 205 0
180 202 0
182 204 0
182 204 0
180 202 0
184 205 0
180 202 0
182 204 0
183 204 0
182 204 0
181 203 0
181 203 0
181 203 0
182 203 0
181 203 0
182 204 0
182 204 0
181 203 0
181 203 0
182 204 0
182 203 0
182 204 0
182 204 0
182 203 0
184 204 0
180 202 0
179 202 0
183 204 0
181 203 0
183 204 0
182 203 0
181 203 0
180 203 0
183 204 0
179 201 0
183 204 0
181 202 0
181 203 0
178 201 0
181 203 0
181 203 0
181 203 0
177 199 0
179 202 0
183 204 0
180 202 0
180 201 0
181 203 0
182 204 0
179 202 0
179 202 0
179 202 0
182 204 0
182 203 0
181 202 0
179 201 0
181 202 0
183 204 0
182 204 0
180 203 0
178 200 0
176 198 0
181 202 0
179 200 0
179 202 0
176 198 0
180 202 0
182 203 0
181 203 0
180 203 0
179 202 0
180 203 0
178 200 0
178 201 0
180 202 0
182 204 0
180 203 0
180 202 0
179 201 0
179 201 0
181 202 0
181 203 0
180 202 0
177 198 0
182 204 0
176 199 0
182 203 0
182 203 0
180 202 0
183 204 0
181 202 0
181 202 0
179 201 0
177 200 0
178 201 0
180 201 0
178 200 0
180 201 0
180 202 0
178 200 0
177 199 0
178 200 0
181 202 0
175 198 0
174 197 0
177 199 0
172 195 0
178 200 0
179 201 0
178 200 0
180 201 0
173 195 0
176 198 0
172 195 0
171 194 0
174 196 0
173 196 0
173 195 0
175 198 0
177 198 0
180 201 0
174 196 0
172 194 0
175 196 0
172 195 0
175 197 0
167 190 0
166 188 0
175 196 0
175 197 0
171 193 0
173 195 0
171 192 0
165 187 0
164 187 0
164 186 0
161 183 0
165 187 0
161 183 0
168 189 0
168 190 0
158 180 0
162 182 0
163 184 0
163 184 0
161 180 0
171 193 0
150 171 0
151 173 0
154 176 0
156 177 0
147 168 0
145 166 0
150 169 0
156 176 0
147 168 38
80 111 124
65 102 141
65 102 137
64 101 153
65 103 159
66 104 161
65 102 163
67 104 148
67 105 169
66 104 160
66 103 146
66 103 160
68 106 171
67 105 163
66 104 168
68 106 162
69 107 162
66 104 158
68 106 170
68 107 178
65 103 157
68 107 172
69 107 172
69 107 170
68 107 172
69 107 170
68 107 168
69 108 172
70 109 179
68 107 172
68 106 166
67 106 160
69 108 175
69 107 170
69 108 175
67 106 167
67 106 168
68 106 164
69 107 174
69 107 166
69 107 174
70 108 168
68 106 156
68 106 164
68 106 162
67 104 156
67 105 153
68 106 158
66 104 151
67 105 151
68 106 162
67 105 158
68 105 153
67 105 156
69 107 160
67 105 149
66 103 147
66 102 137
66 103 139
120 143 84
156 177 0
166 185 0
152 172 0
147 167 0
151 173 0
145 167 0
149 171 0
156 177 0
165 186 0
164 185 0
154 176 0
154 176 0
170 191 0
162 183 0
162 183 0
164 184 0
162 183 0
162 184 0
160 182 0
161 181 0
168 190 0
163 185 0
166 187 0
172 194 0
165 188 0
173 194 0
173 195 0
166 188 0
169 191 0
172 192 0
168 188 0
174 196 0
180 200 0
178 200 0
176 198 0
180 201 0
175 195 0
169 191 0
180 201 0
178 199 0
176 196 0
176 197 0
178 200 0
179 200 0
173 195 0
174 196 0
175 196 0
179 200 0
179 201 0
177 199 0
180 202 0
179 200 0
178 200 0
182 204 0
181 203 0
182 203 0
180 201 0
180 202 0
177 198 0
180 201 0
174 197 0
182 204 0
183 204 0
178 199 0
181 202 0
182 204 0
179 201 0
178 199 0
181 202 0
174 196 0
182 204 0
181 202 0
182 203 0
182 204 0
179 201 0
178 200 0
181 202 0
182 203 0
181 203 0
180 201 0
178 200 0
178 201 0
183 204 0
180 203 0
182 203 0
180 203 0
180 203 0
181 202 0
178 200 0
179 202 0
180 202 0
180 203 0
178 200 0
178 200 0
182 203 0
178 201 0
183 204 0
180 202 0
182 204 0
179 202 0
180 202 0
179 201 0
180 202 0
181 203 0
182 204 0
178 199 0
181 202 0
182 204 0
184 205 0
183 204 0
183 203 0
181 203 0
183 204 0
181 203 0
180 202 0
180 203 0
180 202 0
182 204 0
182 204 0
181 203 0
183 204 0
183 204 0
183 204 0
182 204 0
181 203 0
182 204 0
181 202 0
179 202 0
183 204 0
180 201 0
183 204 0
182 204 0
184 205 0
183 204 0
181 203 0
182 204 0
181 203 0
181 203 0
181 202 0
182 204 0
184 205 0
180 203 0
181 203 0
182 204 0
181 203 0
183 204 0
181 203 0
180 202 0
182 204 0
181 203 0
183 204 0
184 205 0
182 204 0
183 204 0
182 204 0
183 204 0
183 204 0
184 205 0
184 205 0
184 205 0
182 203 0
180 203 0
184 205 0
182 203 0
180 202 0
181 203 0
183 204 0
183 204 0
183 204 0
183 204 0
182 203 0
183 204 0
181 203 0
182 204 0
182 204 0
182 203 0
182 204 0
184 205 0
182 204 0
182 204 0
180 202 0
181 203 0
179 201 0
181 202 0
182 204 0
180 203 0
182 204 0
181 203 0
180 201 0
182 204 0
182 204 0
182 204 0
182 203 0
181 202 0
181 203 0
182 204 0
180 202 0
180 202 0
178 200 0
182 204 0
181 203 0
179 202 0
181 203 0
181 203 0
181 203 0
177 200 0
183 204 0
179 202 0
183 204 0
182 203 0
179 201 0
181 202 0
183 204 0
181 203 0
181 203 0
182 203 0
182 204 0
177 199 0
181 203 0
180 202 0
181 203 0
184 205 0
181 203 0
182 203 0
181 203 0
179 201 0
182 203 0
181 203 0
178 199 0
180 202 0
179 200 0
180 202 0
180 202 0
181 203 0
182 204 0
181 203 0
179 202 0
180 203 0
179 202 0
179 201 0
179 201 0
182 204 0
179 200 0
180 201 0
181 203 0
179 202 0
180 202 0
183 204 0
182 203 0
181 203 0
181 203 0
180 202 0
178 201 0
180 203 0
179 201 0
177 200 0
177 199 0
181 203 0
182 203 0
181 202 0
182 204 0
174 196 0
183 204 0
180 202 0
181 203 0
176 198 0
176 198 0
178 200 0
183 204 0
179 201 0
178 199 0
177 199 0
175 196 0
180 201 0
178 200 0
182 203 0
182 204 0
179 202 0
175 198 0
176 196 0
181 203 0
178 200 0
178 200 0
181 203 0
174 197 0
178 199 0
176 198 0
176 198 0
177 199 0
175 198 0
181 202 0
177 199 0
175 197 0
174 196 0
175 196 0
182 203 0
176 198 0
168 190 0
178 200 0
174 197 0
177 198 0
173 195 0
173 194 0
175 196 0
168 191 0
177 199 0
175 197 0
177 199 0
172 194 0
176 198 0
170 192 0
173 195 0
172 194 0
175 197 0
172 194 0
165 187 0
164 186 0
170 192 0
165 186 0
174 195 0
180 202 0
171 193 0
169 191 0
166 187 0
171 195 0
168 190 0
178 199 0
167 188 0
163 185 0
167 189 0
167 186 0
159 180 0
169 191 0
151 172 56
143 166 63
143 164 77
125 149 97
134 158 89
141 163 69
138 160 63
143 164 48
72 105 122
67 105 158
65 102 150
68 106 161
67 105 162
67 105 153
67 105 158
67 105 159
65 103 144
65 103 165
65 103 150
69 107 173
66 103 166
68 106 162
68 107 173
67 105 167
66 103 162
68 106 162
69 107 168
68 106 160
68 107 166
67 105 163
68 107 172
66 104 162
69 107 170
68 107 172
68 106 172
67 107 172
67 106 162
68 107 172
68 106 162
69 108 175
68 106 164
68 107 166
67 104 162
69 108 174
70 108 174
69 108 170
68 106 162
68 106 162
67 105 151
67 105 158
68 106 156
68 107 164
68 106 168
69 107 164
67 104 147
68 106 158
70 108 168
68 105 153
67 104 147
69 107 166
69 107 162
69 107 168
65 102 137
66 103 139
67 104 147
108 134 93
155 176 0
140 160 0
145 166 0
150 170 0
150 171 0
153 173 0
166 187 0
150 170 0
161 181 0
169 188 0
172 192 0
163 184 0
163 184 0
159 180 0
172 193 0
165 187 0
158 180 0
164 185 0
166 188 0
174 196 0
161 183 0
160 181 0
165 186 0
171 193 0
165 187 0
175 197 0
173 194 0
165 188 0
169 192 0
175 196 0
173 194 0
173 194 0
173 194 0
164 186 0
178 199 0
171 192 0
178 199 0
177 200 0
172 194 0
180 202 0
173 195 0
177 199 0
181 202 0
176 198 0
180 202 0
176 198 0
176 199 0
176 198 0
177 198 0
179 201 0
172 194 0
174 197 0
178 199 0
182 203 0
180 201 0
176 198 0
179 202 0
177 199 0
181 201 0
178 198 0
180 202 0
175 196 0
176 198 0
176 198 0
178 199 0
181 203 0
177 199 0
177 199 0
179 202 0
180 202 0
178 199 0
181 201 0
184 204 0
184 205 0
182 203 0
183 204 0
175 198 0
181 203 0
179 202 0
181 203 0
181 203 0
178 200 0
180 202 0
183 204 0
181 202 0
179 201 0
179 200 0
181 202 0
181 203 0
179 201 0
181 203 0
183 204 0
177 200 0
180 202 0
178 200 0
184 204 0
180 201 0
181 203 0
180 203 0
181 202 0
179 201 0
180 203 0
179 202 0
180 202 0
180 201 0
183 204 0
182 204 0
179 201 0
184 205 0
181 203 0
181 203 0
181 203 0
181 203 0
181 203 0
178 201 0
183 204 0
178 201 0
181 203 0
179 202 0
181 203 0
182 204 0
181 203 0
183 204 0
181 203 0
182 204 0
180 203 0
181 203 0
182 203 0
183 204 0
183 203 0
181 203 0
183 204 0
181 203 0
181 203 0
181 203 0
181 203 0
181 203 0
181 202 0
185 205 0
182 204 0
182 203 0
183 204 0
184 205 0
180 202 0
182 204 0
183 204 0
181 203 0
180 202 0
184 205 0
181 203 0
182 204 0
180 201 0
185 205 0
183 204 0
182 203 0
181 203 0
180 203 0
182 204 0
182 203 0
182 203 0
182 204 0
182 204 0
183 204 0
181 203 0
180 203 0
181 203 0
183 204 0
182 204 0
183 204 0
183 204 0
178 201 0
183 204 0
182 204 0
182 204 0
180 202 0
181 203 0
182 204 0
182 204 0
181 203 0
183 204 0
181 203 0
180 202 0
181 203 0
183 204 0
179 201 0
183 204 0
179 201 0
179 201 0
182 204 0
183 204 0
179 201 0
182 204 0
182 204 0
182 204 0
181 203 0
182 204 0
182 204 0
181 202 0
180 201 0
181 203 0
182 204 0
179 201 0
180 202 0
180 203 0
182 203 0
179 202 0
182 204 0
183 204 0
183 204 0
180 202 0
180 202 0
180 202 0
179 202 0
178 200 0
180 201 0
181 203 0
181 202 0
181 203 0
182 203 0
176 198 0
181 203 0
184 205 0
180 203 0
179 202 0
182 203 0
181 203 0
180 203 0
182 204 0
181 203 0
180 202 0
182 203 0
180 203 0
183 204 0
184 205 0
179 202 0
180 202 0
180 202 0
179 202 0
182 204 0
182 203 0
182 204 0
179 201 0
183 204 0
182 204 0
180 202 0
183 204 0
181 202 0
181 202 0
181 202 0
176 198 0
180 203 0
182 204 0
178 200 0
178 200 0
178 200 0
179 201 0
180 202 0
182 203 0
177 198 0
178 200 0
176 198 0
181 202 0
178 201 0
180 203 0
180 202 0
182 204 0
181 203 0
178 200 0
172 196 0
180 202 0
179 201 0
180 202 0
179 201 0
176 198 0
179 201 0
175 197 0
182 203 0
177 198 0
175 198 0
177 200 0
177 199 0
175 197 0
181 203 0
179 200 0
174 197 0
177 199 0
177 199 0
174 197 0
177 198 0
181 202 0
177 199 0
179 201 0
177 199 0
173 195 0
179 200 0
179 201 0
179 201 0
177 199 0
176 197 0
173 194 0
181 203 0
172 195 0
179 202 0
167 188 0
175 197 0
177 200 0
172 194 0
174 196 0
173 196 0
169 192 0
175 197 0
173 195 0
171 194 0
161 184 0
167 188 0
162 183 0
171 193 0
165 187 0
164 186 0
172 194 0
170 191 0
163 184 0
167 188 0
169 191 0
168 190 0
174 196 0
170 190 0
172 193 0
168 189 0
168 190 0
159 181 0
163 185 0
156 178 0
151 172 56
152 173 80
135 158 84
144 166 63
131 152 75
146 167 63
127 150 93
123 147 108
116 140 97
114 139 121
120 145 110
80 112 137
70 105 141
66 104 146
66 103 148
66 103 160
66 104 163
65 102 155
65 103 161
66 104 155
65 103 157
65 103 151
66 103 150
67 105 172
67 105 162
67 106 164
68 107 173
67 105 165
66 105 161
69 108 177
67 106 166
68 106 166
67 105 170
68 106 164
67 106 160
68 107 171
69 108 175
67 105 162
68 107 166
71 109 179
69 107 168
67 105 165
67 105 162
69 107 170
67 106 162
68 106 166
69 108 168
68 106 166
68 106 164
67 105 164
70 108 168
67 106 156
67 105 164
68 106 162
69 107 162
67 104 147
68 106 151
68 106 162
68 107 160
66 103 137
68 105 151
67 104 144
67 105 151
65 102 134
64 101 129
94 122 121
150 169 0
142 162 0
144 165 0
145 165 0
154 174 0
152 172 0
152 173 0
150 170 0
146 167 0
154 174 0
168 189 0
157 179 0
165 185 0
164 185 0
162 183 0
169 191 0
162 183 0
161 183 0
163 185 0
174 196 0
166 187 0
170 191 0
174 195 0
172 193 0
169 191 0
164 186 0
165 187 0
175 197 0
177 199 0
172 193 0
175 195 0
174 196 0
176 197 0
172 194 0
176 197 0
173 195 0
177 198 0
175 195 0
175 195 0
177 198 0
174 196 0
177 200 0
177 199 0
175 197 0
178 199 0
178 200 0
174 196 0
174 195 0
175 197 0
180 201 0
169 191 0
176 198 0
177 200 0
177 198 0
175 197 0
172 193 0
176 198 0
178 200 0
181 202 0
177 198 0
179 201 0
179 200 0
179 200 0
182 203 0
179 202 0
178 200 0
181 203 0
178 200 0
177 199 0
182 204 0
179 202 0
177 199 0
182 203 0
183 204 0
180 202 0
179 201 0
179 201 0
180 202 0
177 199 0
185 205 0
183 204 0
180 202 0
181 202 0
183 204 0
182 203 0
180 202 0
183 204 0
178 201 0
176 199 0
182 204 0
182 204 0
182 204 0
178 200 0
184 205 0
183 204 0
181 203 0
179 201 0
183 204 0
183 204 0
178 200 0
182 204 0
183 203 0
180 201 0
182 204 0
181 203 0
182 203 0
181 202 0
183 204 0
182 204 0
180 202 0
184 205 0
180 203 0
182 204 0
181 203 0
181 203 0
180 203 0
180 202 0
174 197 0
179 201 0
181 203 0
182 204 0
183 204 0
181 203 0
183 204 0
180 202 0
182 204 0
182 203 0
180 202 0
179 201 0
178 201 0
178 201 0
182 204 0
181 203 0
182 204 0
185 205 0
180 202 0
183 204 0
181 203 0
179 202 0
182 204 0
182 204 0
176 199 0
181 203 0
182 203 0
181 203 0
183 204 0
183 204 0
180 202 0
181 203 0
180 203 0
183 204 0
180 203 0
182 204 0
182 204 0
181 203 0
181 203 0
183 204 0
181 203 0
179 201 0
180 203 0
183 204 0
182 204 0
183 204 0
183 204 0
182 203 0
184 205 0
182 204 0
179 202 0
180 203 0
180 201 0
181 203 0
179 202 0
183 204 0
183 204 0
182 204 0
182 203 0
180 202 0
181 203 0
182 204 0
182 204 0
184 205 0
181 203 0
182 204 0
182 204 0
182 203 0
182 204 0
181 203 0
180 202 0
182 203 0
181 203 0
183 204 0
182 204 0
181 203 0
181 203 0
181 203 0
182 204 0
181 203 0
180 202 0
182 203 0
180 203 0
182 204 0
178 200 0
182 204 0
181 203 0
181 203 0
184 205 0
181 203 0
183 204 0
181 203 0
184 204 0
181 203 0
181 203 0
183 204 0
182 203 0
180 202 0
182 204 0
181 202 0
182 204 0
182 204 0
180 203 0
183 204 0
180 202 0
177 199 0
181 203 0
181 202 0
182 203 0
181 203 0
180 203 0
181 203 0
182 203 0
182 204 0
182 203 0
181 202 0
181 203 0
183 204 0
180 203 0
181 203 0
181 203 0
180 201 0
179 200 0
175 197 0
181 202 0
182 204 0
182 204 0
181 203 0
180 202 0
180 203 0
179 201 0
181 203 0
177 200 0
179 202 0
178 201 0
181 202 0
181 202 0
180 202 0
179 201 0
179 202 0
178 200 0
179 202 0
181 203 0
177 199 0
178 199 0
176 197 0
177 198 0
182 203 0
180 201 0
181 203 0
178 199 0
180 203 0
181 202 0
178 199 0
180 202 0
180 201 0
179 202 0
179 201 0
177 199 0
179 201 0
179 201 0
180 201 0
177 200 0
176 198 0
182 204 0
176 199 0
176 199 0
178 200 0
176 197 0
179 200 0
176 197 0
180 202 0
176 198 0
178 200 0
180 201 0
170 192 0
179 201 0
172 194 0
178 199 0
171 192 0
178 200 0
166 188 0
176 197 0
172 194 0
180 201 0
174 196 0
175 197 0
169 190 0
171 193 0
179 201 0
178 200 0
179 200 0
172 194 0
172 195 0
175 197 0
176 197 0
165 187 0
173 194 0
171 193 0
175 196 0
167 190 0
166 188 0
166 189 0
177 198 0
163 186 0
163 185 0
165 186 0
177 198 0
172 193 0
169 190 0
178 199 0
167 189 0
159 181 0
166 187 0
174 195 0
162 184 0
172 193 0
160 183 48
159 181 63
138 160 80
120 145 101
119 144 121
105 130 114
101 128 126
102 130 125
109 135 121
106 134 134
108 135 126
119 144 116
131 155 118
93 121 137
79 111 133
66 104 156
68 106 160
66 103 151
67 105 149
64 102 152
63 100 146
67 105 166
64 102 161
67 105 160
66 104 166
67 105 160
68 106 160
68 106 166
68 107 170
68 106 171
68 106 168
69 107 172
70 108 175
68 105 158
69 107 162
69 107 164
68 107 166
70 108 172
69 108 170
69 107 164
67 106 166
67 105 161
65 102 148
67 105 153
67 105 158
68 106 164
69 107 162
68 107 166
70 109 175
68 107 162
67 105 160
67 105 149
67 104 149
68 105 147
67 106 158
68 106 158
69 107 166
67 104 149
67 104 144
67 104 139
66 103 142
68 106 162
68 105 153
63 100 126
96 125 118
147 168 25
137 158 0
142 161 0
154 174 0
161 182 0
158 180 0
149 171 0
169 191 0
159 181 0
157 178 0
148 169 0
156 175 0
151 172 0
166 187 0
159 181 0
163 185 0
169 191 0
167 188 0
173 195 0
160 181 0
169 191 0
171 192 0
161 182 0
163 184 0
166 187 0
158 180 0
177 198 0
169 191 0
168 189 0
169 190 0
174 195 0
181 202 0
165 187 0
173 195 0
173 195 0
173 195 0
177 199 0
165 187 0
171 193 0
170 192 0
178 199 0
178 200 0
177 198 0
177 198 0
176 198 0
180 201 0
182 203 0
173 194 0
173 194 0
176 199 0
180 201 0
174 196 0
172 194 0
182 204 0
179 200 0
179 200 0
180 201 0
182 204 0
174 197 0
183 204 0
182 203 0
179 201 0
183 204 0
175 197 0
178 200 0
181 203 0
177 199 0
177 199 0
183 203 0
179 201 0
181 203 0
180 202 0
182 203 0
179 201 0
181 201 0
179 201 0
184 205 0
182 204 0
179 201 0
178 200 0
183 204 0
181 202 0
183 204 0
181 202 0
180 202 0
182 203 0
183 204 0
180 201 0
179 201 0
177 200 0
177 199 0
184 205 0
182 204 0
182 204 0
180 202 0
181 202 0
179 201 0
181 203 0
181 203 0
181 203 0
181 203 0
181 202 0
181 203 0
180 202 0
181 202 0
180 203 0
182 204 0
180 203 0
182 203 0
182 204 0
184 205 0
181 203 0
179 201 0
181 203 0
182 204 0
179 202 0
181 202 0
181 203 0
180 202 0
181 203 0
180 201 0
181 203 0
181 203 0
182 204 0
182 203 0
183 204 0
181 203 0
184 205 0
182 203 0
182 204 0
180 201 0
182 203 0
179 202 0
182 204 0
181 203 0
182 204 0
182 204 0
181 202 0
182 204 0
183 204 0
182 204 0
182 204 0
181 203 0
181 203 0
181 203 0
183 204 0
183 204 0
181 202 0
181 203 0
183 204 0
179 202 0
180 203 0
182 204 0
180 203 0
182 203 0
183 204 0
181 203 0
182 204 0
180 202 0
181 203 0
181 202 0
183 204 0
179 202 0
182 203 0
182 204 0
180 203 0
184 205 0
185 205 0
183 204 0
183 204 0
181 203 0
181 203 0
181 203 0
183 204 0
181 203 0
184 205 0
182 204 0
183 204 0
178 201 0
182 204 0
182 204 0
182 204 0
180 202 0
183 204 0
181 203 0
182 204 0
182 204 0
182 203 0
180 203 0
183 204 0
182 204 0
183 204 0
183 204 0
181 203 0
182 203 0
183 204 0
182 204 0
183 204 0
181 203 0
181 203 0
181 203 0
183 204 0
178 199 0
179 201 0
182 204 0
183 204 0
181 203 0
180 203 0
181 203 0
177 200 0
178 200 0
184 205 0
178 200 0
183 204 0
181 202 0
176 198 0
182 204 0
185 205 0
182 203 0
181 203 0
181 202 0
180 202 0
178 201 0
182 204 0
182 204 0
182 204 0
182 204 0
180 201 0
181 203 0
183 204 0
183 204 0
181 203 0
179 200 0
182 204 0
179 201 0
181 202 0
181 203 0
180 202 0
184 205 0
183 204 0
181 203 0
180 202 0
181 203 0
183 203 0
178 200 0
181 203 0
178 200 0
181 203 0
174 196 0
182 204 0
181 203 0
181 203 0
179 201 0
181 202 0
180 202 0
181 203 0
173 196 0
182 203 0
182 204 0
180 202 0
179 200 0
181 203 0
178 201 0
180 202 0
181 203 0
179 201 0
179 202 0
174 197 0
180 202 0
178 200 0
178 200 0
181 203 0
180 202 0
181 203 0
180 202 0
180 203 0
178 199 0
181 203 0
179 202 0
171 194 0
183 203 0
179 201 0
180 202 0
180 202 0
182 203 0
180 202 0
180 202 0
181 203 0
179 200 0
179 201 0
176 198 0
177 198 0
175 196 0
180 202 0
173 195 0
183 204 0
179 201 0
175 197 0
177 199 0
179 201 0
176 199 0
179 201 0
178 200 0
170 192 0
172 194 0
175 197 0
179 201 0
173 195 0
180 201 0
175 197 0
173 195 0
172 193 0
173 194 0
173 195 0
166 187 0
171 193 0
166 188 0
170 192 0
171 193 0
171 193 0
176 198 0
167 188 0
168 189 0
172 193 0
170 191 0
175 196 0
172 194 0
169 191 0
170 191 0
178 199 0
172 193 0
171 193 0
171 192 0
169 191 0
171 192 0
169 192 0
132 156 106
80 113 144
67 105 157
83 117 153
77 112 155
66 103 150
66 104 151
85 117 160
70 107 147
82 115 158
73 107 141
81 113 138
79 112 147
92 123 144
114 139 111
91 120 130
75 109 164
67 105 162
65 102 156
64 101 146
65 103 162
66 104 157
68 106 165
64 102 156
67 106 162
67 105 160
66 105 161
67 105 165
66 105 164
67 106 164
67 106 169
68 106 161
67 105 161
67 106 172
69 108 172
68 106 160
68 106 153
67 105 158
68 107 168
68 107 164
68 106 158
67 106 160
68 107 162
66 103 156
67 106 162
68 106 164
67 105 160
68 106 158
66 104 151
68 106 162
68 107 164
69 107 158
65 102 147
69 107 162
68 106 158
67 105 147
68 106 164
69 106 149
68 106 160
66 103 149
65 102 134
68 105 137
86 115 114
135 155 56
148 167 0
141 161 0
157 177 0
139 159 0
148 168 0
144 164 0
155 176 0
159 179 0
148 169 0
164 184 0
158 178 0
155 176 0
160 181 0
172 194 0
158 179 0
168 190 0
160 182 0
172 192 0
168 189 0
163 185 0
169 191 0
162 184 0
167 189 0
174 195 0
168 190 0
176 197 0
172 194 0
172 194 0
167 189 0
176 198 0
173 195 0
169 190 0
172 195 0
171 193 0
177 198 0
176 196 0
178 199 0
173 195 0
176 198 0
172 194 0
177 198 0
178 199 0
176 197 0
169 191 0
177 199 0
174 196 0
178 200 0
171 193 0
173 194 0
180 201 0
180 202 0
178 200 0
179 201 0
177 201 0
176 198 0
176 199 0
176 198 0
176 198 0
172 194 0
178 200 0
176 199 0
177 198 0
179 200 0
181 202 0
178 200 0
181 203 0
181 203 0
182 204 0
177 200 0
178 200 0
181 203 0
179 201 0
182 204 0
180 202 0
179 200 0
180 201 0
180 202 0
178 201 0
182 203 0
181 202 0
179 201 0
180 201 0
180 202 0
179 202 0
182 204 0
178 200 0
182 203 0
173 195 0
179 201 0
178 201 0
181 203 0
179 201 0
181 202 0
179 201 0
179 201 0
183 204 0
182 204 0
178 200 0
184 204 0
178 201 0
181 203 0
179 201 0
183 204 0
183 204 0
179 201 0
179 201 0
182 204 0
178 199 0
180 202 0
182 204 0
183 204 0
181 202 0
182 204 0
180 202 0
180 202 0
181 203 0
182 203 0
179 201 0
180 203 0
182 204 0
181 203 0
179 201 0
182 204 0
181 203 0
182 204 0
181 203 0
178 200 0
184 205 0
179 201 0
179 201 0
181 202 0
177 199 0
183 204 0
181 203 0
182 204 0
180 202 0
182 204 0
183 204 0
183 204 0
182 204 0
182 204 0
183 204 0
181 203 0
181 203 0
183 204 0
181 203 0
183 204 0
181 203 0
181 202 0
183 204 0
180 201 0
182 204 0
181 203 0
183 204 0
184 205 0
183 204 0
180 202 0
182 204 0
179 201 0
177 200 0
184 205 0
181 202 0
183 204 0
183 204 0
180 202 0
182 203 0
184 205 0
180 202 0
183 204 0
182 204 0
182 204 0
181 203 0
182 204 0
181 203 0
183 203 0
181 203 0
183 204 0
181 203 0
181 203 0
184 205 0
182 204 0
180 202 0
182 204 0
183 204 0
184 205 0
180 202 0
182 204 0
179 201 0
180 202 0
183 204 0
181 203 0
184 205 0
181 203 0
181 203 0
182 204 0
182 204 0
183 203 0
181 203 0
182 203 0
182 204 0
182 203 0
181 203 0
182 204 0
181 203 0
179 201 0
180 203 0
183 204 0
182 204 0
182 204 0
181 203 0
182 204 0
182 204 0
179 202 0
180 202 0
182 204 0
182 204 0
181 203 0
183 204 0
181 203 0
182 204 0
179 202 0
183 204 0
182 204 0
183 203 0
183 204 0
181 203 0
181 203 0
182 204 0
179 202 0
177 199 0
182 204 0
181 203 0
182 204 0
181 202 0
185 205 0
182 204 0
182 204 0
181 203 0
179 201 0
182 204 0
178 201 0
180 202 0
180 203 0
177 200 0
179 200 0
181 202 0
178 201 0
174 196 0
180 203 0
182 204 0
178 201 0
181 203 0
179 201 0
181 203 0
179 201 0
183 204 0
180 202 0
180 202 0
182 204 0
181 202 0
183 204 0
180 202 0
182 204 0
181 203 0
181 202 0
181 203 0
177 199 0
177 199 0
178 201 0
181 202 0
181 203 0
180 201 0
183 203 0
182 204 0
183 204 0
178 200 0
179 200 0
181 203 0
180 202 0
177 198 0
180 202 0
179 200 0
174 196 0
178 200 0
175 196 0
180 202 0
176 198 0
179 200 0
176 198 0
175 197 0
181 203 0
178 201 0
178 200 0
177 199 0
175 196 0
175 197 0
176 198 0
178 200 0
180 201 0
177 200 0
181 203 0
178 199 0
176 197 0
174 197 0
174 195 0
175 197 0
172 194 0
176 199 0
170 193 0
169 190 0
176 198 0
170 192 0
175 196 0
171 193 0
174 196 0
176 198 0
174 196 0
166 188 0
166 188 0
174 195 0
166 189 0
176 198 0
180 202 0
174 196 0
172 195 0
176 197 0
180 201 0
170 192 0
176 197 0
179 201 0
179 201 38
183 204 38
177 199 80
174 196 0
170 192 0
152 175 97
93 123 151
80 114 147
78 112 161
70 106 151
67 105 158
72 109 162
70 106 149
72 109 162
64 101 139
67 105 164
65 102 155
70 105 146
77 112 166
71 106 157
66 103 156
79 112 156
107 132 108
80 113 147
63 100 148
66 103 149
67 105 157
65 103 163
67 105 157
68 106 161
67 106 162
67 106 164
66 104 153
67 104 153
68 107 170
67 106 158
67 104 156
67 106 160
67 105 156
69 107 170
68 106 160
69 107 166
67 105 156
69 107 171
67 105 153
68 106 162
69 107 169
67 106 158
70 108 168
66 104 158
68 105 151
70 108 168
68 106 158
70 108 166
67 104 156
66 104 151
65 102 134
68 106 158
67 104 142
68 106 160
67 105 142
68 105 158
65 102 137
66 104 149
66 103 139
66 103 137
67 104 144
92 122 126
132 151 48
146 165 0
164 184 0
129 149 0
142 162 0
144 164 0
157 176 0
163 183 0
162 183 0
167 187 0
160 180 0
156 174 0
159 178 0
164 184 0
161 183 0
165 186 0
154 174 0
168 190 0
166 188 0
162 183 0
165 187 0
168 189 0
166 186 0
166 186 0
171 192 0
171 192 0
168 190 0
171 192 0
173 194 0
175 196 0
170 192 0
170 191 0
176 197 0
176 198 0
174 195 0
172 194 0
171 192 0
171 192 0
171 192 0
173 195 0
172 193 0
177 198 0
176 196 0
174 197 0
176 199 0
174 196 0
178 200 0
175 196 0
175 197 0
175 195 0
178 198 0
171 194 0
176 198 0
176 198 0
172 194 0
181 202 0
176 199 0
176 198 0
177 199 0
184 204 0
178 199 0
178 200 0
183 203 0
180 201 0
180 202 0
178 199 0
179 201 0
177 199 0
180 201 0
179 201 0
180 200 0
178 200 0
180 201 0
178 200 0
180 201 0
178 201 0
176 197 0
173 195 0
185 205 0
181 203 0
177 200 0
175 196 0
180 201 0
177 198 0
184 205 0
175 197 0
180 202 0
181 203 0
184 205 0
176 199 0
184 205 0
181 203 0
178 200 0
180 202 0
181 203 0
177 199 0
183 204 0
178 200 0
182 204 0
176 198 0
179 202 0
180 202 0
180 202 0
180 202 0
181 203 0
181 203 0
179 202 0
179 202 0
180 202 0
184 205 0
181 203 0
179 201 0
183 204 0
179 201 0
176 199 0
181 203 0
181 203 0
180 203 0
182 204 0
181 202 0
183 204 0
181 203 0
181 203 0
180 202 0
182 204 0
181 203 0
183 204 0
181 203 0
178 200 0
179 200 0
184 205 0
182 204 0
182 203 0
180 202 0
182 204 0
182 203 0
183 204 0
182 204 0
182 203 0
179 201 0
182 204 0
181 203 0
182 204 0
183 204 0
183 203 0
184 205 0
180 202 0
183 204 0
178 200 0
182 204 0
181 202 0
181 203 0
184 205 0
183 204 0
181 203 0
183 204 0
181 203 0
180 202 0
183 204 0
182 204 0
182 204 0
181 203 0
180 202 0
182 204 0
182 204 0
184 205 0
183 204 0
180 202 0
183 204 0
180 203 0
181 203 0
183 204 0
180 203 0
181 203 0
183 204 0
183 204 0
184 205 0
183 204 0
182 204 0
182 204 0
181 203 0
182 204 0
182 204 0
182 204 0
179 201 0
182 204 0
180 203 0
180 202 0
181 201 0
179 202 0
181 203 0
181 203 0
180 203 0
180 203 0
183 204 0
183 204 0
183 204 0
181 203 0
182 204 0
179 201 0
182 204 0
180 203 0
184 205 0
181 203 0
181 203 0
181 202 0
182 204 0
182 203 0
182 204 0
182 204 0
181 203 0
179 201 0
182 204 0
183 204 0
182 204 0
186 206 0
178 200 0
180 203 0
183 204 0
179 202 0
180 202 0
182 204 0
181 203 0
181 203 0
182 204 0
181 202 0
181 203 0
180 202 0
181 203 0
181 203 0
179 201 0
179 201 0
182 204 0
181 203 0
180 203 0
178 200 0
179 201 0
181 203 0
180 203 0
183 204 0
181 203 0
178 200 0
180 203 0
181 203 0
178 201 0
183 204 0
183 204 0
180 202 0
178 201 0
183 204 0
179 202 0
182 204 0
180 202 0
179 202 0
177 199 0
178 201 0
178 199 0
180 203 0
181 203 0
181 202 0
176 198 0
179 201 0
180 202 0
180 203 0
179 201 0
174 198 0
180 202 0
182 203 0
180 202 0
175 197 0
179 201 0
178 200 0
179 201 0
179 202 0
175 196 0
182 203 0
181 202 0
179 202 0
176 197 0
175 197 0
182 203 0
181 203 0
183 203 0
180 202 0
178 200 0
182 204 0
175 199 0
180 202 0
178 201 0
178 201 0
177 200 0
179 201 0
177 199 0
176 198 0
176 198 0
169 192 0
180 202 0
168 190 0
178 199 0
177 199 0
168 190 0
173 196 0
174 197 0
173 196 0
172 195 0
179 201 0
179 200 0
177 198 0
173 196 0
180 201 0
174 196 0
170 192 0
169 191 0
170 192 0
174 196 0
170 192 0
173 195 0
164 186 0
170 192 0
176 198 0
174 196 0
171 192 0
173 194 0
174 195 0
174 196 0
173 195 0
181 202 38
180 202 38
178 200 38
185 205 97
185 206 69
177 200 69
186 207 89
184 204 89
186 207 89
182 203 69
184 205 56
133 156 144
117 142 179
117 142 174
110 135 175
77 112 162
68 107 174
71 108 160
69 108 168
72 109 162
67 105 160
68 107 164
77 113 172
73 110 160
66 104 149
69 107 169
70 104 150
76 111 160
61 98 142
89 120 148
85 118 153
82 112 133
63 99 141
65 103 149
67 105 151
66 104 157
65 103 149
66 105 166
67 105 156
66 104 155
67 104 161
66 104 168
69 107 166
68 107 166
68 106 160
67 104 158
67 105 158
67 105 151
66 104 149
67 105 153
68 106 160
67 106 156
67 105 157
68 106 158
67 105 153
67 105 160
67 104 149
67 105 151
68 106 153
69 108 170
67 105 160
67 104 144
69 107 156
69 107 161
66 103 144
67 105 149
69 106 158
69 106 153
68 105 149
66 103 144
64 101 129
67 105 147
93 121 134
143 162 25
134 154 0
144 164 0
149 169 0
138 159 0
150 171 0
150 171 0
160 180 0
156 176 0
154 174 0
162 182 0
151 172 0
152 173 0
164 185 0
144 166 0
167 188 0
165 186 0
159 179 0
161 182 0
161 181 0
172 193 0
164 186 0
173 194 0
159 180 0
170 191 0
169 191 0
167 189 0
176 197 0
171 192 0
175 196 0
163 185 0
174 195 0
181 202 0
172 194 0
167 189 0
174 195 0
175 197 0
178 199 0
175 197 0
178 200 0
175 196 0
173 194 0
172 194 0
174 196 0
173 195 0
173 195 0
174 196 0
177 199 0
177 200 0
177 199 0
181 202 0
171 192 0
176 198 0
180 202 0
175 198 0
179 200 0
174 196 0
178 199 0
175 196 0
179 201 0
174 195 0
180 201 0
178 200 0
178 200 0
179 200 0
174 196 0
175 197 0
177 199 0
179 201 0
178 200 0
183 204 0
179 202 0
182 204 0
180 202 0
180 202 0
180 202 0
180 202 0
182 203 0
184 205 0
180 202 0
181 203 0
182 204 0
178 200 0
179 201 0
182 203 0
181 203 0
182 203 0
178 200 0
185 205 0
180 202 0
179 201 0
182 204 0
180 202 0
180 202 0
181 203 0
179 201 0
180 202 0
179 201 0
181 202 0
180 202 0
176 199 0
181 202 0
179 201 0
181 202 0
182 204 0
181 202 0
181 203 0
178 200 0
177 199 0
179 201 0
181 203 0
183 204 0
179 202 0
182 204 0
183 204 0
181 202 0
178 200 0
184 205 0
180 202 0
177 199 0
177 199 0
181 202 0
180 201 0
183 204 0
179 201 0
178 200 0
181 202 0
181 203 0
180 203 0
181 203 0
182 204 0
181 203 0
184 205 0
182 203 0
181 203 0
182 203 0
181 202 0
179 202 0
181 202 0
180 202 0
183 204 0
180 203 0
181 203 0
180 202 0
181 203 0
182 203 0
180 203 0
182 203 0
183 204 0
180 203 0
183 204 0
181 203 0
182 204 0
182 204 0
182 204 0
181 203 0
182 204 0
182 204 0
181 203 0
183 204 0
181 203 0
178 201 0
181 203 0
181 203 0
182 204 0
180 202 0
181 203 0
180 203 0
178 200 0
181 202 0
181 203 0
180 203 0
181 203 0
184 205 0
180 203 0
183 204 0
181 203 0
181 203 0
182 204 0
181 203 0
182 204 0
182 204 0
179 202 0
183 204 0
178 201 0
182 204 0
183 204 0
179 201 0
182 204 0
184 205 0
181 203 0
182 204 0
182 204 0
182 204 0
183 204 0
183 204 0
181 203 0
184 205 0
179 202 0
182 204 0
180 202 0
178 202 0
178 200 0
183 204 0
183 204 0
180 202 0
182 203 0
182 204 0
179 201 0
184 205 0
180 202 0
184 205 0
183 204 0
180 203 0
183 204 0
182 204 0
182 204 0
183 204 0
183 204 0
181 203 0
179 202 0
181 203 0
182 204 0
184 205 0
180 203 0
180 202 0
181 203 0
180 203 0
178 200 0
179 202 0
180 203 0
181 203 0
179 202 0
180 203 0
181 203 0
179 201 0
180 202 0
183 204 0
181 203 0
179 201 0
181 203 0
178 201 0
180 201 0
180 202 0
179 201 0
181 202 0
181 203 0
180 203 0
179 201 0
179 201 0
178 200 0
183 204 0
180 202 0
182 204 0
182 203 0
179 201 0
181 202 0
180 202 0
184 205 0
178 200 0
180 202 0
179 201 0
180 201 0
178 200 0
181 203 0
179 200 0
184 205 0
177 200 0
177 199 0
178 200 0
181 203 0
180 202 0
185 205 0
177 200 0
181 203 0
180 202 0
178 200 0
182 204 0
181 202 0
181 203 0
180 202 0
175 197 0
174 197 0
177 200 0
179 201 0
181 203 0
177 199 0
170 192 0
180 202 0
181 202 0
174 196 0
179 200 0
177 198 0
177 198 0
174 196 0
181 203 0
176 199 0
177 200 0
173 195 0
179 201 0
177 199 0
176 198 0
177 199 0
178 200 0
178 201 0
176 199 0
181 202 0
178 199 0
175 197 0
176 198 0
173 194 0
172 194 0
177 200 0
172 195 0
175 198 0
170 191 0
170 192 0
175 196 0
172 194 0
164 187 0
171 194 0
170 191 0
178 200 0
173 195 0
182 204 38
179 201 38
181 202 56
182 204 56
182 203 69
188 208 104
186 206 104
184 205 56
184 205 89
184 205 97
184 205 69
186 206 56
176 198 38
179 201 38
158 180 124
103 131 172
93 123 179
100 128 179
68 107 168
68 106 175
66 105 153
73 109 163
66 104 166
72 109 168
67 105 166
68 106 169
68 106 170
66 104 163
78 112 156
65 103 155
71 108 162
79 111 146
72 107 144
63 100 138
90 121 151
97 122 110
76 110 144
63 100 147
64 101 151
66 104 151
66 104 156
67 104 150
67 105 167
68 106 173
68 105 163
65 103 159
67 106 164
68 106 166
66 103 147
66 103 144
69 107 174
66 104 151
70 108 166
66 104 152
67 105 149
67 105 168
68 106 153
69 107 162
67 105 162
66 104 147
67 104 151
67 105 151
66 104 155
66 104 147
69 106 153
69 107 160
65 102 134
67 104 147
68 106 151
67 105 156
65 102 134
66 104 132
67 104 139
67 104 147
108 134 97
147 167 0
140 161 0
150 171 0
145 166 0
143 163 0
138 158 0
143 163 0
136 155 0
158 177 0
145 166 0
135 157 0
154 174 0
157 178 0
163 185 0
163 183 0
153 173 0
163 182 0
161 181 0
155 178 0
166 187 0
161 182 0
168 189 0
163 184 0
173 195 0
165 186 0
162 183 0
163 184 0
169 190 0
170 192 0
172 194 0
171 193 0
161 182 0
169 190 0
174 195 0
173 194 0
162 183 0
175 196 0
170 192 0
168 190 0
177 198 0
176 196 0
177 198 0
177 200 0
176 198 0
178 199 0
174 196 0
174 197 0
171 193 0
180 201 0
178 200 0
178 200 0
176 197 0
172 194 0
176 196 0
175 197 0
176 199 0
178 200 0
175 196 0
179 201 0
182 203 0
179 200 0
179 201 0
177 198 0
179 201 0
178 199 0
181 202 0
183 204 0
177 198 0
178 200 0
179 201 0
180 202 0
179 201 0
178 200 0
179 201 0
179 201 0
175 197 0
183 204 0
180 202 0
180 202 0
181 202 0
175 196 0
180 202 0
182 204 0
178 201 0
183 204 0
183 204 0
181 203 0
181 203 0
180 201 0
181 203 0
179 201 0
177 200 0
184 204 0
182 204 0
183 204 0
181 203 0
182 204 0
182 203 0
180 202 0
178 200 0
182 203 0
180 202 0
180 202 0
181 203 0
178 200 0
178 200 0
180 202 0
181 203 0
181 203 0
183 204 0
182 204 0
181 203 0
182 204 0
182 204 0
181 203 0
181 203 0
181 202 0
181 203 0
180 202 0
181 202 0
178 201 0
182 204 0
185 205 0
181 203 0
181 203 0
183 204 0
175 198 0
178 200 0
180 202 0
183 204 0
181 203 0
182 204 0
181 203 0
182 204 0
181 202 0
181 202 0
182 204 0
182 204 0
183 204 0
181 203 0
182 204 0
181 203 0
181 202 0
183 204 0
181 203 0
180 202 0
181 203 0
178 202 0
182 204 0
181 203 0
181 203 0
183 204 0
180 202 0
184 205 0
183 204 0
183 203 0
184 205 0
182 204 0
181 203 0
182 204 0
184 204 0
181 203 0
180 202 0
182 203 0
181 203 0
182 204 0
184 205 0
180 202 0
183 204 0
182 204 0
180 202 0
182 204 0
182 204 0
180 203 0
183 204 0
181 203 0
182 203 0
180 202 0
182 204 0
184 205 0
182 204 0
181 203 0
185 205 0
181 203 0
183 204 0
181 203 0
182 204 0
183 204 0
181 203 0
179 201 0
183 204 0
181 203 0
182 204 0
180 202 0
181 203 0
179 201 0
180 203 0
180 202 0
181 203 0
183 204 0
180 203 0
181 203 0
181 203 0
181 203 0
180 203 0
181 203 0
181 203 0
180 202 0
180 202 0
181 203 0
180 202 0
181 203 0
181 203 0
180 203 0
179 201 0
179 201 0
181 203 0
181 203 0
182 203 0
182 204 0
183 204 0
182 204 0
183 204 0
183 204 0
182 204 0
179 202 0
178 201 0
179 201 0
181 203 0
182 203 0
181 202 0
180 203 0
180 202 0
180 202 0
182 203 0
179 201 0
179 201 0
181 203 0
179 201 0
182 203 0
182 203 0
180 202 0
182 203 0
182 204 0
178 200 0
180 202 0
181 203 0
180 203 0
180 201 0
177 200 0
183 204 0
180 203 0
182 204 0
177 200 0
182 203 0
179 200 0
177 200 0
179 202 0
181 203 0
178 200 0
176 199 0
182 204 0
180 202 0
181 203 0
181 203 0
181 203 0
181 203 0
177 199 0
178 200 0
178 198 0
179 201 0
180 201 0
179 202 0
177 200 0
178 201 0
179 201 0
182 203 0
180 202 0
176 198 0
170 193 0
177 199 0
180 202 0
176 198 0
179 202 0
178 200 0
174 196 0
178 200 0
180 201 0
183 204 0
181 202 0
173 194 0
178 200 0
177 199 0
177 200 0
177 198 0
173 195 0
178 200 0
176 198 0
177 199 0
179 201 0
181 203 0
175 196 0
176 199 0
173 193 0
177 199 0
175 196 0
171 192 0
175 197 0
178 200 0
173 195 0
170 191 0
179 201 0
173 195 0
167 189 0
174 196 0
168 190 0
178 201 0
175 197 0
175 197 0
167 189 0
176 198 0
179 200 0
174 196 0
182 204 0
178 199 89
182 204 69
184 204 56
188 207 111
184 205 69
180 203 69
183 203 97
183 204 56
184 205 38
187 208 111
184 205 69
190 209 111
183 205 69
186 207 80
186 207 80
186 207 97
118 144 156
82 116 179
89 121 184
94 124 172
77 113 177
82 116 179
68 107 166
68 107 174
67 106 170
69 108 182
71 109 162
68 106 168
65 103 167
69 108 174
68 106 164
72 107 157
68 106 166
66 104 159
72 105 144
68 104 144
80 113 146
92 122 132
81 111 133
67 104 151
64 101 147
68 106 160
67 104 156
67 104 157
68 106 158
64 102 147
67 105 156
67 105 162
68 106 164
66 103 142
67 106 172
67 105 156
68 106 166
67 105 158
69 107 162
67 104 153
68 106 163
67 105 147
67 105 157
68 105 158
67 105 144
65 103 144
67 105 147
68 106 156
68 106 160
64 102 144
64 101 137
67 105 151
66 103 144
66 103 137
65 102 142
66 103 142
67 104 134
78 110 111
118 139 56
138 158 0
132 153 0
135 154 0
141 161 0
149 169 0
136 157 0
140 161 0
154 173 0
156 176 0
164 184 0
155 177 0
156 175 0
159 179 0
162 184 0
164 186 0
155 175 0
165 186 0
162 182 0
151 172 0
160 183 0
170 192 0
169 189 0
170 192 0
162 183 0
155 175 0
177 199 0
174 194 0
171 192 0
168 189 0
169 191 0
170 192 0
169 192 0
169 189 0
174 195 0
169 190 0
174 196 0
176 197 0
175 196 0
172 195 0
170 191 0
176 198 0
175 197 0
171 193 0
170 192 0
174 196 0
174 194 0
178 199 0
173 194 0
180 202 0
177 199 0
178 199 0
178 200 0
177 198 0
177 199 0
180 201 0
180 202 0
176 198 0
181 202 0
179 200 0
175 197 0
179 201 0
176 199 0
178 201 0
179 201 0
180 202 0
183 204 0
177 199 0
178 200 0
176 198 0
179 200 0
178 201 0
180 202 0
174 197 0
180 200 0
183 204 0
181 202 0
179 201 0
180 201 0
180 201 0
182 204 0
180 202 0
182 203 0
177 200 0
178 199 0
178 200 0
179 201 0
182 204 0
180 201 0
181 202 0
179 201 0
179 202 0
182 203 0
182 204 0
181 203 0
178 200 0
183 204 0
177 199 0
181 202 0
183 203 0
180 201 0
182 203 0
181 203 0
179 202 0
179 200 0
184 205 0
183 203 0
181 202 0
180 202 0
181 203 0
179 201 0
181 202 0
181 203 0
181 203 0
179 201 0
181 203 0
182 204 0
181 203 0
182 204 0
180 203 0
183 204 0
183 204 0
181 203 0
180 202 0
180 202 0
180 201 0
181 203 0
181 203 0
181 202 0
182 204 0
181 203 0
183 204 0
181 203 0
181 202 0
182 204 0
178 201 0
180 203 0
182 203 0
181 203 0
180 202 0
182 204 0
180 203 0
182 204 0
181 203 0
180 202 0
183 204 0
182 203 0
180 202 0
180 203 0
182 204 0
179 201 0
183 204 0
179 201 0
182 204 0
182 203 0
181 203 0
182 204 0
181 203 0
180 202 0
181 202 0
179 202 0
181 203 0
184 205 0
184 205 0
182 204 0
179 202 0
182 203 0
182 204 0
181 202 0
180 202 0
182 203 0
180 202 0
180 202 0
182 204 0
180 203 0
181 203 0
181 202 0
184 205 0
183 204 0
181 203 0
182 204 0
182 204 0
182 204 0
183 204 0
182 204 0
181 203 0
179 202 0
182 204 0
181 203 0
182 204 0
183 204 0
181 203 0
182 204 0
180 203 0
182 203 0
180 203 0
181 203 0
181 203 0
182 204 0
182 203 0
181 203 0
181 203 0
183 204 0
181 203 0
182 204 0
182 204 0
180 203 0
181 203 0
181 202 0
178 200 0
181 202 0
183 204 0
181 202 0
181 203 0
180 203 0
181 203 0
181 203 0
182 204 0
182 203 0
179 201 0
180 203 0
180 201 0
183 204 0
180 203 0
184 205 0
183 204 0
181 203 0
182 204 0
179 200 0
181 202 0
178 201 0
180 202 0
181 203 0
182 203 0
183 204 0
181 203 0
180 202 0
180 202 0
182 203 0
181 202 0
180 203 0
183 204 0
180 202 0
182 204 0
175 198 0
179 202 0
178 201 0
180 201 0
179 201 0
181 203 0
177 199 0
181 203 0
181 203 0
182 203 0
179 201 0
181 203 0
180 201 0
181 203 0
178 200 0
180 202 0
181 203 0
180 203 0
179 201 0
178 200 0
180 202 0
176 198 0
181 202 0
176 198 0
180 201 0
179 201 0
177 199 0
180 201 0
176 199 0
184 205 0
181 202 0
177 200 0
181 203 0
180 202 0
175 198 0
181 202 0
179 200 0
181 202 0
178 200 0
178 200 0
178 199 0
178 200 0
174 197 0
180 202 0
177 198 0
179 201 0
181 202 0
180 202 0
180 202 0
174 196 0
180 201 0
176 197 0
180 202 0
179 201 0
181 203 0
178 200 0
179 200 0
176 198 0
171 195 0
177 199 0
179 201 0
177 199 0
173 195 0
179 200 0
173 194 0
178 200 0
172 195 0
177 199 0
173 194 0
178 199 0
177 200 0
175 196 0
175 196 0
172 193 0
179 200 0
177 198 0
179 200 0
181 202 0
182 203 38
178 200 0
182 204 56
180 202 56
184 205 69
187 208 104
183 204 80
182 204 56
184 206 69
183 205 56
182 203 38
181 203 38
179 201 38
181 203 56
183 203 56
186 206 111
180 201 69
182 202 69
173 194 80
160 182 89
123 147 134
99 128 144
108 134 158
86 118 166
83 116 171
78 113 165
89 121 183
94 124 181
69 108 181
69 108 174
68 107 171
69 107 162
69 108 172
67 106 166
68 106 160
67 105 162
69 108 177
66 103 155
72 107 150
72 108 156
75 107 138
72 106 121
78 110 122
103 129 121
76 110 138
65 101 151
66 104 160
66 103 142
64 100 147
68 105 152
65 102 139
66 103 162
67 104 149
68 106 156
64 102 134
67 105 160
67 104 153
68 106 159
67 105 151
66 104 142
70 109 174
67 105 158
66 103 147
68 105 144
66 104 152
69 107 160
67 105 147
66 104 146
67 105 153
66 103 132
65 102 126
64 102 132
66 103 144
68 106 153
64 101 129
67 104 134
108 133 104
160 181 25
131 151 0
137 157 0
136 155 0
144 164 0
127 149 0
145 166 0
150 170 0
149 169 0
153 173 0
160 180 0
157 177 0
161 181 0
152 173 0
158 180 0
165 185 0
161 182 0
166 186 0
157 179 0
155 177 0
162 183 0
150 171 0
161 182 0
176 199 0
160 181 0
175 195 0
166 187 0
171 191 0
165 187 0
169 190 0
174 194 0
174 196 0
168 189 0
176 197 0
173 196 0
175 196 0
165 186 0
169 190 0
174 195 0
174 195 0
168 190 0
161 183 0
175 198 0
175 197 0
175 196 0
174 195 0
181 202 0
182 204 0
173 194 0
174 196 0
181 202 0
176 198 0
175 197 0
177 199 0
177 199 0
174 195 0
182 203 0
179 201 0
177 198 0
178 199 0
176 197 0
176 198 0
178 200 0
176 198 0
182 203 0
178 201 0
179 201 0
175 197 0
179 201 0
177 198 0
177 199 0
179 200 0
181 202 0
180 201 0
182 204 0
183 204 0
182 204 0
179 201 0
178 200 0
178 200 0
182 203 0
179 200 0
179 201 0
179 200 0
181 203 0
179 201 0
177 199 0
180 202 0
178 200 0
183 203 0
179 202 0
178 200 0
179 200 0
177 199 0
183 204 0
177 200 0
177 199 0
181 203 0
177 200 0
179 201 0
181 202 0
180 202 0
179 201 0
179 201 0
182 204 0
182 204 0
182 203 0
180 203 0
182 203 0
179 201 0
180 201 0
180 202 0
180 203 0
181 203 0
182 203 0
181 202 0
180 201 0
181 203 0
183 204 0
182 204 0
182 204 0
183 203 0
180 202 0
182 203 0
179 200 0
183 204 0
182 203 0
180 202 0
181 203 0
178 201 0
181 203 0
184 205 0
183 204 0
180 202 0
182 203 0
180 201 0
182 204 0
181 202 0
180 203 0
181 203 0
182 204 0
180 202 0
180 203 0
180 203 0
181 202 0
181 203 0
183 203 0
182 204 0
181 203 0
181 203 0
184 205 0
179 201 0
181 203 0
182 204 0
182 204 0
182 204 0
177 199 0
181 203 0
183 204 0
180 203 0
183 204 0
184 205 0
182 203 0
180 203 0
180 203 0
183 204 0
180 203 0
182 204 0
183 204 0
182 204 0
182 203 0
182 203 0
179 202 0
185 205 0
183 204 0
182 204 0
182 204 0
181 203 0
181 203 0
183 204 0
181 203 0
180 203 0
182 203 0
181 203 0
182 203 0
182 204 0
179 202 0
182 204 0
184 205 0
184 205 0
183 204 0
183 204 0
182 204 0
179 201 0
181 203 0
182 204 0
184 205 0
183 204 0
184 205 0
181 203 0
182 204 0
182 204 0
182 204 0
181 202 0
181 202 0
181 203 0
181 203 0
182 204 0
181 203 0
181 203 0
179 202 0
181 203 0
182 204 0
180 202 0
181 203 0
181 202 0
181 202 0
181 203 0
180 202 0
183 204 0
182 204 0
182 204 0
181 202 0
180 202 0
183 204 0
180 202 0
180 202 0
179 201 0
181 202 0
178 200 0
182 204 0
182 204 0
182 204 0
182 204 0
180 201 0
180 202 0
183 204 0
183 204 0
182 203 0
179 201 0
179 202 0
181 203 0
178 200 0
182 203 0
182 204 0
181 203 0
180 203 0
179 201 0
181 202 0
176 199 0
181 203 0
180 203 0
182 203 0
182 203 0
180 203 0
179 200 0
181 203 0
181 203 0
179 201 0
180 202 0
179 201 0
180 202 0
181 203 0
181 203 0
176 198 0
178 200 0
182 204 0
181 203 0
176 199 0
180 203 0
180 202 0
178 200 0
181 202 0
180 201 0
183 204 0
178 200 0
181 202 0
180 202 0
182 204 0
177 199 0
178 201 0
180 202 0
179 201 0
178 200 0
180 201 0
180 203 0
181 203 0
179 201 0
177 199 0
173 194 0
174 196 0
179 201 0
175 197 0
179 201 0
172 194 0
176 200 0
178 200 0
176 199 0
178 200 0
179 201 0
173 194 0
179 200 0
182 203 0
175 196 0
173 195 0
174 195 0
175 196 0
179 200 0
177 199 0
168 192 0
175 197 0
174 195 0
176 197 0
172 193 0
174 196 0
175 197 0
177 199 0
162 184 0
172 194 0
179 201 0
181 203 0
177 201 0
184 205 69
184 205 80
182 204 69
181 202 56
188 208 89
183 205 56
183 205 69
182 204 69
181 203 69
182 204 80
185 206 97
188 208 97
174 196 89
177 196 97
180 200 89
178 199 69
173 194 89
170 191 69
174 195 80
178 198 69
177 196 89
157 177 111
115 140 132
115 140 130
122 146 114
110 136 144
100 128 144
114 141 138
100 129 156
87 118 153
89 121 173
68 107 177
68 105 162
67 106 177
68 107 173
69 107 172
65 103 160
66 104 161
66 104 169
66 104 163
79 112 138
65 102 148
78 114 172
62 99 129
68 105 143
115 139 104
91 119 126
67 105 155
65 103 134
65 102 143
67 105 147
65 102 136
65 103 155
64 101 146
64 101 122
68 106 156
67 104 144
65 102 147
66 103 147
67 104 144
66 103 142
66 104 151
64 101 124
64 101 132
67 105 162
65 103 151
65 102 137
67 105 149
67 104 147
67 104 149
67 105 149
67 103 134
66 103 147
66 103 124
65 102 121
72 105 111
114 134 38
130 149 0
134 154 0
137 156 0
146 166 0
127 147 0
154 175 0
144 161 0
146 166 0
130 151 0
141 162 0
163 183 0
155 175 0
148 168 0
158 179 0
162 183 0
163 183 0
147 168 0
165 185 0
166 186 0
163 186 0
164 185 0
170 191 0
173 194 0
170 191 0
175 195 0
153 174 0
164 186 0
176 198 0
163 184 0
171 192 0
174 195 0
172 192 0
173 194 0
171 193 0
156 178 0
168 189 0
165 185 0
169 190 0
171 194 0
173 194 0
173 194 0
175 197 0
174 196 0
173 195 0
177 199 0
168 190 0
176 197 0
181 201 0
173 194 0
178 198 0
174 196 0
177 199 0
179 201 0
177 199 0
169 192 0
177 199 0
181 202 0
176 197 0
176 198 0
181 202 0
177 199 0
177 199 0
180 201 0
177 199 0
178 200 0
182 203 0
179 201 0
178 200 0
175 198 0
177 199 0
179 201 0
177 199 0
183 204 0
180 202 0
177 200 0
177 199 0
175 198 0
181 202 0
180 201 0
178 199 0
182 203 0
177 198 0
178 199 0
182 203 0
182 203 0
183 204 0
178 199 0
179 201 0
178 201 0
180 201 0
180 203 0
179 202 0
177 199 0
180 202 0
179 202 0
175 197 0
178 200 0
179 200 0
178 199 0
180 201 0
181 203 0
178 200 0
179 201 0
178 201 0
181 202 0
182 204 0
180 201 0
182 204 0
181 203 0
181 203 0
180 201 0
178 200 0
180 202 0
182 203 0
183 204 0
179 202 0
182 204 0
179 201 0
180 203 0
180 202 0
181 203 0
181 203 0
178 201 0
181 202 0
182 203 0
181 203 0
180 202 0
183 204 0
182 204 0
180 201 0
182 204 0
181 203 0
181 202 0
180 203 0
181 203 0
179 201 0
179 200 0
182 202 0
183 204 0
182 204 0
181 202 0
181 202 0
180 202 0
181 203 0
177 199 0
179 202 0
182 203 0
183 204 0
181 202 0
181 203 0
181 203 0
183 204 0
180 202 0
183 204 0
183 204 0
181 203 0
179 201 0
181 203 0
180 203 0
181 203 0
181 203 0
180 203 0
179 201 0
180 203 0
180 202 0
182 204 0
184 205 0
181 203 0
183 204 0
179 202 0
181 203 0
181 203 0
183 204 0
177 199 0
180 203 0
182 204 0
183 204 0
182 204 0
180 203 0
182 204 0
183 204 0
184 205 0
182 204 0
181 203 0
182 203 0
184 205 0
182 204 0
181 203 0
182 204 0
181 203 0
183 204 0
182 204 0
182 204 0
183 204 0
182 203 0
184 205 0
179 202 0
181 203 0
181 202 0
181 203 0
183 204 0
179 201 0
180 203 0
178 200 0
182 204 0
183 204 0
182 203 0
181 203 0
183 204 0
183 204 0
184 205 0
180 202 0
181 203 0
180 202 0
181 202 0
183 204 0
181 203 0
177 200 0
181 203 0
182 204 0
179 202 0
183 204 0
180 203 0
181 203 0
182 203 0
177 200 0
181 203 0
181 203 0
181 203 0
178 199 0
182 204 0
179 202 0
181 202 0
181 203 0
178 200 0
182 204 0
181 203 0
180 202 0
179 202 0
183 204 0
180 202 0
182 203 0
181 203 0
177 199 0
181 202 0
182 203 0
179 201 0
178 201 0
178 200 0
179 200 0
179 202 0
182 204 0
182 204 0
182 204 0
181 202 0
181 203 0
180 203 0
181 203 0
181 203 0
181 203 0
180 203 0
182 204 0
180 201 0
179 200 0
182 203 0
181 203 0
179 201 0
178 200 0
183 203 0
180 202 0
178 200 0
180 202 0
177 198 0
178 200 0
179 201 0
177 200 0
181 202 0
179 202 0
181 203 0
183 204 0
182 204 0
178 200 0
181 203 0
175 197 0
183 204 0
181 203 0
176 199 0
178 200 0
183 204 0
176 199 0
175 198 0
179 200 0
182 204 0
177 199 0
173 195 0
174 197 0
175 197 0
178 199 0
178 200 0
179 201 0
179 201 0
175 197 0
171 193 0
172 194 0
172 194 0
180 202 0
175 198 0
174 195 0
180 202 0
170 193 0
173 195 0
173 194 0
170 192 0
171 194 0
169 191 0
176 197 0
178 200 0
175 197 0
180 202 0
172 194 0
181 201 0
177 199 0
182 203 56
182 204 38
181 203 56
183 205 56
185 206 69
185 206 69
182 204 0
181 203 56
178 199 80
175 196 97
185 206 89
174 196 56
183 203 80
176 198 56
173 194 69
179 200 89
176 196 97
168 189 69
179 199 104
171 192 111
167 187 69
178 198 89
168 189 69
165 185 104
145 166 139
108 134 118
99 128 139
113 140 142
127 151 130
116 141 173
115 141 151
95 124 139
102 129 167
108 135 183
68 107 175
68 107 171
73 110 170
68 107 179
66 104 152
67 105 157
68 106 160
67 105 160
65 103 159
68 106 162
83 115 143
80 113 146
74 108 143
122 145 101
88 116 132
63 99 132
65 102 144
66 103 136
65 102 151
67 104 151
67 105 153
66 104 147
64 101 149
66 103 137
68 105 147
66 103 149
67 105 144
65 103 141
67 105 151
66 104 149
66 104 147
64 101 129
66 104 147
67 104 137
65 102 129
66 103 137
67 104 142
67 105 142
64 100 126
65 102 129
71 103 101
125 147 75
132 152 25
148 167 0
138 158 0
145 165 0
138 158 0
142 162 0
149 170 0
137 157 0
149 170 0
163 183 0
152 173 0
159 180 0
156 176 0
151 173 0
160 180 0
155 175 0
163 185 0
146 167 0
159 180 0
165 185 0
167 188 0
166 186 0
155 177 0
151 173 0
169 190 0
169 190 0
163 184 0
171 190 0
171 193 0
165 187 0
168 191 0
172 193 0
172 193 0
167 187 0
171 193 0
169 191 0
165 186 0
163 186 0
171 193 0
166 187 0
171 193 0
166 187 0
175 197 0
177 197 0
175 196 0
180 201 0
169 191 0
175 197 0
175 197 0
169 191 0
172 194 0
169 191 0
179 201 0
174 194 0
175 196 0
178 200 0
179 201 0
177 199 0
172 194 0
175 197 0
178 199 0
178 200 0
177 197 0
178 200 0
172 195 0
170 193 0
178 200 0
172 194 0
181 202 0
180 202 0
176 198 0
181 202 0
180 202 0
179 202 0
176 198 0
179 201 0
179 201 0
179 201 0
178 199 0
177 199 0
181 202 0
175 198 0
182 204 0
177 199 0
181 203 0
182 204 0
181 202 0
180 202 0
174 196 0
178 200 0
179 200 0
182 204 0
182 203 0
181 202 0
179 201 0
181 202 0
181 203 0
181 202 0
181 202 0
180 202 0
179 201 0
170 191 0
180 202 0
179 202 0
182 204 0
180 202 0
181 203 0
180 202 0
182 204 0
180 202 0
181 203 0
180 202 0
182 203 0
181 202 0
178 200 0
179 201 0
181 202 0
183 204 0
178 201 0
176 198 0
184 205 0
181 203 0
183 204 0
181 202 0
182 203 0
183 204 0
181 203 0
181 203 0
182 204 0
180 202 0
182 204 0
182 203 0
180 202 0
182 204 0
181 203 0
181 203 0
182 203 0
182 203 0
179 201 0
182 204 0
183 204 0
182 204 0
181 202 0
183 204 0
183 204 0
182 204 0
182 204 0
180 202 0
179 202 0
180 203 0
178 201 0
179 202 0
183 204 0
183 204 0
182 204 0
183 204 0
182 204 0
180 202 0
183 204 0
182 204 0
179 201 0
179 201 0
181 203 0
180 202 0
181 203 0
181 203 0
181 203 0
182 204 0
182 204 0
181 203 0
182 204 0
181 203 0
182 204 0
181 203 0
183 204 0
182 203 0
180 203 0
182 204 0
180 203 0
184 205 0
179 202 0
181 202 0
182 204 0
181 203 0
185 206 0
180 203 0
182 204 0
182 204 0
180 202 0
179 201 0
180 202 0
181 203 0
180 203 0
179 202 0
182 204 0
183 204 0
181 203 0
180 202 0
182 204 0
182 204 0
182 204 0
183 204 0
182 204 0
181 203 0
181 203 0
182 204 0
183 203 0
181 202 0
182 204 0
180 203 0
181 203 0
180 202 0
183 204 0
182 203 0
182 204 0
181 203 0
184 205 0
181 203 0
181 203 0
183 204 0
181 203 0
180 202 0
181 203 0
181 202 0
179 201 0
181 203 0
181 202 0
181 203 0
182 204 0
181 202 0
182 204 0
179 201 0
179 202 0
183 204 0
177 200 0
178 200 0
178 200 0
182 203 0
177 199 0
180 202 0
183 204 0
182 204 0
180 201 0
181 203 0
182 204 0
180 202 0
181 203 0
179 201 0
184 205 0
181 202 0
180 201 0
181 203 0
181 203 0
179 202 0
182 204 0
179 201 0
182 204 0
180 203 0
178 201 0
178 200 0
182 204 0
183 204 0
180 202 0
182 204 0
180 203 0
174 197 0
182 203 0
179 201 0
180 202 0
178 201 0
180 202 0
181 203 0
180 202 0
181 203 0
180 202 0
182 203 0
181 202 0
175 197 0
183 204 0
176 198 0
178 198 0
181 203 0
175 197 0
182 203 0
177 198 0
177 199 0
181 202 0
180 202 0
175 197 0
181 203 0
175 198 0
179 200 0
178 200 0
177 199 0
181 203 0
181 203 0
176 198 0
178 199 0
178 199 0
176 198 0
178 201 0
178 199 0
177 200 0
180 202 0
177 199 0
176 198 0
175 196 0
171 194 0
176 199 0
173 195 0
178 199 0
176 196 0
175 195 0
174 196 0
175 197 0
179 201 0
173 194 0
178 199 0
177 199 0
178 200 0
182 203 0
182 203 0
179 201 0
183 204 38
183 205 80
184 205 80
184 206 80
186 207 80
185 206 56
182 204 80
185 206 69
182 203 89
180 201 97
182 203 97
180 201 104
185 205 97
173 194 69
181 203 89
175 196 97
170 192 69
179 199 56
172 194 97
173 194 56
164 186 69
161 183 0
171 191 111
170 190 104
158 179 89
152 172 56
140 162 89
114 140 149
102 130 142
102 129 134
106 134 160
94 124 156
101 128 157
106 132 159
118 143 157
86 118 161
92 123 158
69 107 170
68 106 164
68 107 174
66 105 170
68 106 164
65 102 162
66 104 162
67 105 149
67 105 157
64 102 129
77 110 142
78 108 125
111 136 97
91 120 111
62 99 136
65 102 138
63 99 132
64 101 142
65 102 142
66 103 144
66 103 147
66 103 137
64 101 132
64 102 142
64 101 126
66 103 134
65 102 144
66 103 134
66 104 149
67 104 139
65 102 134
65 103 139
67 104 144
64 100 124
66 102 134
68 102 121
91 120 121
110 132 63
125 142 0
131 151 0
130 149 0
132 151 0
140 160 0
143 163 0
136 158 0
133 152 0
148 167 0
143 164 0
136 157 0
146 165 0
143 164 0
143 164 0
159 181 0
153 174 0
156 176 0
144 164 0
154 174 0
165 187 0
157 180 0
161 183 0
162 183 0
161 183 0
158 180 0
159 181 0
165 187 0
162 183 0
165 187 0
162 182 0
166 188 0
166 188 0
166 188 0
169 192 0
173 195 0
166 188 0
172 194 0
172 193 0
172 194 0
168 189 0
174 195 0
174 195 0
168 190 0
176 197 0
175 196 0
168 190 0
170 192 0
169 189 0
171 192 0
172 194 0
172 193 0
175 196 0
172 194 0
177 199 0
173 195 0
175 197 0
177 198 0
171 194 0
177 199 0
178 200 0
178 199 0
178 199 0
177 198 0
173 196 0
180 200 0
180 202 0
182 203 0
177 199 0
174 197 0
175 197 0
181 203 0
173 195 0
180 202 0
180 201 0
179 200 0
184 204 0
180 201 0
179 200 0
178 200 0
174 196 0
180 202 0
179 200 0
178 200 0
179 201 0
177 199 0
180 202 0
179 202 0
178 199 0
176 198 0
179 201 0
179 201 0
178 200 0
180 202 0
178 200 0
182 203 0
183 204 0
179 201 0
179 201 0
179 202 0
181 202 0
182 203 0
175 196 0
183 204 0
181 203 0
181 203 0
181 203 0
182 204 0
183 204 0
182 204 0
181 203 0
178 200 0
181 203 0
180 202 0
178 201 0
183 204 0
183 204 0
182 203 0
183 204 0
180 202 0
179 201 0
181 203 0
180 203 0
182 203 0
179 201 0
180 202 0
178 201 0
180 202 0
180 201 0
182 203 0
182 204 0
181 203 0
180 203 0
183 203 0
180 201 0
180 202 0
181 203 0
181 203 0
182 204 0
183 204 0
180 201 0
181 203 0
181 203 0
181 202 0
182 204 0
182 204 0
179 202 0
181 203 0
182 204 0
183 204 0
182 204 0
181 203 0
180 201 0
179 201 0
183 204 0
181 203 0
179 201 0
183 204 0
180 202 0
181 203 0
182 204 0
181 203 0
183 204 0
180 201 0
183 204 0
179 201 0
182 203 0
181 203 0
179 201 0
183 204 0
182 204 0
179 201 0
182 204 0
181 203 0
176 198 0
183 204 0
183 204 0
182 204 0
183 204 0
181 203 0
183 204 0
182 203 0
181 203 0
182 204 0
181 203 0
181 203 0
180 202 0
181 203 0
184 205 0
182 204 0
184 205 0
180 202 0
182 204 0
182 204 0
181 202 0
182 203 0
181 203 0
180 202 0
181 203 0
185 205 0
183 204 0
180 202 0
182 204 0
183 203 0
182 204 0
181 203 0
177 200 0
181 203 0
179 200 0
183 204 0
184 205 0
181 203 0
182 203 0
181 203 0
181 203 0
179 201 0
181 202 0
180 203 0
178 200 0
181 203 0
182 203 0
179 201 0
179 202 0
182 204 0
180 203 0
179 202 0
181 202 0
181 203 0
181 203 0
183 204 0
181 203 0
183 204 0
180 202 0
179 201 0
180 202 0
182 204 0
180 202 0
182 204 0
182 203 0
179 202 0
182 203 0
182 203 0
180 203 0
182 204 0
180 202 0
180 202 0
181 203 0
181 203 0
179 201 0
181 203 0
181 203 0
180 202 0
178 200 0
182 204 0
178 200 0
178 201 0
182 204 0
181 203 0
181 202 0
179 201 0
179 202 0
181 203 0
182 204 0
180 202 0
181 202 0
181 203 0
181 203 0
180 202 0
181 203 0
182 204 0
180 203 0
181 202 0
182 203 0
180 202 0
178 201 0
182 204 0
180 202 0
177 201 0
180 202 0
179 202 0
177 199 0
178 200 0
180 201 0
176 199 0
180 201 0
176 199 0
179 201 0
175 196 0
180 203 0
177 200 0
181 203 0
179 202 0
181 203 0
174 195 0
181 202 0
178 200 0
174 196 0
176 198 0
179 201 0
177 198 0
172 194 0
170 192 0
175 198 0
173 195 0
176 198 0
179 200 0
177 198 0
172 194 0
177 199 0
178 200 0
172 194 0
180 201 0
176 198 0
178 200 0
174 196 0
175 197 0
173 195 0
168 190 0
178 200 0
176 199 0
174 196 0
177 199 0
181 203 0
177 200 0
173 196 0
179 202 0
185 206 69
183 204 0
188 208 89
182 204 38
183 204 80
186 206 104
178 199 80
184 204 69
184 204 104
180 202 69
181 202 80
171 193 80
167 188 69
174 196 89
173 195 69
178 199 80
166 188 97
177 199 97
169 189 89
172 193 97
167 188 89
163 184 80
164 185 80
157 178 97
164 185 69
167 187 97
166 186 56
162 181 69
113 137 97
93 122 132
106 133 151
99 126 126
105 131 155
99 127 146
114 139 152
113 139 153
118 142 149
78 111 153
82 115 164
68 106 172
68 106 175
68 106 171
68 106 174
68 107 170
68 107 166
68 106 158
65 103 148
65 102 132
65 102 137
74 107 134
114 139 89
89 119 139
64 100 132
65 101 139
63 99 138
63 99 121
62 98 118
63 98 128
63 100 124
66 103 137
66 103 139
66 102 134
63 100 132
64 101 118
65 101 114
63 99 124
62 98 124
62 98 111
63 99 124
62 98 108
73 106 118
104 127 80
122 141 56
118 136 0
124 143 0
146 165 0
123 144 0
137 159 0
137 158 0
153 173 0
143 164 0
141 162 0
142 163 0
149 170 0
143 163 0
135 156 0
154 174 0
143 164 0
145 167 0
157 179 0
160 181 0
158 178 0
168 188 0
158 179 0
164 185 0
148 169 0
171 192 0
173 194 0
164 186 0
167 188 0
162 183 0
161 183 0
160 181 0
172 194 0
158 179 0
172 193 0
168 189 0
169 190 0
172 194 0
163 185 0
166 188 0
168 189 0
166 190 0
171 193 0
174 196 0
173 195 0
171 193 0
174 196 0
170 192 0
173 196 0
178 199 0
177 197 0
178 199 0
176 197 0
172 194 0
181 202 0
181 202 0
178 200 0
180 202 0
172 194 0
176 199 0
168 190 0
177 199 0
178 200 0
175 196 0
176 198 0
179 202 0
175 197 0
180 201 0
178 200 0
176 196 0
182 203 0
174 196 0
180 202 0
179 201 0
180 201 0
175 197 0
180 201 0
182 203 0
183 204 0
178 200 0
180 202 0
181 203 0
175 197 0
179 200 0
180 202 0
181 202 0
183 204 0
181 203 0
179 201 0
177 198 0
179 201 0
174 196 0
179 202 0
181 203 0
179 201 0
174 197 0
180 202 0
181 202 0
181 202 0
180 202 0
179 201 0
177 199 0
181 203 0
180 202 0
182 203 0
180 202 0
181 203 0
180 202 0
182 204 0
183 204 0
182 204 0
180 202 0
183 203 0
179 201 0
181 203 0
181 202 0
183 204 0
182 204 0
182 204 0
179 201 0
180 202 0
179 201 0
180 203 0
180 202 0
179 202 0
179 201 0
183 204 0
182 204 0
181 202 0
181 203 0
180 203 0
184 205 0
180 203 0
180 202 0
177 200 0
181 202 0
183 204 0
177 200 0
178 201 0
178 200 0
183 204 0
181 203 0
180 203 0
179 201 0
180 201 0
184 204 0
181 203 0
181 203 0
183 204 0
183 204 0
182 203 0
181 203 0
182 204 0
181 203 0
182 204 0
182 204 0
181 203 0
181 203 0
183 203 0
181 203 0
182 203 0
179 201 0
181 203 0
180 202 0
182 204 0
182 204 0
181 202 0
180 203 0
183 204 0
184 205 0
181 203 0
181 203 0
181 202 0
181 203 0
182 204 0
183 204 0
182 204 0
181 203 0
180 202 0
181 203 0
182 204 0
182 204 0
182 204 0
182 204 0
182 204 0
183 204 0
180 203 0
182 204 0
183 204 0
179 202 0
181 203 0
180 203 0
182 203 0
182 204 0
183 204 0
182 204 0
182 203 0
183 204 0
182 204 0
183 204 0
181 203 0
180 201 0
182 204 0
180 203 0
181 203 0
183 204 0
180 202 0
179 201 0
182 204 0
183 204 0
178 201 0
181 203 0
181 203 0
182 204 0
180 202 0
180 202 0
181 203 0
182 204 0
180 202 0
184 205 0
182 204 0
182 204 0
180 202 0
178 201 0
182 204 0
183 204 0
182 203 0
178 200 0
182 204 0
178 201 0
183 204 0
178 200 0
181 203 0
180 202 0
183 204 0
181 203 0
181 203 0
181 202 0
181 203 0
180 203 0
180 202 0
183 204 0
181 202 0
177 200 0
181 203 0
180 202 0
180 202 0
182 204 0
179 201 0
181 203 0
182 204 0
179 201 0
183 204 0
181 203 0
180 203 0
179 202 0
179 202 0
182 204 0
181 203 0
177 200 0
179 201 0
181 202 0
181 203 0
180 202 0
181 203 0
180 202 0
179 202 0
178 200 0
179 201 0
180 203 0
179 201 0
180 202 0
181 202 0
180 202 0
182 203 0
178 200 0
180 202 0
181 202 0
179 201 0
177 199 0
179 202 0
177 199 0
183 204 0
181 203 0
180 201 0
181 202 0
179 201 0
179 201 0
179 201 0
182 204 0
176 199 0
180 202 0
176 199 0
176 198 0
181 202 0
179 201 0
177 199 0
176 199 0
176 199 0
174 196 0
173 195 0
182 202 0
180 201 0
177 198 0
179 202 0
179 201 0
172 195 0
182 204 0
173 195 0
180 201 0
180 202 0
175 195 0
174 196 0
180 202 0
176 198 0
176 198 0
167 189 0
183 203 0
171 193 0
180 201 0
170 193 0
176 199 0
181 202 0
178 199 0
179 201 0
178 201 0
183 203 56
183 204 80
181 204 38
183 205 69
186 207 69
180 202 38
184 206 69
184 203 80
184 205 80
181 202 80
183 203 69
185 206 118
175 197 38
177 199 97
180 200 89
171 192 38
175 197 56
178 198 89
170 191 56
179 200 97
177 198 124
172 194 38
166 187 69
170 192 69
177 198 111
165 184 89
163 184 104
150 170 69
165 185 80
170 189 80
163 182 56
153 172 38
154 172 97
119 143 111
87 117 111
87 117 126
100 128 129
105 131 129
84 114 148
103 130 153
89 119 132
99 126 134
103 130 148
72 109 161
68 107 170
66 105 160
66 106 170
67 105 153
63 101 147
68 105 160
73 109 162
65 102 156
79 113 144
93 121 121
136 157 63
97 124 114
81 112 126
71 105 132
62 98 104
64 100 126
62 97 126
64 101 126
64 101 128
65 102 124
62 98 118
65 103 121
63 100 124
63 98 121
69 103 118
88 115 89
103 128 89
110 130 48
125 143 38
134 155 0
132 148 0
135 152 0
138 158 0
140 160 0
124 142 0
147 166 0
141 161 0
143 162 0
155 175 0
142 162 0
146 166 0
146 166 0
149 169 0
156 176 0
153 174 0
158 179 0
160 181 0
145 166 0
144 166 0
157 179 0
155 176 0
159 181 0
164 185 0
167 188 0
154 175 0
173 193 0
166 187 0
163 184 0
166 186 0
161 182 0
165 186 0
169 191 0
161 183 0
166 188 0
169 190 0
170 191 0
162 184 0
168 189 0
171 192 0
166 186 0
171 193 0
173 194 0
174 196 0
169 190 0
174 196 0
167 188 0
162 184 0
176 198 0
177 199 0
179 201 0
174 195 0
173 195 0
178 200 0
174 196 0
178 199 0
174 195 0
179 199 0
173 195 0
177 198 0
173 194 0
176 197 0
181 202 0
177 198 0
174 197 0
178 199 0
179 202 0
179 202 0
177 200 0
177 199 0
180 202 0
183 204 0
181 203 0
176 198 0
178 199 0
178 200 0
178 199 0
176 199 0
175 198 0
177 200 0
178 200 0
181 202 0
179 200 0
177 199 0
177 199 0
178 200 0
178 199 0
181 202 0
181 203 0
178 199 0
179 201 0
181 203 0
177 198 0
177 199 0
180 203 0
180 202 0
176 198 0
179 201 0
180 203 0
180 201 0
183 204 0
173 196 0
183 203 0
181 203 0
177 200 0
179 201 0
181 203 0
186 206 0
174 197 0
177 199 0
179 202 0
178 200 0
182 204 0
177 200 0
181 203 0
179 201 0
182 203 0
179 202 0
181 202 0
184 205 0
182 204 0
182 204 0
180 202 0
180 203 0
182 204 0
182 204 0
182 203 0
181 202 0
181 203 0
180 202 0
181 203 0
180 202 0
178 201 0
182 204 0
183 204 0
181 203 0
182 204 0
180 201 0
180 202 0
179 200 0
181 203 0
180 202 0
180 202 0
178 201 0
180 202 0
180 202 0
182 203 0
181 203 0
181 203 0
182 204 0
180 203 0
180 201 0
183 204 0
182 203 0
180 201 0
180 203 0
181 203 0
181 202 0
179 201 0
183 204 0
181 203 0
179 201 0
184 205 0
185 205 0
181 203 0
181 203 0
184 204 0
182 203 0
185 205 0
182 204 0
182 204 0
182 204 0
180 203 0
181 203 0
182 204 0
181 203 0
181 203 0
183 204 0
182 204 0
180 202 0
182 204 0
184 205 0
180 202 0
182 204 0
183 204 0
182 204 0
180 203 0
182 203 0
183 204 0
183 204 0
185 205 0
185 205 0
182 204 0
182 204 0
181 203 0
182 204 0
180 203 0
183 204 0
182 204 0
182 204 0
181 203 0
180 203 0
181 202 0
182 203 0
181 203 0
180 202 0
181 203 0
179 201 0
182 203 0
182 204 0
183 204 0
181 203 0
180 203 0
182 204 0
183 204 0
182 204 0
184 205 0
184 205 0
183 204 0
183 204 0
180 202 0
183 204 0
180 202 0
184 205 0
181 203 0
180 201 0
178 200 0
181 203 0
180 202 0
181 203 0
182 204 0
179 201 0
182 204 0
182 204 0
179 201 0
182 203 0
181 203 0
182 204 0
180 202 0
183 204 0
178 200 0
181 203 0
181 203 0
179 201 0
180 202 0
182 204 0
182 204 0
178 200 0
179 201 0
179 202 0
179 201 0
181 203 0
178 201 0
182 203 0
178 201 0
178 200 0
183 204 0
182 204 0
182 204 0
176 199 0
179 201 0
177 199 0
183 204 0
179 202 0
180 203 0
181 202 0
181 203 0
179 201 0
183 204 0
179 202 0
177 199 0
179 201 0
178 200 0
183 204 0
179 202 0
177 199 0
178 201 0
181 202 0
179 202 0
178 200 0
183 203 0
179 201 0
175 197 0
178 200 0
176 198 0
176 198 0
179 201 0
177 198 0
180 201 0
183 203 0
181 202 0
180 203 0
179 202 0
181 202 0
179 201 0
177 198 0
182 204 0
176 198 0
177 198 0
181 202 0
182 204 0
180 202 0
177 199 0
183 203 0
179 201 0
173 195 0
178 200 0
170 191 0
183 204 0
182 203 0
176 197 0
176 198 0
179 200 0
175 196 0
180 202 0
178 200 0
176 198 0
170 192 0
173 194 0
176 198 0
177 198 0
173 194 0
174 196 0
177 200 0
180 202 0
177 199 0
180 201 56
179 201 38
186 207 80
184 205 56
180 203 0
186 207 80
181 202 89
183 203 80
177 198 69
181 201 97
174 196 56
179 200 89
175 197 69
179 199 38
180 202 97
184 205 124
178 200 89
168 189 104
162 183 38
162 183 56
172 194 80
169 190 80
162 182 97
159 180 0
165 185 89
160 181 89
165 185 89
163 184 56
164 183 38
156 176 89
170 191 97
157 178 56
151 170 80
140 159 69
141 160 69
125 146 80
99 125 121
98 124 104
93 121 136
98 127 140
75 105 136
101 128 138
98 124 148
92 118 136
115 140 134
75 110 158
68 106 169
68 106 166
68 106 158
67 105 161
67 106 162
68 106 162
71 107 139
66 103 144
80 112 136
111 135 97
119 141 93
136 154 48
125 144 25
98 120 56
126 146 48
105 126 25
114 133 52
106 129 75
89 113 80
102 126 63
127 148 56
104 126 48
137 156 0
143 162 0
137 157 0
146 165 0
123 142 0
140 159 0
142 161 0
136 155 0
124 144 0
146 165 0
141 161 0
127 146 0
148 169 0
146 166 0
164 184 0
142 161 0
153 172 0
144 165 0
147 168 0
143 164 0
147 168 0
148 169 0
164 185 0
159 180 0
157 178 0
162 182 0
155 176 0
161 182 0
155 177 0
152 174 0
164 186 0
152 172 0
166 186 0
155 177 0
166 188 0
156 177 0
157 179 0
173 194 0
163 184 0
168 189 0
157 177 0
171 194 0
162 182 0
169 191 0
174 194 0
178 199 0
171 193 0
175 198 0
177 199 0
173 195 0
173 194 0
165 187 0
161 183 0
178 199 0
173 194 0
168 190 0
172 194 0
173 195 0
180 201 0
178 200 0
184 205 0
174 196 0
180 202 0
175 197 0
173 195 0
177 198 0
169 191 0
175 197 0
174 195 0
180 201 0
179 202 0
176 197 0
179 200 0
175 196 0
177 199 0
180 202 0
177 199 0
176 199 0
181 202 0
180 203 0
182 204 0
181 202 0
177 198 0
181 201 0
178 201 0
177 198 0
179 201 0
181 202 0
178 199 0
177 199 0
178 199 0
179 202 0
180 202 0
181 203 0
179 201 0
184 205 0
179 202 0
183 203 0
178 200 0
183 204 0
179 201 0
182 204 0
182 204 0
182 203 0
179 201 0
182 204 0
178 199 0
180 202 0
178 200 0
182 204 0
179 201 0
180 202 0
180 201 0
182 204 0
182 204 0
181 203 0
181 203 0
182 204 0
180 202 0
181 203 0
181 203 0
183 204 0
180 201 0
179 201 0
178 200 0
181 203 0
180 202 0
180 203 0
179 200 0
181 202 0
179 201 0
181 203 0
183 204 0
180 202 0
183 204 0
182 204 0
183 204 0
181 203 0
177 199 0
178 201 0
182 204 0
182 203 0
183 204 0
182 204 0
182 203 0
182 203 0
183 204 0
180 203 0
181 203 0
180 202 0
180 203 0
183 204 0
180 203 0
184 205 0
181 202 0
179 202 0
181 203 0
181 203 0
180 203 0
181 203 0
181 203 0
180 202 0
181 203 0
179 201 0
182 204 0
182 204 0
183 204 0
182 203 0
179 202 0
180 203 0
179 201 0
183 204 0
183 204 0
184 205 0
183 204 0
182 204 0
180 203 0
183 204 0
181 203 0
180 203 0
183 204 0
182 204 0
183 204 0
183 204 0
182 204 0
183 204 0
181 203 0
181 203 0
180 203 0
183 204 0
181 203 0
182 204 0
182 204 0
183 204 0
182 203 0
184 205 0
180 203 0
183 204 0
181 203 0
180 201 0
182 204 0
182 204 0
183 204 0
182 204 0
181 202 0
182 204 0
181 203 0
182 204 0
183 204 0
181 202 0
182 204 0
182 204 0
184 205 0
182 203 0
182 204 0
181 203 0
180 202 0
182 204 0
178 201 0
183 204 0
182 204 0
181 202 0
181 203 0
180 202 0
181 203 0
182 203 0
181 203 0
181 203 0
180 202 0
182 204 0
180 202 0
182 204 0
181 203 0
180 203 0
180 202 0
178 200 0
183 204 0
183 204 0
180 202 0
180 202 0
182 204 0
180 203 0
179 202 0
180 202 0
180 201 0
177 200 0
179 201 0
181 202 0
182 204 0
179 201 0
183 204 0
180 202 0
180 202 0
182 204 0
179 201 0
179 201 0
183 204 0
178 200 0
180 201 0
180 201 0
183 204 0
182 204 0
181 203 0
180 202 0
178 200 0
182 204 0
184 205 0
179 201 0
183 204 0
180 203 0
181 203 0
182 204 0
180 202 0
180 203 0
182 204 0
180 202 0
182 204 0
180 201 0
178 200 0
180 201 0
181 203 0
182 203 0
181 202 0
181 203 0
182 203 0
183 204 0
180 202 0
178 200 0
179 200 0
177 199 0
179 201 0
182 203 0
174 197 0
179 202 0
177 199 0
178 200 0
183 203 0
181 203 0
178 200 0
181 202 0
177 199 0
172 194 0
179 201 0
182 204 0
179 201 0
174 197 0
177 199 0
178 199 0
171 194 0
181 203 0
177 199 0
180 201 0
171 193 0
176 198 0
172 195 0
173 194 0
174 197 0
179 201 0
176 198 0
173 195 0
179 200 0
175 198 0
176 199 0
181 201 0
177 198 0
172 193 0
178 199 0
174 196 0
176 199 0
177 200 0
181 202 0
184 205 0
184 205 89
184 205 69
186 207 80
186 207 80
184 205 69
181 201 80
178 199 69
178 199 80
176 197 80
179 199 69
175 196 69
177 198 89
169 191 80
177 198 97
177 199 80
170 192 69
167 188 69
165 188 69
177 198 89
172 193 97
161 183 56
173 194 69
166 187 80
162 183 89
166 187 97
171 192 69
154 175 104
155 175 38
167 187 80
161 182 69
151 171 56
163 182 89
150 170 56
166 185 118
162 182 80
159 177 104
133 152 56
111 131 104
93 121 141
90 118 126
95 122 125
106 130 121
85 114 128
98 125 137
113 138 118
94 124 144
76 112 164
76 112 167
67 105 164
67 105 160
72 109 162
67 106 156
66 103 142
63 100 124
65 101 136
84 115 134
121 141 84
104 128 93
144 163 0
134 152 0
141 160 0
113 132 0
136 155 0
145 163 0
124 142 0
117 136 0
135 152 0
126 145 0
114 134 0
124 144 0
147 166 0
100 119 0
131 151 0
138 157 0
135 156 0
139 158 0
138 159 0
129 151 0
138 157 0
141 162 0
149 169 0
139 159 0
143 164 0
158 177 0
155 175 0
154 174 0
149 169 0
156 177 0
151 172 0
154 173 0
160 179 0
156 178 0
167 187 0
168 189 0
167 189 0
162 183 0
152 173 0
167 188 0
160 182 0
167 188 0
160 181 0
161 182 0
164 186 0
159 181 0
168 190 0
168 189 0
159 181 0
159 182 0
168 190 0
172 194 0
166 188 0
169 190 0
167 188 0
175 196 0
170 192 0
172 192 0
173 195 0
174 195 0
176 198 0
169 191 0
175 196 0
173 195 0
173 195 0
165 187 0
172 194 0
177 199 0
179 201 0
176 198 0
181 202 0
178 199 0
174 196 0
178 199 0
176 198 0
173 195 0
175 198 0
177 199 0
179 201 0
180 202 0
177 197 0
173 196 0
180 201 0
176 199 0
176 198 0
179 201 0
177 199 0
176 196 0
172 195 0
177 198 0
182 203 0
174 196 0
178 200 0
178 200 0
178 200 0
177 199 0
175 198 0
177 200 0
182 203 0
180 201 0
176 199 0
179 200 0
178 199 0
180 201 0
175 196 0
174 196 0
177 199 0
178 200 0
179 201 0
179 201 0
180 202 0
181 203 0
179 200 0
180 202 0
178 200 0
178 201 0
184 205 0
176 199 0
179 201 0
181 203 0
181 202 0
180 202 0
181 203 0
179 201 0
179 202 0
179 202 0
180 202 0
180 202 0
180 202 0
180 203 0
183 204 0
181 203 0
181 202 0
179 201 0
184 205 0
180 201 0
177 200 0
179 201 0
181 202 0
183 204 0
180 202 0
183 204 0
181 203 0
181 203 0
182 203 0
183 204 0
176 199 0
181 203 0
180 202 0
180 203 0
180 202 0
177 199 0
182 203 0
181 203 0
178 201 0
180 202 0
183 204 0
180 203 0
183 204 0
183 204 0
180 202 0
178 201 0
181 203 0
182 204 0
181 203 0
181 203 0
183 203 0
181 203 0
180 202 0
182 204 0
181 202 0
182 203 0
182 204 0
179 202 0
180 202 0
183 204 0
179 202 0
180 202 0
183 204 0
182 204 0
182 204 0
181 203 0
183 204 0
183 204 0
180 202 0
184 205 0
182 204 0
183 204 0
181 203 0
182 204 0
180 202 0
183 204 0
181 203 0
183 204 0
179 201 0
181 203 0
184 205 0
181 203 0
184 205 0
180 203 0
181 203 0
181 203 0
181 203 0
181 203 0
179 201 0
184 205 0
180 203 0
180 203 0
181 203 0
183 204 0
183 204 0
178 201 0
182 203 0
181 203 0
182 204 0
184 205 0
183 204 0
183 204 0
182 203 0
183 204 0
180 203 0
181 203 0
182 204 0
184 204 0
183 204 0
181 203 0
182 204 0
181 202 0
184 205 0
181 203 0
180 202 0
182 203 0
183 204 0
182 204 0
180 203 0
181 203 0
182 203 0
181 202 0
183 204 0
181 203 0
183 204 0
181 202 0
183 204 0
182 204 0
180 203 0
179 202 0
182 204 0
182 204 0
179 202 0
181 203 0
181 202 0
181 203 0
179 201 0
183 204 0
181 203 0
182 204 0
181 202 0
179 202 0
182 203 0
181 203 0
181 203 0
181 203 0
180 203 0
183 204 0
176 199 0
180 203 0
181 202 0
179 200 0
183 204 0
181 203 0
183 204 0
176 198 0
181 203 0
181 203 0
184 205 0
181 203 0
181 203 0
182 204 0
180 202 0
183 204 0
179 202 0
181 203 0
181 203 0
181 202 0
182 204 0
179 201 0
178 200 0
179 201 0
180 202 0
181 203 0
177 199 0
182 204 0
178 201 0
180 202 0
181 203 0
180 202 0
180 203 0
182 204 0
180 202 0
181 203 0
179 200 0
174 196 0
175 197 0
181 203 0
178 201 0
182 204 0
179 201 0
179 201 0
177 199 0
178 201 0
177 199 0
178 200 0
178 200 0
176 198 0
181 203 0
181 202 0
184 204 0
180 201 0
177 200 0
175 197 0
181 202 0
178 200 0
179 201 0
182 203 0
177 199 0
175 197 0
180 201 0
182 204 0
176 197 0
175 198 0
177 200 0
179 201 0
175 197 0
172 193 0
177 199 0
174 196 0
175 197 0
179 202 0
173 195 0
179 201 0
178 201 0
183 204 69
186 206 69
187 207 69
186 207 80
186 207 97
184 205 69
180 200 80
179 198 38
178 200 69
181 202 80
174 196 80
176 197 38
177 198 104
175 197 69
172 194 69
173 195 80
176 197 80
165 187 56
173 195 80
175 197 56
171 192 97
173 194 80
168 189 69
171 193 97
164 186 89
167 188 89
160 182 97
166 188 38
162 183 56
158 180 89
171 192 80
156 176 56
155 175 97
158 177 89
144 163 0
154 174 80
148 168 69
151 170 89
146 165 89
135 153 89
107 132 114
85 115 132
97 123 134
89 119 133
115 138 146
117 141 143
124 145 124
84 113 137
94 123 130
73 110 174
67 106 166
66 104 162
71 108 142
66 104 147
64 101 134
81 114 139
71 106 129
106 129 93
121 144 89
124 146 75
137 156 0
134 152 0
137 155 0
140 158 0
137 154 0
155 175 0
123 141 0
121 142 0
135 153 0
131 149 0
135 154 0
146 165 0
131 150 0
146 166 0
134 152 0
131 151 0
138 159 0
144 164 0
134 152 0
151 171 0
143 164 0
140 160 0
142 162 0
139 159 0
142 163 0
149 170 0
156 176 0
142 162 0
142 164 0
156 176 0
159 180 0
144 164 0
158 179 0
157 178 0
154 175 0
169 189 0
148 169 0
152 174 0
162 184 0
166 188 0
169 190 0
155 176 0
171 193 0
154 177 0
159 181 0
159 180 0
170 191 0
165 187 0
160 182 0
165 186 0
164 187 0
159 179 0
168 190 0
170 191 0
172 194 0
169 191 0
175 196 0
176 197 0
165 188 0
172 193 0
174 196 0
172 194 0
176 198 0
175 197 0
170 192 0
171 193 0
163 185 0
177 198 0
172 193 0
176 199 0
177 199 0
178 199 0
173 195 0
175 197 0
180 201 0
174 196 0
176 199 0
178 199 0
176 198 0
176 198 0
181 202 0
173 197 0
173 195 0
178 200 0
181 202 0
171 193 0
175 196 0
180 203 0
175 197 0
178 199 0
180 203 0
181 202 0
180 202 0
181 203 0
178 200 0
182 202 0
178 200 0
182 204 0
180 202 0
177 200 0
176 198 0
180 202 0
176 198 0
177 199 0
177 199 0
180 202 0
183 204 0
180 201 0
181 202 0
176 197 0
181 202 0
181 203 0
179 201 0
179 201 0
183 204 0
180 202 0
181 203 0
178 200 0
175 198 0
183 204 0
182 203 0
181 203 0
183 204 0
180 203 0
177 200 0
181 203 0
180 201 0
179 202 0
180 202 0
179 201 0
178 200 0
181 202 0
183 204 0
180 202 0
182 204 0
177 200 0
183 204 0
178 200 0
181 203 0
180 202 0
178 200 0
182 204 0
181 202 0
182 204 0
181 203 0
181 203 0
182 204 0
182 204 0
178 199 0
180 202 0
182 203 0
181 203 0
178 202 0
181 202 0
183 203 0
182 204 0
181 203 0
182 204 0
182 204 0
181 203 0
181 202 0
174 197 0
184 205 0
185 205 0
181 202 0
182 204 0
181 203 0
180 201 0
181 202 0
183 204 0
181 202 0
181 202 0
181 203 0
182 204 0
181 203 0
181 203 0
182 204 0
181 203 0
183 204 0
181 203 0
180 202 0
179 202 0
177 200 0
182 204 0
179 202 0
182 204 0
181 203 0
180 203 0
179 202 0
181 203 0
178 200 0
183 204 0
181 203 0
182 204 0
179 201 0
181 203 0
179 201 0
179 202 0
181 203 0
182 204 0
181 203 0
183 204 0
181 203 0
180 202 0
179 202 0
179 201 0
184 205 0
181 203 0
183 204 0
180 203 0
183 204 0
181 203 0
178 200 0
181 203 0
181 203 0
182 204 0
183 203 0
180 202 0
179 201 0
182 204 0
183 204 0
182 204 0
182 204 0
180 202 0
183 204 0
181 203 0
180 203 0
183 204 0
181 203 0
179 202 0
183 204 0
180 202 0
180 202 0
180 202 0
181 203 0
183 204 0
181 203 0
182 203 0
182 204 0
179 202 0
182 204 0
180 203 0
181 203 0
182 203 0
184 205 0
181 203 0
183 204 0
184 205 0
182 204 0
183 203 0
178 201 0
180 203 0
179 202 0
182 203 0
181 202 0
181 203 0
179 201 0
181 203 0
184 204 0
181 203 0
179 201 0
179 201 0
180 203 0
183 204 0
180 202 0
181 202 0
179 201 0
182 204 0
182 204 0
180 202 0
183 204 0
180 202 0
180 202 0
181 203 0
181 203 0
178 200 0
178 199 0
181 202 0
181 202 0
181 203 0
182 204 0
181 203 0
182 204 0
180 203 0
181 202 0
182 203 0
182 204 0
182 204 0
180 202 0
178 200 0
183 204 0
182 203 0
183 204 0
179 201 0
180 202 0
179 201 0
180 202 0
176 198 0
181 203 0
176 198 0
175 198 0
180 202 0
180 202 0
180 203 0
181 203 0
180 203 0
180 202 0
179 201 0
176 198 0
171 194 0
177 200 0
176 199 0
178 200 0
176 199 0
179 202 0
178 200 0
183 204 0
177 199 0
174 195 0
182 203 0
176 198 0
181 202 0
177 199 0
175 197 0
177 199 0
179 201 0
179 200 0
174 197 0
171 193 0
177 199 0
175 197 0
170 193 0
177 199 0
174 196 0
180 202 0
175 198 0
175 195 0
178 200 0
184 205 38
180 201 56
182 204 38
187 207 89
186 207 80
190 209 111
185 205 89
178 199 80
181 202 89
181 201 56
178 199 69
176 199 69
179 200 89
174 196 104
173 195 104
175 196 56
173 194 80
178 200 97
175 196 89
180 202 97
171 193 97
169 190 89
169 191 69
169 190 80
166 188 69
159 182 97
168 190 89
176 198 104
172 193 80
171 192 56
158 179 80
157 179 89
167 188 69
160 181 56
151 172 80
146 167 80
153 173 69
158 177 69
162 181 104
156 176 118
142 160 89
132 151 38
146 164 104
108 129 89
90 118 126
77 108 108
107 132 141
100 128 142
109 134 129
105 132 139
122 146 125
106 135 147
87 119 152
75 111 166
72 108 147
69 107 164
67 104 147
65 102 143
75 108 132
63 99 124
113 136 93
123 145 93
124 143 63
139 158 0
138 158 0
136 154 0
142 159 0
117 136 0
140 161 0
142 161 0
144 162 0
138 157 0
133 152 0
155 174 0
141 159 0
144 164 0
130 150 0
139 158 0
151 171 0
146 166 0
149 168 0
142 160 0
149 170 0
140 160 0
144 165 0
149 169 0
154 176 0
142 163 0
152 173 0
152 173 0
161 182 0
149 171 0
146 167 0
158 180 0
150 170 0
165 185 0
155 176 0
155 176 0
157 179 0
166 186 0
159 181 0
152 174 0
165 186 0
157 179 0
158 179 0
167 188 0
168 189 0
169 190 0
169 191 0
169 190 0
158 180 0
172 194 0
164 186 0
167 188 0
167 188 0
171 192 0
169 191 0
165 185 0
172 193 0
173 195 0
172 194 0
165 187 0
169 192 0
161 184 0
177 198 0
172 193 0
173 194 0
173 195 0
176 197 0
176 197 0
177 198 0
177 197 0
175 196 0
172 194 0
177 199 0
171 193 0
182 204 0
180 202 0
175 196 0
179 201 0
177 199 0
178 200 0
174 197 0
178 199 0
175 197 0
176 198 0
179 201 0
179 201 0
177 199 0
180 201 0
177 200 0
177 198 0
179 201 0
177 200 0
180 202 0
172 194 0
181 203 0
179 201 0
182 203 0
177 200 0
177 200 0
180 201 0
176 198 0
179 201 0
176 198 0
178 199 0
178 200 0
181 203 0
182 204 0
181 203 0
182 203 0
180 202 0
181 203 0
182 204 0
177 200 0
181 202 0
179 200 0
180 202 0
180 202 0
180 202 0
179 201 0
181 203 0
178 200 0
182 204 0
181 202 0
183 204 0
181 203 0
182 203 0
181 202 0
178 201 0
181 202 0
181 202 0
182 204 0
179 201 0
183 204 0
179 201 0
180 202 0
181 202 0
177 199 0
179 200 0
181 202 0
180 201 0
180 202 0
181 203 0
182 204 0
182 204 0
180 202 0
181 203 0
182 204 0
180 202 0
182 204 0
182 203 0
182 204 0
182 204 0
181 203 0
182 204 0
181 203 0
178 200 0
178 201 0
180 203 0
181 203 0
179 202 0
180 202 0
179 202 0
181 203 0
179 201 0
181 203 0
182 203 0
178 200 0
180 202 0
182 203 0
182 203 0
182 203 0
181 203 0
179 201 0
183 204 0
182 204 0
180 203 0
182 204 0
182 204 0
182 203 0
182 204 0
180 202 0
182 203 0
181 203 0
180 202 0
181 203 0
178 201 0
182 203 0
182 203 0
181 203 0
181 202 0
182 204 0
184 205 0
182 204 0
181 203 0
181 203 0
180 202 0
183 204 0
181 203 0
183 204 0
181 203 0
181 203 0
181 203 0
183 204 0
183 204 0
177 199 0
180 203 0
180 203 0
181 203 0
182 203 0
183 204 0
181 203 0
181 202 0
179 202 0
183 204 0
183 204 0
181 203 0
182 204 0
180 203 0
182 204 0
183 204 0
177 200 0
181 203 0
184 205 0
182 203 0
178 201 0
182 204 0
180 203 0
182 204 0
183 204 0
182 204 0
180 203 0
183 204 0
178 201 0
182 204 0
179 202 0
182 204 0
181 203 0
184 204 0
182 203 0
182 204 0
180 203 0
182 203 0
181 203 0
181 203 0
180 202 0
181 203 0
179 201 0
180 201 0
181 202 0
180 203 0
178 201 0
180 203 0
179 201 0
181 203 0
183 204 0
179 201 0
181 203 0
181 202 0
183 204 0
177 201 0
181 203 0
179 200 0
181 203 0
181 203 0
179 201 0
181 203 0
180 202 0
177 200 0
182 204 0
180 203 0
180 202 0
182 203 0
182 204 0
183 204 0
182 204 0
181 203 0
183 204 0
180 201 0
182 204 0
179 201 0
177 200 0
179 201 0
181 203 0
179 201 0
181 203 0
179 201 0
182 204 0
182 204 0
176 199 0
178 200 0
177 200 0
177 201 0
180 203 0
181 203 0
178 200 0
179 201 0
180 203 0
182 204 0
180 202 0
179 202 0
177 200 0
176 197 0
180 201 0
180 202 0
181 202 0
181 202 0
180 201 0
174 197 0
181 203 0
179 201 0
179 201 0
177 200 0
176 198 0
184 205 0
174 196 0
179 201 0
179 201 0
181 202 0
180 202 0
178 200 0
178 200 0
181 203 0
173 196 0
179 200 0
177 199 0
180 201 0
177 199 0
178 200 0
174 196 0
172 195 0
170 193 0
172 194 0
174 196 0
177 197 0
173 196 0
182 203 0
176 199 0
180 202 0
181 202 56
184 205 38
184 205 69
182 204 38
183 204 80
181 202 80
179 198 80
183 204 97
181 202 69
184 204 97
177 198 97
184 205 89
175 196 38
175 197 89
180 202 97
172 193 97
180 201 69
169 191 69
170 193 56
175 197 80
166 188 97
177 198 97
168 189 97
168 190 69
176 198 111
174 195 97
180 201 124
167 189 56
157 178 38
164 186 80
171 192 89
158 181 97
151 170 0
167 188 69
165 187 97
156 177 80
146 166 38
163 183 97
161 182 69
145 167 69
137 157 97
157 177 80
138 156 69
137 155 38
136 155 108
115 135 114
111 137 142
86 114 122
94 122 132
98 126 126
86 114 118
115 139 142
83 114 158
81 115 149
68 106 166
67 105 151
67 104 151
67 104 144
78 111 125
76 109 138
99 123 93
119 141 75
128 150 48
153 173 0
142 161 0
125 144 0
141 160 0
124 144 0
141 160 0
132 151 0
138 158 0
131 150 0
145 164 0
147 165 0
124 143 0
144 164 0
118 138 0
141 162 0
139 160 0
142 162 0
153 174 0
145 166 0
146 167 0
148 168 0
139 160 0
155 175 0
147 166 0
152 172 0
148 169 0
154 175 0
152 173 0
163 185 0
151 172 0
153 174 0
158 179 0
159 181 0
151 172 0
164 187 0
151 172 0
169 191 0
164 184 0
155 177 0
151 173 0
164 186 0
168 190 0
168 190 0
153 174 0
161 184 0
155 177 0
170 191 0
175 197 0
177 198 0
167 190 0
164 185 0
172 194 0
166 189 0
160 182 0
171 193 0
171 193 0
168 190 0
164 185 0
173 195 0
175 197 0
171 193 0
166 188 0
176 198 0
179 200 0
176 199 0
172 194 0
175 196 0
172 193 0
171 195 0
175 196 0
174 197 0
173 195 0
174 196 0
177 199 0
175 196 0
178 199 0
177 199 0
177 199 0
178 201 0
175 197 0
179 201 0
180 202 0
176 198 0
177 200 0
181 203 0
178 200 0
176 199 0
182 204 0
177 199 0
178 198 0
171 193 0
174 195 0
175 197 0
180 203 0
181 202 0
180 203 0
174 196 0
176 198 0
180 202 0
180 202 0
179 201 0
181 202 0
182 202 0
174 196 0
179 200 0
179 201 0
179 202 0
180 202 0
180 202 0
179 201 0
181 202 0
180 203 0
179 202 0
183 204 0
180 203 0
179 201 0
180 201 0
180 202 0
183 204 0
180 201 0
178 200 0
179 202 0
180 202 0
182 204 0
178 199 0
176 197 0
180 202 0
178 201 0
185 205 0
179 202 0
179 200 0
181 202 0
181 203 0
183 204 0
180 202 0
183 204 0
182 203 0
182 203 0
183 204 0
181 202 0
179 202 0
179 201 0
182 204 0
180 203 0
179 200 0
182 203 0
184 205 0
180 203 0
182 204 0
184 205 0
180 202 0
183 204 0
180 203 0
182 204 0
182 204 0
180 202 0
180 202 0
181 202 0
183 204 0
183 204 0
182 204 0
180 203 0
181 202 0
181 202 0
182 204 0
184 205 0
182 204 0
178 201 0
182 204 0
180 203 0
180 202 0
180 201 0
183 204 0
180 203 0
181 202 0
180 203 0
182 203 0
184 205 0
178 200 0
183 204 0
180 201 0
182 204 0
178 202 0
181 203 0
183 204 0
179 202 0
180 203 0
182 204 0
182 203 0
181 203 0
184 205 0
180 203 0
182 203 0
183 204 0
182 204 0
180 203 0
183 204 0
184 205 0
182 204 0
181 203 0
181 203 0
180 203 0
183 204 0
182 203 0
182 204 0
181 203 0
182 204 0
179 202 0
180 203 0
182 204 0
181 203 0
179 202 0
182 204 0
180 203 0
182 204 0
179 202 0
182 203 0
180 203 0
181 203 0
180 203 0
180 203 0
179 201 0
183 204 0
182 204 0
183 204 0
183 204 0
181 203 0
182 204 0
182 204 0
181 202 0
180 203 0
181 203 0
182 203 0
181 203 0
181 203 0
183 204 0
181 203 0
182 204 0
179 202 0
181 203 0
184 205 0
182 203 0
183 204 0
180 202 0
182 204 0
180 202 0
183 204 0
181 202 0
181 203 0
179 201 0
179 202 0
182 204 0
182 203 0
181 203 0
182 204 0
181 202 0
177 200 0
177 199 0
182 204 0
184 205 0
181 203 0
183 204 0
180 203 0
179 201 0
181 203 0
179 202 0
181 202 0
181 203 0
179 202 0
182 204 0
180 203 0
182 203 0
181 203 0
180 202 0
182 204 0
184 205 0
181 203 0
177 200 0
182 203 0
183 204 0
181 202 0
181 203 0
182 204 0
181 203 0
178 200 0
179 200 0
179 201 0
181 203 0
178 200 0
181 202 0
179 201 0
178 200 0
181 202 0
181 203 0
180 201 0
178 200 0
179 202 0
182 203 0
182 204 0
183 204 0
181 202 0
177 198 0
176 199 0
176 198 0
179 200 0
181 203 0
184 204 0
182 203 0
177 200 0
179 200 0
172 194 0
176 198 0
179 200 0
177 199 0
175 196 0
178 198 0
178 200 0
175 198 0
177 199 0
177 199 0
176 198 0
177 199 0
174 196 0
176 199 0
176 197 0
178 199 0
179 201 0
172 195 0
170 192 0
172 195 0
180 201 0
181 202 0
174 196 0
181 203 0
179 201 0
180 202 0
187 207 80
182 204 38
184 205 69
179 202 38
184 205 56
181 202 69
180 201 56
176 198 69
173 195 56
184 204 104
180 201 80
184 204 89
168 190 56
184 204 124
179 200 80
177 197 69
174 195 56
175 196 80
172 195 97
176 198 80
165 187 56
174 196 97
171 193 56
167 188 0
174 196 97
169 191 89
173 194 69
167 189 38
171 193 80
165 186 80
165 187 111
163 184 56
163 185 89
156 177 38
164 186 80
163 183 69
165 185 69
160 181 80
159 180 80
151 173 56
152 172 38
140 161 80
140 160 89
151 169 97
156 175 69
135 154 56
131 149 56
137 155 97
121 142 126
102 129 132
90 116 97
107 131 126
107 134 134
132 154 132
100 128 153
79 114 162
81 115 153
75 110 153
73 109 153
64 101 129
80 111 129
78 107 93
115 136 56
113 135 56
148 168 25
138 158 0
139 159 0
146 166 0
140 160 0
122 143 0
151 170 0
138 157 0
129 148 0
139 159 0
157 176 0
139 159 0
156 175 0
138 157 0
140 159 0
139 161 0
154 174 0
151 170 0
133 154 0
151 172 0
153 173 0
142 164 0
158 179 0
146 166 0
154 175 0
157 179 0
146 167 0
155 176 0
154 175 0
160 182 0
155 176 0
158 179 0
154 174 0
163 183 0
162 183 0
159 179 0
154 176 0
159 180 0
169 190 0
158 179 0
161 183 0
165 186 0
169 191 0
168 189 0
171 192 0
169 190 0
173 195 0
172 194 0
168 190 0
170 191 0
177 198 0
178 199 0
176 197 0
164 186 0
170 192 0
171 191 0
170 193 0
168 191 0
177 200 0
176 198 0
179 200 0
170 191 0
170 191 0
175 196 0
180 201 0
174 195 0
176 197 0
172 194 0
168 188 0
172 194 0
172 193 0
179 201 0
178 200 0
173 195 0
179 200 0
173 194 0
174 196 0
179 202 0
176 198 0
180 201 0
180 201 0
177 200 0
176 197 0
181 202 0
175 197 0
174 196 0
178 200 0
174 196 0
181 203 0
180 202 0
180 202 0
178 200 0
180 202 0
176 198 0
178 200 0
176 199 0
182 204 0
178 200 0
179 201 0
178 200 0
177 198 0
180 202 0
178 200 0
180 202 0
177 199 0
178 199 0
178 200 0
185 205 0
178 199 0
179 201 0
179 201 0
180 201 0
178 200 0
182 203 0
177 200 0
178 199 0
182 204 0
179 201 0
183 204 0
181 203 0
179 202 0
181 203 0
182 204 0
182 202 0
179 200 0
180 203 0
179 200 0
182 204 0
180 202 0
178 200 0
180 203 0
182 203 0
181 203 0
178 200 0
178 200 0
178 200 0
180 203 0
183 204 0
183 204 0
180 202 0
180 202 0
181 203 0
182 203 0
181 203 0
182 204 0
181 203 0
179 201 0
181 203 0
179 202 0
181 203 0
182 204 0
183 204 0
182 204 0
183 204 0
183 204 0
180 203 0
182 203 0
182 203 0
180 202 0
178 200 0
180 202 0
182 204 0
183 204 0
180 203 0
180 203 0
183 204 0
180 203 0
181 203 0
181 203 0
181 203 0
180 202 0
180 202 0
180 203 0
180 203 0
182 204 0
178 200 0
183 204 0
181 203 0
181 203 0
180 202 0
179 201 0
183 204 0
183 204 0
181 203 0
183 204 0
180 202 0
183 204 0
182 204 0
183 204 0
181 203 0
181 203 0
182 204 0
180 202 0
181 202 0
180 202 0
181 203 0
181 203 0
184 205 0
181 203 0
180 202 0
182 203 0
182 204 0
182 204 0
182 204 0
182 204 0
179 202 0
183 204 0
182 203 0
181 203 0
181 203 0
180 202 0
182 204 0
179 201 0
180 203 0
180 202 0
179 202 0
181 203 0
184 205 0
182 204 0
183 204 0
181 202 0
181 203 0
182 204 0
181 202 0
181 203 0
183 204 0
180 203 0
180 203 0
182 204 0
181 203 0
182 203 0
182 203 0
181 203 0
180 203 0
181 203 0
180 203 0
180 203 0
182 204 0
181 203 0
182 204 0
183 204 0
181 203 0
182 204 0
180 202 0
180 202 0
181 203 0
181 203 0
180 203 0
182 204 0
182 204 0
182 204 0
181 203 0
182 203 0
180 202 0
182 204 0
181 203 0
180 202 0
179 201 0
181 202 0
182 204 0
180 201 0
181 203 0
182 204 0
179 201 0
180 203 0
181 202 0
181 202 0
183 203 0
183 204 0
183 204 0
180 202 0
181 203 0
182 204 0
179 200 0
181 203 0
180 202 0
181 203 0
180 202 0
179 202 0
177 199 0
182 204 0
180 202 0
181 203 0
180 203 0
181 202 0
181 202 0
181 203 0
181 202 0
181 203 0
181 202 0
181 203 0
178 200 0
181 203 0
181 203 0
180 202 0
179 202 0
177 200 0
180 202 0
182 203 0
183 204 0
179 201 0
177 198 0
179 200 0
181 203 0
178 200 0
177 199 0
179 201 0
176 197 0
180 201 0
179 201 0
182 203 0
179 201 0
181 202 0
175 196 0
177 199 0
179 201 0
179 201 0
175 197 0
178 200 0
177 199 0
181 202 0
178 199 0
174 196 0
174 196 0
173 195 0
181 202 0
173 196 0
175 196 0
172 194 0
180 202 0
176 198 0
177 199 0
179 201 0
176 197 0
180 203 0
180 202 56
186 207 80
183 205 38
186 207 80
181 202 56
185 206 69
184 205 80
184 203 111
178 199 56
176 198 38
184 205 89
183 204 89
175 197 80
176 198 80
178 201 97
180 202 69
179 201 80
175 195 89
173 194 80
174 196 97
166 189 69
167 189 56
175 198 97
174 195 80
168 189 69
161 183 80
171 192 56
173 194 80
176 198 80
158 179 38
160 182 38
163 184 69
163 186 104
169 190 97
169 190 89
168 189 97
163 183 89
161 182 69
151 170 38
156 176 89
164 184 111
154 175 89
144 164 97
139 156 89
151 171 97
146 164 97
131 148 89
138 156 69
158 177 104
154 172 69
134 152 101
95 121 104
103 128 119
115 140 134
92 120 124
118 143 137
107 133 155
86 118 164
83 115 147
86 116 149
88 118 160
65 102 139
76 104 101
123 142 38
122 143 63
135 154 0
159 177 0
137 155 0
140 160 0
142 161 0
133 154 0
136 156 0
139 158 0
135 155 0
136 156 0
150 170 0
131 152 0
146 166 0
149 168 0
145 166 0
161 180 0
148 166 0
158 179 0
152 171 0
141 163 0
150 171 0
146 165 0
166 188 0
152 173 0
153 173 0
145 166 0
159 179 0
156 177 0
153 175 0
148 170 0
158 179 0
156 177 0
159 181 0
155 177 0
165 188 0
155 176 0
172 192 0
161 183 0
172 194 0
160 181 0
163 185 0
160 182 0
174 196 0
162 183 0
169 189 0
165 187 0
167 188 0
174 195 0
167 189 0
165 188 0
170 193 0
168 190 0
169 191 0
175 197 0
175 197 0
172 194 0
167 190 0
169 192 0
168 190 0
176 198 0
172 194 0
168 190 0
168 191 0
173 195 0
169 191 0
170 192 0
177 199 0
175 197 0
175 196 0
170 191 0
177 198 0
175 196 0
181 202 0
177 199 0
175 197 0
179 202 0
176 197 0
179 201 0
177 198 0
179 200 0
178 199 0
173 195 0
175 196 0
175 198 0
174 194 0
182 204 0
179 202 0
177 199 0
182 203 0
178 201 0
178 199 0
184 205 0
176 197 0
180 201 0
175 197 0
181 203 0
179 201 0
181 202 0
181 203 0
178 200 0
178 201 0
179 201 0
180 201 0
182 202 0
177 200 0
183 204 0
180 202 0
179 201 0
177 200 0
176 198 0
178 201 0
181 203 0
176 198 0
177 200 0
179 201 0
178 200 0
179 201 0
181 203 0
181 203 0
176 198 0
180 203 0
176 198 0
183 204 0
178 200 0
179 202 0
183 204 0
182 202 0
181 202 0
180 202 0
179 200 0
177 200 0
178 200 0
179 202 0
180 203 0
180 202 0
182 203 0
182 203 0
180 202 0
182 204 0
179 201 0
180 201 0
182 203 0
180 202 0
180 202 0
182 203 0
178 202 0
180 203 0
181 203 0
181 203 0
179 200 0
177 200 0
183 204 0
181 203 0
181 203 0
181 203 0
179 201 0
183 204 0
182 204 0
182 204 0
179 201 0
179 201 0
180 203 0
182 204 0
177 200 0
180 202 0
181 203 0
181 203 0
180 202 0
180 202 0
180 202 0
181 203 0
180 203 0
181 203 0
181 203 0
182 204 0
178 202 0
180 202 0
183 204 0
179 201 0
183 204 0
182 204 0
179 201 0
183 204 0
185 205 0
183 204 0
181 203 0
182 203 0
182 204 0
181 203 0
181 203 0
181 203 0
181 203 0
181 203 0
182 203 0
181 203 0
181 202 0
183 204 0
182 203 0
181 203 0
182 204 0
182 204 0
182 203 0
182 204 0
182 204 0
186 206 0
180 203 0
179 201 0
181 203 0
183 204 0
184 205 0
179 202 0
182 204 0
180 202 0
182 203 0
183 204 0
180 203 0
180 202 0
183 204 0
181 203 0
182 203 0
180 202 0
181 202 0
184 205 0
183 204 0
182 203 0
182 203 0
180 203 0
183 204 0
184 205 0
184 205 0
179 201 0
181 203 0
181 203 0
183 204 0
178 201 0
181 203 0
181 202 0
182 204 0
182 204 0
181 203 0
180 202 0
183 204 0
181 203 0
182 204 0
184 205 0
183 204 0
182 204 0
183 204 0
181 202 0
182 203 0
181 203 0
182 203 0
180 202 0
179 202 0
178 201 0
179 201 0
182 204 0
183 204 0
183 204 0
181 203 0
179 201 0
181 203 0
181 203 0
180 202 0
181 202 0
181 202 0
182 203 0
181 203 0
185 205 0
183 204 0
182 204 0
180 202 0
179 202 0
180 202 0
181 203 0
180 202 0
178 200 0
178 201 0
178 199 0
180 203 0
176 197 0
178 200 0
180 202 0
180 202 0
180 202 0
181 202 0
179 201 0
179 200 0
178 200 0
179 201 0
182 203 0
181 203 0
181 203 0
182 203 0
179 201 0
180 202 0
183 204 0
183 204 0
179 201 0
183 203 0
178 200 0
179 201 0
175 198 0
181 202 0
177 199 0
184 205 0
176 199 0
181 203 0
179 201 0
177 199 0
177 199 0
179 200 0
180 202 0
177 200 0
174 196 0
176 198 0
175 197 0
181 202 0
177 200 0
179 202 0
171 194 0
176 198 0
183 204 0
176 198 0
175 197 0
174 196 0
175 197 0
179 200 0
176 197 0
172 193 0
177 198 0
179 202 0
172 195 0
180 201 0
182 203 0
181 204 38
184 205 80
184 205 38
187 207 80
175 197 38
181 202 80
184 205 80
185 206 104
186 207 118
179 200 56
176 198 80
178 199 56
181 202 97
173 194 97
179 201 80
171 193 89
178 199 80
163 186 69
171 194 56
173 194 56
183 205 118
171 194 69
175 198 89
168 191 69
177 198 80
173 196 80
161 183 56
160 182 69
174 196 104
173 196 89
165 187 97
166 188 89
167 189 80
174 195 111
169 190 97
162 183 38
165 185 69
170 191 89
167 187 80
163 183 69
164 184 69
162 183 80
139 158 69
159 178 97
147 167 69
144 162 38
143 163 69
152 171 69
144 162 80
144 162 104
143 162 80
137 155 38
120 141 108
118 141 106
102 129 126
103 127 129
120 142 126
80 113 153
76 111 147
87 118 149
82 115 150
104 132 118
92 120 97
125 145 38
111 131 56
141 162 38
145 164 0
145 166 0
148 169 0
151 172 0
144 165 0
149 168 0
109 130 0
153 173 0
152 173 0
152 172 0
137 158 0
130 151 0
132 153 0
155 177 0
163 183 0
136 156 0
139 159 0
151 171 0
145 167 0
143 162 0
154 173 0
140 161 0
153 174 0
154 174 0
153 174 0
149 170 0
156 177 0
164 185 0
154 177 0
152 174 0
145 166 0
167 188 0
164 186 0
158 180 0
163 184 0
160 181 0
161 184 0
160 182 0
156 177 0
162 185 0
169 190 0
161 182 0
174 195 0
164 185 0
169 190 0
166 188 0
177 198 0
170 192 0
172 195 0
176 197 0
172 193 0
166 188 0
175 197 0
164 186 0
163 185 0
173 194 0
166 188 0
171 192 0
165 186 0
172 194 0
177 199 0
168 190 0
174 196 0
173 194 0
178 199 0
179 201 0
173 196 0
180 202 0
174 196 0
178 200 0
175 196 0
174 196 0
172 195 0
177 200 0
179 201 0
181 203 0
179 201 0
178 200 0
181 202 0
169 192 0
178 200 0
179 202 0
177 199 0
176 198 0
178 201 0
183 204 0
181 203 0
179 200 0
179 201 0
181 202 0
178 199 0
173 195 0
177 198 0
178 200 0
178 200 0
173 195 0
180 202 0
178 200 0
177 199 0
175 197 0
181 202 0
182 203 0
179 202 0
182 204 0
181 202 0
180 202 0
178 201 0
181 202 0
179 200 0
180 202 0
179 201 0
178 200 0
182 202 0
180 202 0
180 203 0
181 202 0
182 204 0
178 200 0
182 204 0
180 202 0
182 203 0
182 204 0
181 202 0
182 204 0
182 204 0
179 200 0
181 203 0
180 202 0
181 203 0
178 200 0
181 202 0
182 204 0
181 202 0
180 202 0
180 201 0
181 203 0
181 203 0
183 204 0
180 202 0
181 203 0
179 201 0
179 202 0
182 204 0
180 203 0
182 203 0
184 205 0
180 203 0
177 200 0
180 202 0
184 205 0
183 204 0
182 204 0
183 204 0
179 201 0
181 203 0
180 202 0
180 203 0
180 203 0
182 204 0
181 203 0
180 203 0
179 201 0
182 204 0
183 204 0
179 201 0
182 203 0
178 200 0
180 203 0
182 203 0
180 203 0
181 203 0
181 203 0
180 203 0
179 201 0
181 203 0
181 203 0
181 202 0
182 204 0
182 204 0
183 204 0
183 204 0
180 203 0
179 202 0
177 199 0
181 203 0
183 204 0
181 203 0
180 203 0
184 205 0
182 204 0
180 202 0
185 205 0
182 204 0
179 202 0
179 201 0
183 204 0
182 203 0
181 203 0
181 203 0
177 200 0
182 204 0
179 201 0
181 203 0
184 205 0
180 203 0
180 203 0
183 204 0
183 204 0
183 204 0
180 202 0
182 204 0
182 204 0
178 201 0
180 203 0
183 204 0
182 204 0
182 204 0
181 203 0
182 203 0
180 203 0
183 204 0
183 204 0
181 203 0
183 203 0
179 202 0
178 201 0
182 204 0
181 202 0
180 202 0
181 203 0
178 200 0
184 205 0
183 204 0
182 204 0
184 205 0
182 204 0
183 204 0
182 204 0
180 202 0
182 204 0
180 203 0
179 202 0
183 204 0
182 204 0
179 202 0
185 204 0
182 204 0
180 201 0
182 203 0
181 203 0
180 201 0
182 204 0
181 203 0
180 202 0
180 203 0
179 202 0
179 201 0
179 202 0
181 202 0
181 203 0
179 202 0
181 203 0
184 205 0
181 203 0
181 202 0
180 202 0
180 201 0
181 203 0
180 202 0
183 204 0
180 202 0
180 202 0
178 201 0
179 202 0
179 201 0
180 202 0
178 201 0
182 203 0
182 203 0
180 202 0
183 204 0
178 200 0
180 202 0
181 203 0
182 204 0
181 202 0
180 202 0
181 202 0
182 203 0
181 203 0
180 202 0
183 204 0
180 203 0
177 199 0
180 202 0
181 202 0
181 202 0
182 204 0
180 202 0
180 202 0
181 202 0
181 203 0
178 200 0
180 202 0
179 202 0
180 201 0
172 195 0
177 199 0
177 200 0
178 200 0
181 203 0
178 201 0
180 202 0
179 200 0
183 204 0
177 198 0
180 202 0
177 198 0
181 202 0
178 199 0
177 199 0
179 201 0
171 194 0
179 200 0
180 202 0
178 200 0
179 201 0
180 202 0
177 199 0
181 202 0
177 199 0
181 203 0
178 200 0
180 202 0
184 205 69
184 205 56
184 205 80
179 200 56
180 201 69
181 203 89
176 198 56
178 200 56
179 199 80
179 200 69
181 202 89
179 200 69
174 195 56
182 203 80
179 200 80
177 198 69
171 193 38
172 194 69
176 199 124
181 203 80
174 195 38
177 200 104
180 202 118
167 188 80
172 192 89
174 196 111
172 193 89
171 193 104
165 186 89
169 192 69
172 194 89
163 186 89
159 179 69
169 190 97
170 191 69
171 192 118
157 177 89
161 182 97
167 188 111
166 186 111
156 177 89
142 163 69
166 185 38
145 167 56
149 168 80
151 170 69
138 157 69
155 175 69
153 173 80
145 165 56
140 158 80
148 166 56
151 168 97
116 135 69
115 136 101
91 118 118
111 136 134
118 142 132
90 120 158
67 104 134
83 115 134
73 105 126
96 123 111
156 174 0
136 156 0
142 162 0
136 155 0
152 171 0
140 161 0
147 167 0
156 176 0
161 181 0
161 181 0
149 170 0
139 159 0
145 167 0
141 163 0
156 176 0
149 170 0
150 170 0
141 160 0
140 159 0
153 173 0
144 164 0
148 167 0
152 172 0
152 174 0
158 180 0
146 167 0
159 181 0
159 180 0
160 179 0
158 179 0
167 188 0
157 179 0
153 174 0
161 182 0
166 187 0
158 178 0
164 185 0
156 177 0
149 169 0
166 188 0
160 181 0
169 190 0
169 191 0
173 195 0
164 186 0
177 198 0
172 194 0
167 189 0
168 190 0
172 195 0
169 192 0
172 193 0
173 195 0
173 194 0
165 185 0
174 195 0
167 188 0
177 199 0
168 189 0
169 192 0
175 196 0
172 194 0
173 194 0
169 191 0
174 197 0
175 197 0
175 197 0
176 199 0
168 191 0
177 199 0
175 197 0
182 203 0
179 200 0
176 199 0
167 191 0
176 197 0
176 198 0
177 198 0
179 201 0
174 196 0
180 201 0
175 196 0
178 200 0
179 201 0
182 203 0
179 199 0
175 197 0
174 196 0
178 199 0
183 204 0
176 198 0
181 203 0
178 201 0
183 204 0
179 201 0
180 200 0
180 201 0
173 193 0
179 202 0
178 200 0
178 200 0
182 204 0
178 199 0
176 199 0
176 198 0
181 202 0
179 202 0
181 203 0
178 201 0
182 204 0
182 203 0
174 196 0
178 199 0
181 203 0
181 203 0
181 203 0
181 203 0
179 202 0
182 203 0
181 202 0
174 197 0
181 203 0
177 200 0
180 203 0
181 202 0
180 203 0
183 204 0
182 204 0
178 201 0
178 200 0
182 204 0
179 202 0
182 203 0
184 205 0
183 203 0
180 202 0
182 203 0
180 203 0
179 201 0
181 203 0
182 204 0
182 204 0
180 202 0
181 203 0
183 204 0
181 202 0
182 203 0
183 204 0
180 203 0
181 202 0
179 201 0
181 203 0
182 203 0
180 202 0
181 202 0
180 203 0
182 203 0
181 203 0
179 202 0
177 200 0
180 203 0
180 203 0
181 203 0
182 204 0
179 200 0
182 204 0
178 200 0
183 204 0
183 204 0
182 203 0
182 204 0
180 202 0
181 203 0
180 202 0
181 202 0
181 203 0
182 203 0
181 203 0
182 204 0
180 203 0
181 203 0
180 202 0
179 202 0
181 203 0
181 202 0
181 203 0
182 204 0
181 203 0
183 204 0
181 203 0
180 203 0
183 204 0
183 204 0
178 200 0
181 203 0
183 204 0
182 204 0
181 203 0
181 203 0
184 205 0
181 203 0
180 203 0
182 204 0
180 202 0
183 204 0
182 203 0
181 203 0
185 205 0
182 203 0
183 204 0
183 204 0
179 202 0
184 205 0
179 201 0
180 202 0
180 202 0
180 202 0
183 204 0
182 203 0
184 205 0
181 203 0
180 202 0
184 205 0
183 204 0
181 202 0
181 203 0
182 204 0
179 202 0
182 204 0
181 203 0
181 203 0
183 203 0
181 202 0
181 203 0
182 203 0
182 204 0
180 203 0
180 202 0
181 203 0
182 204 0
185 205 0
179 201 0
182 204 0
184 205 0
179 202 0
183 204 0
182 204 0
181 203 0
184 205 0
180 203 0
179 202 0
182 204 0
176 199 0
182 204 0
183 204 0
183 204 0
181 203 0
182 203 0
182 204 0
180 203 0
181 203 0
182 204 0
181 203 0
183 204 0
181 203 0
181 203 0
183 204 0
177 200 0
179 202 0
181 203 0
182 204 0
180 202 0
181 203 0
181 203 0
180 203 0
179 201 0
180 203 0
176 198 0
183 204 0
183 204 0
180 202 0
179 200 0
179 202 0
180 202 0
180 203 0
180 202 0
181 202 0
182 204 0
177 199 0
181 203 0
181 203 0
178 200 0
180 202 0
180 202 0
179 201 0
181 202 0
177 201 0
181 203 0
179 201 0
181 203 0
172 194 0
178 200 0
175 197 0
175 198 0
175 198 0
178 200 0
174 196 0
179 202 0
174 196 0
176 199 0
179 200 0
181 203 0
178 199 0
181 203 0
183 204 0
180 203 0
178 200 0
174 196 0
183 203 0
179 200 0
176 197 0
180 201 0
175 197 0
178 200 0
171 191 0
178 200 0
177 200 0
176 197 0
176 198 0
176 198 0
175 197 0
179 201 0
176 197 0
180 202 0
179 201 0
181 203 0
180 202 38
179 202 0
185 206 80
183 203 89
184 205 89
189 209 118
184 205 89
176 198 80
182 203 56
177 200 80
186 206 104
173 195 56
176 198 69
174 196 111
179 200 69
172 194 80
171 194 80
176 198 38
175 197 56
175 197 97
179 201 89
178 200 89
173 195 80
172 194 104
176 198 89
172 193 89
175 194 104
167 189 69
168 189 56
164 187 69
166 187 89
170 191 124
168 189 118
174 195 118
160 182 104
162 183 80
164 184 80
163 183 89
159 181 104
175 195 111
157 178 111
157 178 104
156 176 89
159 179 89
160 179 97
152 172 89
165 185 89
142 163 80
154 174 69
142 161 89
148 167 69
156 175 97
154 173 38
136 154 97
139 156 80
140 157 97
125 144 89
131 152 129
95 122 97
104 129 114
106 134 124
97 126 114
88 116 93
127 148 48
148 167 0
141 161 0
146 167 0
137 156 0
154 174 0
150 170 0
146 166 0
148 167 0
149 169 0
154 174 0
153 174 0
141 162 0
149 168 0
146 167 0
151 171 0
145 166 0
157 179 0
152 172 0
144 164 0
149 170 0
154 175 0
148 170 0
151 170 0
147 169 0
152 173 0
151 173 0
148 169 0
154 174 0
155 176 0
157 179 0
159 181 0
155 177 0
166 187 0
162 183 0
156 178 0
151 173 0
167 188 0
166 186 0
155 176 0
162 182 0
165 187 0
167 188 0
167 190 0
169 190 0
166 187 0
168 190 0
172 194 0
163 184 0
169 190 0
168 189 0
167 189 0
166 187 0
174 196 0
166 188 0
165 187 0
166 188 0
172 193 0
166 188 0
171 194 0
170 192 0
161 182 0
174 195 0
174 196 0
176 199 0
167 189 0
176 198 0
175 196 0
170 192 0
181 203 0
175 197 0
168 191 0
177 198 0
176 197 0
180 201 0
174 195 0
176 198 0
178 200 0
177 200 0
179 200 0
178 199 0
180 202 0
175 197 0
169 191 0
182 204 0
178 200 0
179 201 0
175 197 0
179 201 0
177 199 0
172 193 0
180 203 0
179 201 0
183 204 0
178 199 0
183 203 0
176 198 0
179 200 0
178 200 0
175 197 0
180 202 0
177 199 0
181 202 0
180 202 0
179 201 0
181 203 0
179 201 0
180 202 0
179 201 0
178 199 0
177 199 0
178 200 0
179 202 0
179 202 0
182 203 0
180 202 0
178 200 0
179 201 0
182 204 0
180 203 0
180 202 0
180 202 0
182 204 0
179 201 0
178 200 0
182 203 0
182 203 0
180 202 0
181 202 0
181 203 0
178 201 0
183 204 0
182 203 0
182 204 0
181 203 0
180 202 0
178 200 0
180 203 0
183 204 0
182 204 0
182 204 0
178 200 0
179 202 0
182 203 0
182 204 0
179 202 0
178 202 0
182 204 0
182 203 0
180 202 0
181 202 0
180 202 0
182 203 0
183 204 0
180 202 0
182 203 0
181 203 0
180 201 0
181 203 0
184 204 0
180 202 0
180 202 0
181 203 0
180 202 0
181 203 0
179 202 0
184 205 0
180 201 0
183 204 0
184 204 0
176 198 0
179 202 0
180 203 0
183 204 0
180 202 0
182 204 0
180 203 0
183 204 0
182 204 0
182 204 0
184 205 0
179 202 0
181 202 0
182 204 0
182 204 0
182 204 0
183 204 0
182 204 0
177 200 0
180 203 0
182 204 0
180 203 0
181 203 0
182 204 0
181 203 0
183 204 0
183 204 0
180 202 0
180 202 0
183 204 0
181 203 0
179 201 0
183 204 0
181 203 0
183 204 0
182 204 0
183 204 0
182 204 0
182 204 0
182 204 0
182 204 0
181 203 0
183 204 0
181 203 0
180 203 0
181 203 0
183 204 0
181 203 0
181 203 0
182 204 0
181 203 0
177 199 0
182 204 0
181 203 0
182 204 0
183 204 0
180 202 0
181 202 0
184 205 0
183 204 0
182 204 0
182 204 0
180 202 0
182 204 0
184 205 0
183 204 0
182 204 0
178 200 0
183 204 0
182 204 0
183 204 0
181 203 0
182 204 0
181 203 0
178 200 0
183 204 0
181 203 0
181 203 0
183 204 0
179 202 0
180 202 0
183 204 0
183 204 0
180 202 0
178 201 0
178 201 0
178 200 0
181 203 0
182 204 0
178 201 0
181 203 0
182 204 0
183 204 0
182 204 0
181 203 0
180 203 0
178 200 0
180 202 0
178 199 0
181 202 0
183 204 0
178 201 0
181 203 0
182 203 0
180 203 0
178 200 0
178 200 0
178 200 0
181 203 0
179 201 0
183 204 0
181 203 0
180 202 0
183 204 0
183 204 0
179 201 0
181 202 0
178 200 0
184 205 0
179 202 0
180 203 0
179 201 0
178 201 0
179 201 0
182 204 0
182 203 0
179 201 0
183 204 0
179 200 0
181 203 0
176 199 0
176 198 0
180 202 0
177 199 0
180 202 0
180 202 0
183 204 0
176 197 0
179 200 0
179 201 0
179 201 0
175 198 0
180 202 0
179 201 0
180 201 0
178 200 0
177 200 0
177 199 0
178 200 0
179 201 0
178 199 0
177 199 0
180 201 0
172 194 0
174 197 0
180 201 0
180 202 0
175 197 0
169 191 0
177 199 0
177 200 0
180 202 0
176 199 0
181 203 0
178 200 0
182 204 0
183 205 56
189 209 104
186 206 69
183 204 69
185 205 97
183 203 97
179 200 69
179 201 97
180 201 56
178 199 0
179 200 89
172 195 69
170 192 38
172 194 69
177 199 104
174 196 56
176 198 97
177 199 97
172 195 80
173 195 69
171 194 80
181 204 89
175 197 97
161 184 80
180 203 134
177 198 129
180 201 104
174 195 104
165 186 80
168 190 69
175 196 111
174 196 97
174 194 124
166 187 97
172 192 118
173 193 97
171 191 104
176 197 104
167 187 80
161 182 97
171 191 80
169 190 69
171 190 111
169 188 97
162 183 75
178 196 89
159 181 89
145 166 69
158 177 97
150 170 84
155 175 69
139 159 80
146 166 56
145 165 38
125 143 56
149 168 97
132 149 38
130 146 56
123 141 38
118 137 84
122 143 101
168 189 48
176 197 0
170 192 0
158 178 0
136 156 0
147 166 0
145 165 0
151 170 0
145 165 0
154 175 0
150 171 0
156 176 0
149 170 0
159 179 0
144 164 0
154 174 0
156 176 0
142 163 0
161 181 0
153 175 0
151 173 0
151 171 0
131 152 0
161 181 0
160 181 0
156 177 0
164 184 0
161 182 0
168 190 0
150 172 0
161 183 0
152 173 0
163 183 0
151 172 0
160 181 0
156 177 0
157 180 0
164 186 0
157 178 0
165 187 0
159 181 0
166 188 0
159 180 0
166 188 0
153 175 0
172 194 0
161 182 0
158 180 0
173 193 0
159 181 0
160 182 0
168 190 0
176 198 0
171 193 0
170 192 0
173 194 0
168 190 0
174 195 0
171 192 0
181 202 0
174 196 0
173 194 0
178 199 0
168 190 0
171 192 0
170 192 0
177 199 0
178 199 0
169 191 0
174 197 0
170 193 0
174 196 0
168 189 0
175 197 0
178 200 0
183 204 0
177 199 0
176 198 0
179 201 0
180 202 0
174 196 0
180 202 0
178 199 0
175 196 0
177 199 0
182 204 0
173 196 0
181 201 0
176 198 0
178 199 0
180 201 0
177 200 0
176 197 0
179 201 0
178 199 0
177 200 0
182 204 0
175 198 0
179 201 0
175 197 0
181 202 0
175 197 0
179 200 0
174 197 0
177 198 0
177 198 0
179 201 0
174 196 0
179 200 0
176 199 0
179 200 0
179 200 0
182 202 0
181 202 0
179 202 0
181 203 0
180 201 0
179 200 0
179 201 0
183 204 0
178 200 0
180 202 0
182 203 0
183 204 0
179 201 0
176 198 0
181 203 0
182 203 0
177 201 0
176 198 0
177 199 0
178 200 0
179 201 0
181 203 0
180 201 0
183 204 0
182 204 0
177 199 0
181 202 0
183 204 0
178 200 0
179 201 0
181 203 0
179 201 0
180 202 0
180 201 0
181 203 0
177 200 0
179 201 0
184 205 0
181 203 0
183 204 0
180 202 0
182 203 0
180 202 0
181 203 0
182 204 0
182 203 0
179 201 0
181 202 0
181 202 0
178 199 0
182 204 0
182 204 0
178 200 0
183 204 0
182 204 0
182 204 0
184 205 0
181 203 0
181 203 0
183 204 0
184 204 0
178 200 0
181 202 0
180 202 0
181 203 0
182 204 0
183 204 0
181 203 0
182 204 0
182 204 0
181 203 0
180 203 0
182 204 0
181 203 0
182 204 0
181 202 0
181 203 0
183 204 0
183 204 0
179 202 0
182 204 0
180 202 0
181 202 0
181 203 0
180 202 0
181 203 0
181 203 0
183 203 0
181 203 0
183 204 0
184 205 0
181 203 0
181 203 0
179 201 0
180 203 0
183 204 0
183 204 0
182 204 0
181 203 0
181 203 0
181 203 0
184 205 0
183 204 0
183 204 0
181 203 0
182 204 0
182 204 0
182 204 0
182 203 0
181 203 0
179 202 0
179 201 0
180 202 0
181 203 0
182 204 0
181 203 0
183 204 0
181 203 0
181 203 0
181 202 0
180 203 0
181 203 0
180 202 0
184 205 0
181 203 0
182 204 0
179 202 0
181 203 0
183 204 0
182 204 0
181 203 0
182 204 0
181 203 0
181 203 0
182 204 0
184 205 0
180 203 0
181 203 0
179 201 0
180 202 0
181 203 0
181 203 0
179 202 0
181 203 0
183 204 0
181 202 0
183 204 0
181 203 0
182 204 0
180 202 0
185 205 0
180 202 0
184 205 0
181 202 0
183 204 0
182 204 0
180 202 0
181 203 0
179 202 0
182 204 0
181 202 0
183 204 0
182 204 0
182 202 0
179 202 0
184 205 0
181 203 0
182 204 0
180 202 0
178 200 0
182 203 0
181 202 0
183 203 0
178 200 0
180 202 0
179 201 0
178 200 0
179 201 0
182 203 0
177 200 0
178 201 0
178 200 0
179 202 0
182 204 0
181 202 0
176 198 0
179 201 0
179 202 0
181 202 0
182 203 0
176 199 0
182 204 0
179 201 0
180 202 0
180 202 0
180 202 0
177 199 0
179 202 0
179 202 0
182 203 0
179 200 0
179 201 0
178 200 0
174 196 0
180 202 0
181 202 0
177 198 0
178 200 0
179 200 0
176 198 0
177 199 0
175 196 0
174 197 0
180 201 0
174 197 0
179 202 0
180 202 0
179 201 0
178 200 0
175 198 0
175 198 0
182 204 0
175 198 0
179 201 0
176 198 0
179 201 0
180 202 0
186 206 69
182 204 56
181 203 38
183 204 56
183 203 80
175 197 80
184 205 89
178 199 69
182 204 56
185 206 97
179 199 69
178 198 69
175 196 80
178 199 69
172 194 56
179 200 69
172 195 104
170 193 69
169 192 111
173 195 69
172 194 89
177 198 118
177 199 104
177 199 104
183 205 129
172 192 80
166 187 56
176 198 104
171 192 111
174 196 97
174 196 69
172 194 111
166 187 89
169 191 134
162 183 89
168 189 111
168 189 97
166 187 111
172 192 97
163 184 118
170 189 124
158 180 104
166 188 104
168 189 111
164 185 80
162 183 89
164 184 69
158 178 69
162 182 97
151 173 80
157 178 80
170 188 97
154 173 80
140 160 38
146 166 69
128 146 80
145 163 80
141 160 56
143 162 69
128 148 38
157 175 80
171 191 89
178 200 0
166 187 0
160 181 0
155 176 0
137 156 0
167 187 0
149 171 0
147 167 0
142 162 0
158 177 0
155 175 0
153 173 0
138 159 0
145 167 0
153 173 0
149 169 0
154 176 0
145 167 0
165 187 0
153 173 0
158 179 0
155 176 0
174 195 0
154 174 0
143 163 0
123 143 0
158 178 0
156 177 0
159 181 0
156 178 0
153 174 0
157 178 0
168 189 0
164 184 0
158 179 0
158 179 0
175 196 0
169 190 0
160 181 0
164 185 0
173 193 0
159 180 0
160 183 0
163 185 0
170 192 0
159 181 0
171 191 0
174 195 0
176 198 0
164 186 0
172 195 0
175 197 0
172 194 0
171 192 0
170 193 0
172 194 0
169 190 0
176 199 0
169 191 0
172 194 0
176 197 0
174 195 0
169 191 0
181 202 0
170 192 0
174 196 0
172 194 0
174 197 0
171 193 0
175 197 0
166 188 0
178 200 0
175 196 0
177 197 0
176 198 0
175 197 0
173 195 0
176 198 0
175 197 0
180 201 0
178 199 0
172 194 0
176 198 0
179 199 0
175 197 0
173 195 0
174 197 0
175 197 0
179 200 0
178 200 0
178 200 0
178 199 0
178 199 0
175 197 0
171 193 0
178 200 0
179 202 0
181 202 0
178 200 0
178 200 0
177 199 0
182 203 0
181 202 0
176 199 0
182 203 0
173 195 0
179 201 0
184 205 0
178 200 0
182 204 0
181 203 0
178 199 0
177 199 0
178 200 0
181 203 0
179 201 0
183 204 0
182 204 0
182 203 0
181 202 0
181 203 0
178 199 0
180 202 0
180 201 0
184 205 0
179 201 0
178 201 0
179 201 0
179 202 0
180 202 0
180 201 0
182 204 0
179 202 0
178 200 0
178 200 0
179 201 0
182 203 0
180 202 0
180 202 0
180 201 0
183 204 0
184 205 0
181 203 0
180 201 0
180 203 0
182 204 0
177 199 0
181 203 0
182 204 0
181 203 0
180 202 0
182 204 0
182 204 0
182 204 0
183 204 0
179 200 0
181 203 0
180 202 0
181 202 0
179 201 0
179 201 0
183 204 0
182 203 0
182 204 0
181 203 0
181 203 0
184 205 0
180 202 0
182 204 0
181 203 0
182 203 0
182 204 0
179 202 0
182 204 0
180 202 0
179 202 0
182 204 0
182 204 0
181 203 0
179 201 0
181 203 0
179 202 0
182 204 0
180 202 0
181 203 0
182 204 0
179 202 0
180 202 0
182 204 0
181 203 0
183 204 0
184 204 0
181 203 0
182 203 0
183 204 0
182 204 0
184 204 0
183 204 0
181 203 0
182 204 0
181 202 0
183 204 0
183 204 0
183 204 0
181 203 0
181 202 0
183 204 0
181 202 0
183 204 0
183 204 0
181 203 0
182 204 0
181 203 0
182 204 0
182 204 0
181 202 0
184 205 0
181 203 0
182 204 0
183 204 0
179 201 0
183 204 0
183 204 0
182 204 0
183 204 0
183 204 0
181 203 0
180 202 0
181 203 0
186 206 0
181 203 0
180 202 0
182 204 0
182 203 0
180 203 0
180 202 0
183 204 0
182 203 0
182 203 0
180 203 0
183 204 0
184 204 0
182 203 0
181 203 0
182 204 0
181 203 0
180 202 0
180 202 0
181 203 0
178 200 0
181 202 0
182 204 0
180 202 0
180 201 0
180 202 0
180 202 0
181 203 0
183 204 0
182 203 0
180 202 0
181 203 0
183 204 0
180 203 0
179 202 0
182 204 0
181 202 0
180 201 0
180 202 0
180 203 0
180 202 0
182 204 0
180 202 0
179 201 0
179 201 0
182 204 0
182 203 0
181 202 0
181 203 0
181 203 0
178 200 0
181 203 0
181 202 0
181 203 0
179 201 0
182 203 0
181 202 0
180 202 0
179 201 0
178 201 0
181 203 0
178 200 0
177 199 0
182 203 0
179 202 0
182 203 0
181 203 0
181 203 0
181 203 0
179 200 0
180 203 0
181 203 0
180 202 0
182 204 0
182 204 0
178 201 0
183 204 0
178 200 0
179 200 0
180 202 0
178 200 0
180 201 0
177 199 0
178 200 0
177 199 0
176 199 0
180 201 0
177 199 0
181 202 0
178 199 0
179 199 0
180 202 0
176 198 0
178 201 0
174 197 0
178 199 0
178 201 0
176 198 0
172 195 0
181 202 0
180 202 0
177 199 0
179 200 0
180 202 0
175 198 0
182 203 0
182 204 0
177 199 0
180 201 0
181 203 38
186 207 97
183 205 69
182 203 56
187 207 104
186 207 89
185 206 89
183 203 111
181 202 89
176 198 38
175 196 97
179 200 97
179 201 69
181 202 104
176 199 56
174 197 69
166 187 56
173 195 104
171 193 80
178 201 97
171 192 80
182 205 97
173 196 89
175 197 111
168 190 80
175 196 89
171 191 97
176 198 89
175 198 139
174 196 89
177 198 111
168 190 104
177 198 118
177 198 118
168 188 124
173 193 97
166 188 118
172 192 129
169 189 89
160 181 97
171 193 97
167 188 104
166 186 89
165 185 97
165 186 97
177 196 124
168 188 89
171 190 97
154 174 104
162 183 69
150 169 56
169 189 97
156 176 104
165 184 97
150 169 0
154 174 80
167 186 97
152 171 0
135 154 38
146 165 56
151 171 56
159 179 0
169 190 0
168 189 0
166 187 0
150 169 0
148 169 0
149 170 0
154 176 0
160 180 0
142 164 0
158 179 0
157 177 0
146 168 0
150 171 0
164 186 0
163 185 0
153 175 0
163 183 0
154 174 0
165 187 0
142 164 0
150 172 0
157 178 0
151 171 0
153 175 0
153 174 0
158 179 0
145 166 0
162 184 0
147 167 0
157 178 0
159 179 0
168 189 0
157 178 0
170 189 0
159 180 0
174 195 0
161 183 0
168 189 0
164 186 0
154 176 0
160 182 0
170 191 0
165 185 0
163 185 0
170 191 0
165 187 0
168 190 0
160 182 0
171 194 0
163 184 0
174 195 0
166 187 0
167 190 0
174 196 0
169 191 0
171 193 0
169 190 0
167 189 0
175 198 0
169 191 0
179 201 0
163 186 0
170 192 0
174 196 0
180 202 0
177 198 0
167 191 0
171 193 0
175 197 0
176 199 0
169 190 0
174 195 0
174 195 0
166 189 0
181 203 0
180 201 0
171 194 0
171 194 0
175 198 0
176 198 0
178 199 0
178 199 0
177 199 0
172 195 0
182 203 0
179 200 0
178 200 0
181 203 0
179 200 0
178 200 0
175 197 0
176 198 0
180 201 0
183 204 0
178 200 0
176 198 0
174 197 0
178 199 0
179 200 0
178 201 0
179 201 0
179 201 0
173 196 0
182 203 0
180 200 0
181 202 0
180 202 0
180 201 0
183 204 0
180 202 0
179 201 0
178 201 0
179 201 0
177 200 0
183 204 0
181 203 0
180 201 0
181 203 0
179 201 0
181 202 0
180 201 0
179 200 0
184 205 0
181 202 0
181 203 0
177 199 0
179 201 0
183 203 0
179 201 0
181 203 0
179 202 0
180 203 0
182 204 0
181 202 0
182 204 0
182 204 0
181 202 0
184 205 0
180 202 0
182 203 0
181 202 0
181 203 0
179 202 0
181 202 0
181 203 0
181 203 0
181 202 0
184 205 0
179 201 0
183 204 0
181 203 0
178 201 0
182 203 0
182 204 0
182 203 0
181 202 0
179 202 0
180 202 0
180 202 0
181 202 0
182 203 0
179 201 0
183 204 0
180 203 0
180 203 0
185 205 0
182 203 0
181 203 0
182 204 0
181 203 0
181 203 0
177 200 0
181 203 0
180 203 0
184 205 0
185 205 0
182 204 0
180 202 0
179 202 0
180 202 0
183 204 0
179 201 0
180 202 0
183 204 0
177 199 0
181 203 0
181 202 0
181 202 0
185 205 0
183 204 0
181 202 0
180 203 0
182 204 0
178 201 0
184 205 0
182 204 0
183 204 0
183 204 0
181 203 0
184 205 0
180 203 0
177 201 0
181 203 0
183 204 0
183 204 0
181 203 0
182 204 0
184 204 0
180 202 0
182 204 0
182 203 0
182 204 0
183 204 0
180 203 0
180 203 0
181 203 0
180 203 0
182 203 0
184 205 0
182 204 0
184 205 0
181 203 0
180 203 0
181 203 0
180 202 0
181 203 0
181 203 0
183 204 0
182 204 0
181 203 0
181 203 0
179 201 0
184 205 0
181 203 0
182 204 0
178 200 0
181 202 0
182 204 0
181 203 0
181 203 0
180 203 0
181 203 0
183 204 0
184 204 0
179 202 0
183 204 0
181 202 0
181 203 0
178 200 0
179 200 0
182 204 0
183 204 0
180 203 0
181 203 0
178 201 0
183 204 0
181 203 0
179 201 0
180 203 0
180 202 0
181 203 0
184 205 0
182 204 0
182 203 0
183 204 0
178 201 0
183 204 0
183 204 0
179 201 0
178 201 0
181 203 0
185 205 0
181 202 0
181 203 0
179 201 0
181 203 0
178 201 0
180 203 0
183 204 0
180 202 0
179 201 0
182 204 0
179 200 0
182 203 0
182 204 0
179 202 0
181 202 0
180 202 0
180 201 0
178 199 0
179 201 0
178 199 0
182 204 0
178 200 0
178 200 0
178 201 0
180 202 0
178 201 0
181 203 0
179 201 0
180 203 0
181 203 0
180 202 0
178 201 0
178 199 0
174 196 0
178 200 0
176 198 0
180 202 0
178 200 0
182 203 0
180 202 0
174 196 0
181 202 0
181 202 0
176 198 0
178 200 0
176 197 0
180 203 0
178 200 0
175 198 0
172 194 0
179 201 0
179 201 0
177 199 0
179 201 0
182 203 0
174 196 0
176 198 0
178 199 0
177 199 0
174 195 0
179 201 0
180 202 0
179 201 0
179 201 0
180 202 0
181 203 38
179 202 0
186 207 80
180 202 56
182 202 111
181 201 97
180 201 38
184 205 111
175 197 80
183 204 97
179 200 80
174 196 80
177 199 56
176 197 80
176 199 69
170 193 97
175 197 89
177 200 80
177 199 69
179 202 111
176 197 97
178 200 111
174 196 80
186 208 139
165 187 104
179 201 118
172 192 89
175 196 118
171 193 134
171 192 97
174 195 118
174 195 118
162 183 56
171 192 111
174 194 111
169 190 111
168 188 111
163 184 97
164 184 104
163 185 118
178 199 144
165 186 124
162 182 97
170 191 111
169 189 134
167 186 118
166 186 104
163 182 97
159 179 118
164 183 97
161 182 80
148 169 38
157 177 69
164 184 89
155 175 97
142 162 56
159 178 124
164 183 80
155 174 97
151 169 97
155 175 38
153 173 69
140 160 38
167 186 38
171 193 0
176 198 0
166 186 0
143 164 0
164 185 0
161 181 0
159 179 0
165 186 0
141 161 0
149 170 0
154 175 0
157 178 0
152 173 0
148 169 0
154 175 0
163 183 0
155 175 0
154 176 0
144 164 0
163 184 0
141 161 0
155 176 0
158 179 0
151 173 0
154 175 0
164 185 0
166 188 0
161 182 0
166 187 0
165 188 0
155 176 0
156 177 0
151 172 0
166 186 0
167 190 0
170 192 0
166 187 0
158 181 0
168 189 0
163 184 0
172 195 0
155 177 0
167 188 0
165 186 0
164 186 0
175 195 0
165 187 0
173 193 0
173 193 0
173 195 0
165 187 0
177 198 0
175 196 0
168 189 0
173 195 0
176 198 0
172 193 0
175 197 0
173 195 0
168 189 0
176 198 0
170 193 0
172 195 0
176 198 0
177 199 0
171 193 0
169 192 0
172 194 0
171 194 0
176 199 0
169 191 0
170 192 0
175 196 0
172 194 0
177 199 0
177 200 0
176 197 0
176 198 0
179 201 0
179 200 0
181 202 0
172 194 0
174 197 0
180 201 0
177 199 0
178 200 0
175 198 0
179 201 0
182 204 0
181 203 0
179 201 0
176 199 0
178 198 0
177 199 0
178 201 0
180 201 0
178 199 0
177 199 0
178 199 0
179 201 0
181 203 0
182 204 0
180 202 0
176 197 0
180 201 0
178 200 0
181 203 0
177 199 0
179 202 0
182 204 0
182 204 0
181 202 0
179 201 0
180 202 0
178 201 0
181 202 0
181 203 0
183 204 0
181 203 0
179 200 0
174 196 0
182 204 0
181 203 0
182 203 0
181 203 0
178 201 0
181 202 0
181 203 0
181 203 0
177 200 0
177 199 0
183 204 0
184 205 0
184 204 0
182 204 0
181 202 0
182 203 0
179 200 0
181 203 0
182 203 0
182 204 0
181 203 0
180 202 0
182 204 0
179 202 0
180 203 0
180 203 0
180 202 0
181 202 0
179 201 0
183 204 0
182 203 0
182 204 0
183 204 0
182 204 0
179 202 0
180 201 0
182 203 0
181 203 0
181 202 0
184 205 0
183 204 0
180 202 0
183 204 0
181 203 0
181 203 0
181 203 0
181 203 0
180 203 0
181 203 0
182 204 0
177 199 0
181 203 0
182 204 0
182 204 0
183 204 0
183 204 0
181 203 0
179 202 0
182 204 0
182 204 0
181 203 0
181 203 0
181 203 0
182 203 0
181 203 0
180 203 0
182 203 0
180 202 0
183 203 0
183 204 0
182 203 0
183 204 0
184 205 0
181 202 0
182 203 0
182 204 0
179 202 0
182 204 0
183 204 0
182 204 0
181 203 0
183 204 0
180 202 0
181 203 0
183 204 0
182 204 0
182 203 0
180 203 0
183 204 0
184 205 0
182 204 0
182 204 0
181 203 0
182 204 0
182 204 0
176 198 0
182 204 0
182 204 0
182 203 0
181 203 0
180 202 0
181 203 0
181 203 0
178 201 0
182 204 0
181 203 0
181 202 0
183 204 0
183 204 0
183 204 0
184 205 0
183 204 0
180 202 0
181 203 0
181 203 0
182 204 0
179 201 0
183 204 0
181 203 0
180 202 0
181 203 0
182 204 0
182 204 0
180 200 0
182 204 0
183 204 0
182 204 0
182 204 0
181 202 0
181 202 0
182 204 0
180 203 0
181 203 0
182 203 0
180 203 0
181 203 0
182 204 0
182 204 0
181 203 0
180 201 0
181 203 0
181 203 0
180 201 0
179 201 0
181 203 0
183 204 0
183 204 0
181 203 0
181 203 0
178 200 0
181 202 0
182 203 0
183 203 0
181 203 0
181 203 0
179 202 0
178 201 0
178 201 0
176 198 0
178 200 0
179 202 0
183 204 0
180 203 0
181 203 0
179 202 0
182 203 0
179 202 0
179 200 0
181 203 0
183 204 0
179 201 0
183 204 0
180 202 0
177 199 0
178 200 0
180 202 0
178 201 0
181 203 0
176 200 0
180 202 0
180 202 0
179 202 0
180 202 0
179 202 0
176 197 0
179 201 0
178 199 0
179 202 0
179 201 0
177 199 0
181 203 0
183 203 0
171 193 0
177 200 0
178 201 0
181 203 0
178 200 0
175 197 0
182 203 0
179 201 0
182 203 0
178 199 0
181 202 0
177 198 0
175 197 0
175 197 0
175 197 0
175 197 0
175 197 0
176 199 0
180 203 0
181 203 0
177 199 0
173 195 0
178 201 38
183 204 69
177 199 38
180 201 38
187 207 89
180 202 80
177 198 56
179 200 80
181 202 97
176 198 80
178 200 104
181 202 89
181 202 89
182 203 80
176 197 69
180 203 97
176 199 80
174 196 69
177 199 80
184 205 89
180 201 69
179 200 104
173 195 104
168 191 97
177 197 129
176 197 80
178 198 104
173 195 80
172 194 104
172 194 97
174 195 111
180 201 89
175 197 97
164 185 111
173 195 97
165 186 69
171 192 97
170 191 97
163 183 104
170 192 124
178 198 118
169 189 89
184 204 149
162 182 111
157 177 80
181 201 153
167 187 69
162 181 104
161 183 124
157 176 97
164 183 89
165 185 118
162 182 80
149 169 97
166 186 69
160 180 104
151 170 0
162 181 80
149 168 97
165 185 89
162 181 80
151 171 56
134 155 38
159 178 56
159 180 0
168 190 0
166 187 0
166 188 0
167 187 0
160 181 0
158 180 0
153 173 0
167 188 0
153 173 0
158 179 0
154 175 0
159 180 0
157 178 0
171 192 0
141 162 0
156 176 0
153 175 0
165 185 0
155 177 0
159 179 0
162 184 0
159 181 0
158 178 0
154 176 0
150 173 0
163 184 0
145 167 0
157 178 0
147 168 0
161 183 0
165 187 0
166 188 0
153 175 0
172 193 0
164 187 0
164 186 0
171 193 0
166 188 0
165 187 0
163 184 0
164 185 0
168 188 0
171 193 0
165 187 0
169 191 0
163 184 0
177 197 0
167 190 0
171 192 0
175 198 0
165 187 0
165 186 0
170 193 0
162 183 0
177 198 0
169 190 0
172 193 0
166 189 0
174 196 0
176 199 0
170 193 0
174 196 0
168 188 0
176 198 0
175 196 0
173 194 0
174 196 0
175 196 0
176 198 0
177 199 0
168 191 0
178 200 0
178 200 0
176 198 0
176 198 0
180 201 0
179 201 0
169 191 0
172 194 0
181 203 0
173 195 0
179 201 0
179 202 0
176 198 0
180 201 0
173 196 0
180 201 0
175 198 0
183 204 0
178 200 0
180 201 0
178 199 0
180 201 0
180 202 0
176 198 0
179 201 0
177 199 0
180 201 0
172 195 0
181 203 0
180 202 0
177 199 0
176 199 0
179 200 0
180 201 0
179 201 0
179 201 0
182 204 0
183 204 0
177 198 0
178 200 0
179 202 0
183 204 0
181 202 0
176 198 0
183 204 0
181 203 0
181 203 0
177 199 0
178 200 0
181 203 0
181 203 0
181 203 0
180 202 0
182 204 0
181 202 0
180 202 0
180 203 0
181 203 0
181 203 0
179 201 0
184 204 0
179 201 0
181 203 0
181 203 0
180 202 0
180 202 0
184 205 0
180 203 0
181 203 0
179 201 0
179 201 0
182 203 0
180 203 0
180 202 0
181 203 0
182 204 0
180 202 0
179 201 0
180 203 0
182 203 0
178 201 0
183 204 0
179 202 0
181 201 0
182 204 0
184 205 0
179 201 0
180 202 0
181 203 0
180 202 0
181 203 0
182 204 0
179 201 0
178 201 0
182 204 0
181 203 0
180 202 0
183 204 0
181 203 0
183 204 0
183 204 0
181 202 0
179 202 0
181 203 0
183 203 0
182 203 0
180 202 0
182 204 0
179 201 0
182 204 0
180 202 0
182 204 0
181 203 0
180 203 0
184 205 0
182 204 0
181 203 0
183 204 0
184 204 0
180 202 0
182 203 0
180 203 0
180 202 0
182 203 0
181 203 0
182 204 0
185 205 0
182 204 0
184 205 0
181 202 0
180 202 0
178 200 0
181 203 0
181 203 0
179 201 0
182 204 0
181 203 0
183 204 0
181 203 0
182 204 0
182 204 0
180 202 0
183 204 0
182 204 0
182 204 0
180 202 0
180 203 0
182 204 0
181 202 0
183 204 0
181 203 0
182 204 0
182 204 0
182 204 0
181 203 0
181 203 0
183 204 0
181 203 0
184 205 0
177 200 0
183 204 0
181 203 0
179 202 0
181 203 0
181 203 0
180 202 0
181 203 0
180 203 0
181 203 0
183 204 0
182 203 0
180 202 0
179 200 0
183 204 0
183 204 0
182 204 0
184 205 0
182 204 0
181 203 0
180 203 0
183 203 0
181 203 0
182 204 0
183 204 0
182 204 0
182 204 0
184 205 0
181 203 0
182 204 0
181 203 0
182 204 0
182 204 0
181 202 0
184 205 0
181 203 0
181 202 0
178 201 0
182 204 0
181 202 0
180 202 0
182 203 0
179 200 0
181 203 0
183 204 0
180 202 0
181 202 0
178 201 0
178 200 0
181 203 0
180 202 0
181 202 0
180 202 0
181 203 0
180 203 0
178 201 0
181 203 0
180 202 0
178 201 0
179 201 0
180 202 0
178 200 0
180 201 0
180 203 0
180 202 0
180 202 0
182 204 0
180 202 0
179 201 0
176 198 0
181 203 0
181 202 0
182 203 0
181 203 0
180 203 0
179 202 0
178 200 0
182 203 0
178 200 0
178 200 0
178 200 0
181 202 0
179 202 0
180 202 0
179 201 0
181 203 0
181 203 0
177 199 0
174 196 0
173 195 0
174 197 0
182 203 0
180 201 0
177 199 0
177 199 0
178 201 0
174 196 0
179 201 0
179 201 0
178 200 0
180 202 0
180 202 0
180 201 0
177 199 0
181 202 0
181 202 56
183 204 56
184 205 56
183 203 69
179 200 56
183 204 97
175 196 56
181 202 56
183 204 89
182 203 111
189 210 124
182 203 104
184 205 89
169 191 80
182 204 89
177 198 56
183 204 80
176 199 97
185 206 104
170 191 80
176 197 111
178 199 118
184 205 111
177 198 97
172 193 89
182 202 80
178 199 111
175 196 97
171 192 104
174 196 111
175 195 80
171 193 111
171 192 111
164 185 89
167 188 89
170 192 118
173 194 111
178 199 111
177 198 108
171 192 89
174 196 134
178 199 80
170 191 124
168 190 89
169 190 104
165 185 111
167 188 97
162 182 97
168 189 89
170 190 124
174 193 139
162 182 89
161 181 111
166 187 111
153 173 89
169 188 97
162 183 56
167 186 89
157 177 89
161 180 97
159 179 69
138 159 56
152 172 56
153 173 0
161 182 56
172 194 0
179 201 0
166 189 0
156 178 0
152 174 0
166 187 0
150 172 0
155 175 0
159 181 0
163 182 0
149 169 0
170 191 0
156 178 0
156 178 0
161 180 0
155 176 0
152 173 0
155 176 0
154 174 0
163 185 0
170 191 0
158 179 0
164 187 0
164 185 0
165 188 0
152 173 0
162 183 0
156 177 0
159 181 0
162 183 0
168 190 0
165 187 0
169 191 0
164 185 0
169 190 0
157 178 0
167 188 0
175 195 0
171 192 0
157 179 0
172 194 0
173 195 0
162 184 0
158 181 0
157 179 0
161 181 0
170 192 0
169 191 0
166 189 0
174 195 0
174 196 0
169 191 0
172 194 0
162 184 0
169 190 0
162 185 0
172 194 0
175 197 0
173 196 0
173 196 0
175 196 0
175 195 0
171 193 0
172 194 0
169 192 0
178 200 0
168 189 0
175 196 0
174 196 0
165 187 0
176 197 0
178 200 0
175 196 0
177 200 0
176 198 0
174 194 0
178 199 0
178 200 0
177 199 0
176 199 0
174 196 0
180 202 0
170 191 0
182 203 0
180 202 0
177 198 0
176 198 0
179 201 0
182 204 0
177 198 0
180 202 0
179 201 0
182 204 0
177 198 0
180 202 0
179 201 0
177 200 0
178 200 0
178 199 0
176 197 0
182 204 0
181 203 0
181 203 0
179 201 0
177 200 0
182 203 0
177 198 0
172 194 0
174 196 0
180 203 0
181 203 0
177 200 0
182 204 0
177 200 0
175 197 0
180 203 0
179 201 0
180 201 0
180 202 0
180 202 0
181 202 0
181 202 0
181 202 0
179 200 0
181 203 0
179 201 0
178 200 0
182 204 0
181 203 0
179 202 0
182 204 0
182 204 0
180 202 0
179 202 0
179 201 0
183 204 0
181 202 0
180 202 0
179 202 0
180 202 0
182 204 0
183 204 0
182 203 0
180 202 0
182 204 0
179 200 0
182 204 0
179 201 0
180 202 0
181 203 0
181 203 0
180 202 0
182 203 0
179 202 0
181 203 0
180 201 0
183 204 0
180 202 0
182 204 0
179 201 0
181 202 0
182 204 0
181 202 0
182 203 0
186 206 0
179 201 0
184 204 0
183 204 0
180 203 0
183 204 0
183 204 0
182 203 0
177 199 0
180 203 0
181 203 0
181 202 0
182 204 0
181 203 0
183 204 0
182 204 0
183 204 0
184 205 0
180 202 0
182 203 0
183 204 0
180 202 0
181 203 0
181 202 0
183 204 0
182 204 0
178 201 0
182 204 0
180 202 0
180 202 0
183 204 0
181 203 0
181 203 0
182 204 0
179 202 0
181 203 0
183 204 0
180 203 0
184 204 0
180 203 0
180 202 0
182 204 0
181 203 0
182 204 0
182 204 0
182 203 0
184 205 0
180 203 0
183 204 0
185 205 0
181 203 0
180 202 0
179 202 0
181 203 0
180 202 0
180 202 0
178 202 0
180 203 0
178 201 0
178 200 0
183 204 0
180 202 0
180 202 0
180 202 0
184 205 0
181 203 0
183 204 0
180 203 0
184 205 0
181 203 0
180 202 0
184 205 0
182 204 0
181 203 0
180 202 0
179 201 0
182 204 0
182 203 0
180 202 0
179 202 0
183 204 0
182 204 0
182 203 0
182 204 0
181 202 0
184 205 0
181 202 0
183 204 0
179 201 0
179 202 0
180 203 0
179 201 0
182 203 0
182 203 0
180 202 0
182 204 0
178 201 0
179 201 0
182 204 0
180 203 0
180 202 0
182 204 0
183 204 0
178 200 0
180 202 0
181 203 0
181 203 0
181 203 0
180 201 0
180 202 0
180 202 0
182 203 0
179 202 0
181 202 0
177 200 0
180 203 0
179 201 0
178 200 0
179 202 0
182 204 0
182 204 0
180 203 0
182 203 0
179 200 0
181 203 0
179 201 0
182 203 0
180 202 0
179 202 0
180 202 0
177 199 0
179 202 0
181 203 0
180 201 0
173 195 0
180 202 0
181 203 0
173 195 0
182 204 0
175 198 0
174 197 0
176 197 0
181 203 0
179 201 0
180 201 0
176 198 0
180 202 0
178 200 0
181 203 0
176 199 0
173 195 0
176 198 0
182 204 0
176 198 0
178 200 0
183 203 0
168 190 0
181 203 0
179 201 0
174 196 0
177 198 0
176 198 0
179 201 0
177 199 0
178 200 0
177 198 0
177 200 0
177 199 0
180 200 0
178 201 0
181 203 0
186 207 80
181 204 56
179 202 0
180 201 56
179 200 38
180 202 56
180 202 89
181 202 69
176 198 38
182 204 38
181 203 89
179 200 104
174 196 56
168 190 69
175 196 97
181 202 69
176 199 80
176 198 89
172 195 80
174 195 89
181 203 134
171 192 89
172 193 97
171 192 97
175 197 104
183 204 118
175 197 111
179 201 139
174 194 80
173 194 118
166 186 80
170 190 89
172 193 97
171 193 111
169 190 97
170 192 118
173 195 158
168 190 104
179 201 139
174 194 104
172 193 104
173 194 111
169 189 104
171 191 97
169 191 134
161 184 89
163 184 111
172 191 97
163 183 104
168 190 104
159 178 104
171 192 80
151 171 89
169 188 111
157 177 104
155 175 97
164 184 89
157 177 38
165 184 111
159 178 69
171 190 80
146 166 56
157 176 69
163 182 38
165 184 69
178 198 38
178 199 0
172 193 0
162 184 0
158 180 0
156 177 0
161 182 0
152 172 0
163 185 0
164 185 0
160 182 0
163 182 0
154 175 0
159 179 0
159 181 0
157 178 0
167 188 0
156 178 0
166 187 0
160 181 0
162 183 0
166 187 0
160 182 0
164 184 0
161 182 0
151 173 0
156 178 0
171 194 0
168 188 0
170 192 0
159 181 0
156 178 0
165 188 0
159 180 0
163 186 0
172 193 0
158 181 0
169 192 0
171 192 0
158 179 0
164 187 0
160 183 0
171 193 0
164 186 0
161 183 0
161 184 0
170 191 0
169 191 0
171 192 0
171 193 0
170 193 0
170 192 0
172 195 0
169 191 0
174 196 0
173 195 0
169 191 0
175 197 0
177 198 0
181 203 0
170 192 0
170 192 0
181 203 0
177 200 0
171 192 0
170 192 0
165 188 0
176 199 0
177 199 0
172 194 0
167 189 0
174 196 0
176 197 0
177 199 0
178 198 0
177 199 0
176 197 0
176 198 0
180 202 0
180 201 0
181 202 0
176 199 0
178 200 0
173 195 0
179 201 0
180 201 0
176 198 0
178 200 0
178 200 0
178 200 0
180 202 0
176 197 0
179 201 0
176 199 0
181 202 0
181 203 0
178 200 0
180 202 0
178 200 0
180 203 0
178 199 0
180 203 0
182 204 0
178 201 0
180 202 0
177 199 0
174 196 0
182 203 0
181 203 0
180 203 0
179 201 0
182 203 0
180 203 0
179 201 0
182 204 0
184 205 0
181 203 0
179 201 0
182 204 0
181 202 0
181 203 0
182 203 0
182 203 0
182 203 0
180 202 0
184 205 0
184 204 0
177 199 0
183 204 0
178 200 0
178 200 0
182 204 0
178 200 0
180 201 0
182 203 0
181 203 0
180 203 0
179 201 0
181 203 0
182 204 0
184 205 0
182 204 0
184 205 0
178 200 0
181 203 0
179 201 0
181 203 0
181 203 0
182 203 0
181 203 0
181 203 0
181 202 0
182 204 0
181 202 0
178 201 0
180 203 0
182 204 0
181 203 0
182 204 0
179 201 0
179 202 0
181 202 0
183 204 0
181 203 0
182 203 0
184 205 0
181 203 0
180 202 0
181 202 0
182 204 0
178 201 0
183 204 0
182 204 0
181 203 0
181 203 0
181 203 0
182 204 0
183 204 0
182 204 0
182 204 0
184 204 0
180 203 0
179 201 0
182 203 0
182 203 0
180 202 0
178 201 0
181 203 0
183 204 0
183 204 0
181 203 0
181 202 0
184 205 0
182 203 0
182 203 0
180 201 0
181 202 0
180 202 0
184 205 0
183 204 0
181 203 0
181 203 0
182 204 0
177 200 0
183 204 0
183 204 0
181 203 0
182 204 0
180 202 0
184 205 0
182 204 0
180 202 0
182 204 0
181 203 0
182 204 0
182 204 0
181 203 0
180 203 0
181 203 0
180 202 0
179 201 0
181 203 0
180 201 0
182 204 0
181 203 0
180 202 0
181 203 0
183 204 0
182 204 0
180 202 0
183 204 0
184 205 0
178 201 0
181 203 0
181 203 0
182 204 0
182 204 0
181 203 0
183 204 0
181 202 0
179 201 0
182 204 0
184 205 0
180 202 0
183 204 0
182 204 0
179 202 0
183 204 0
181 203 0
182 203 0
182 203 0
181 203 0
179 200 0
182 204 0
185 206 0
183 203 0
180 202 0
180 202 0
181 203 0
178 200 0
181 203 0
181 203 0
178 200 0
183 204 0
182 204 0
184 204 0
176 199 0
179 201 0
179 201 0
181 203 0
179 201 0
181 203 0
182 203 0
180 202 0
184 205 0
180 202 0
180 202 0
182 203 0
181 202 0
178 201 0
180 201 0
181 203 0
184 205 0
182 203 0
178 200 0
181 202 0
182 204 0
180 203 0
182 204 0
180 203 0
181 203 0
179 201 0
179 201 0
180 201 0
178 200 0
180 201 0
179 202 0
179 201 0
180 202 0
182 203 0
183 204 0
179 201 0
181 203 0
179 202 0
183 204 0
179 201 0
180 201 0
175 198 0
172 194 0
179 201 0
179 201 0
180 202 0
180 203 0
171 194 0
172 195 0
179 200 0
174 197 0
175 196 0
180 201 0
178 200 0
180 201 0
175 197 0
179 200 0
179 201 0
177 198 0
176 199 0
173 195 0
179 201 0
175 196 0
177 199 0
177 199 0
185 206 0
175 198 0
180 201 0
182 203 38
185 206 69
183 204 69
185 206 56
186 206 97
178 200 56
180 201 69
180 201 69
181 202 89
183 204 80
181 201 80
176 198 80
174 195 97
181 203 69
179 201 80
185 206 69
181 203 89
175 197 69
175 198 89
174 196 124
174 197 80
183 204 118
173 194 124
175 197 80
177 198 111
177 200 129
176 197 80
181 203 124
177 198 89
175 196 104
177 199 124
179 200 118
178 200 124
167 189 97
168 188 80
175 196 97
161 182 97
179 200 137
172 194 118
164 184 69
166 188 104
171 191 111
170 191 124
170 192 114
173 193 84
179 200 124
165 186 111
168 188 111
165 185 104
157 177 111
173 192 104
163 183 124
163 183 111
173 192 124
165 184 118
171 190 104
153 172 38
172 192 89
152 173 69
154 174 80
165 185 89
159 178 97
168 187 89
158 178 56
162 181 97
147 168 56
154 175 38
175 197 0
171 193 0
168 189 0
173 194 0
168 189 0
155 176 0
150 170 0
157 179 0
160 182 0
161 182 0
155 176 0
155 177 0
162 183 0
169 190 0
154 175 0
156 178 0
167 187 0
160 182 0
163 185 0
155 178 0
169 190 0
170 191 0
152 173 0
152 173 0
165 187 0
155 176 0
164 184 0
157 180 0
168 189 0
168 190 0
157 179 0
157 178 0
159 182 0
163 185 0
168 191 0
166 187 0
163 185 0
172 194 0
172 194 0
174 194 0
172 193 0
168 191 0
171 194 0
159 181 0
167 189 0
175 197 0
166 188 0
164 187 0
162 184 0
176 198 0
175 197 0
171 193 0
171 193 0
171 193 0
169 190 0
170 192 0
170 192 0
173 195 0
173 195 0
166 189 0
169 191 0
177 198 0
178 200 0
172 195 0
172 194 0
176 198 0
170 192 0
168 190 0
176 198 0
173 194 0
178 200 0
170 192 0
176 197 0
173 193 0
176 198 0
174 196 0
173 195 0
171 194 0
176 197 0
176 198 0
179 201 0
179 201 0
174 196 0
181 202 0
181 202 0
176 197 0
176 198 0
181 203 0
180 201 0
176 197 0
180 203 0
179 202 0
178 200 0
179 200 0
179 202 0
180 201 0
182 202 0
178 200 0
181 203 0
176 198 0
177 199 0
181 202 0
182 203 0
182 203 0
180 202 0
180 201 0
178 199 0
180 202 0
177 199 0
180 202 0
184 205 0
181 202 0
178 200 0
178 201 0
180 202 0
181 203 0
174 197 0
177 201 0
182 203 0
180 203 0
181 203 0
183 203 0
179 201 0
180 201 0
178 200 0
179 201 0
183 204 0
181 203 0
180 203 0
181 202 0
183 204 0
180 202 0
180 201 0
182 203 0
180 202 0
181 202 0
179 201 0
182 204 0
179 200 0
181 202 0
180 203 0
179 202 0
179 202 0
182 204 0
181 203 0
180 202 0
184 205 0
180 203 0
178 200 0
182 203 0
181 203 0
180 202 0
181 202 0
181 203 0
181 203 0
181 203 0
181 203 0
181 202 0
182 203 0
180 202 0
181 203 0
180 202 0
184 205 0
183 204 0
180 203 0
182 203 0
180 202 0
181 203 0
182 204 0
183 204 0
178 201 0
181 203 0
183 204 0
183 204 0
182 204 0
183 204 0
179 202 0
180 202 0
180 202 0
180 202 0
180 202 0
183 204 0
182 203 0
181 203 0
182 204 0
183 204 0
181 203 0
182 204 0
181 202 0
183 204 0
183 204 0
184 205 0
182 204 0
181 203 0
182 204 0
182 204 0
183 204 0
182 204 0
180 203 0
183 204 0
183 204 0
183 204 0
182 203 0
183 204 0
182 203 0
180 203 0
182 203 0
181 203 0
181 203 0
179 201 0
182 204 0
179 201 0
183 204 0
180 203 0
183 204 0
180 202 0
182 203 0
182 203 0
180 203 0
179 201 0
180 203 0
182 204 0
181 203 0
182 204 0
180 203 0
181 203 0
181 203 0
182 204 0
181 202 0
182 204 0
185 205 0
181 203 0
182 204 0
183 204 0
182 204 0
179 202 0
178 199 0
183 204 0
182 203 0
183 204 0
184 205 0
181 203 0
183 204 0
177 200 0
183 204 0
183 204 0
185 205 0
179 201 0
181 203 0
181 203 0
181 203 0
181 203 0
183 204 0
176 199 0
182 203 0
183 204 0
182 204 0
183 204 0
182 204 0
180 203 0
182 203 0
182 204 0
181 203 0
182 204 0
179 201 0
182 204 0
181 203 0
180 202 0
181 203 0
181 203 0
183 204 0
180 203 0
181 203 0
181 203 0
180 202 0
181 202 0
183 204 0
179 202 0
178 200 0
177 200 0
184 205 0
183 204 0
178 201 0
181 203 0
182 204 0
180 202 0
180 202 0
182 204 0
180 202 0
181 203 0
177 198 0
181 203 0
181 202 0
179 202 0
181 202 0
178 199 0
182 204 0
175 197 0
180 202 0
179 201 0
179 202 0
180 202 0
180 203 0
181 203 0
180 201 0
179 201 0
180 202 0
179 201 0
178 201 0
180 203 0
175 199 0
178 200 0
178 200 0
183 204 0
180 201 0
175 198 0
181 203 0
178 199 0
176 198 0
174 197 0
173 195 0
176 198 0
175 197 0
181 202 0
177 199 0
179 202 0
176 198 0
176 198 0
180 202 0
179 200 0
182 204 0
182 204 0
183 204 0
180 203 0
183 205 56
184 205 69
183 204 38
181 202 97
181 202 56
185 206 69
181 202 80
181 201 69
182 203 97
176 198 89
175 197 80
177 198 80
171 193 89
179 201 56
168 191 38
179 201 118
171 193 89
182 203 111
176 198 97
179 199 104
181 202 97
183 204 129
174 196 104
174 196 111
176 199 104
181 203 111
179 199 104
171 194 111
175 198 118
169 190 104
169 190 111
164 185 56
161 181 89
180 201 129
171 193 97
173 196 118
179 201 104
170 191 124
177 197 111
165 185 89
168 189 111
175 196 89
160 182 101
176 196 89
166 186 97
164 184 118
173 193 89
169 190 129
162 182 104
166 186 111
171 191 104
166 186 80
161 180 104
169 187 111
169 189 124
150 170 89
165 186 89
159 179 38
163 183 56
162 182 89
167 187 89
148 168 69
162 182 69
166 188 69
155 173 97
155 176 38
172 194 0
167 188 0
166 187 0
168 189 0
160 182 0
166 188 0
154 176 0
160 179 0
160 180 0
158 180 0
160 181 0
167 188 0
165 186 0
162 183 0
163 184 0
158 181 0
145 167 0
158 179 0
166 188 0
161 182 0
159 181 0
168 189 0
164 184 0
157 178 0
168 188 0
172 193 0
166 188 0
161 181 0
166 188 0
159 179 0
160 182 0
168 189 0
169 190 0
165 185 0
171 194 0
168 190 0
168 189 0
169 192 0
174 195 0
173 196 0
162 185 0
168 190 0
177 199 0
177 198 0
170 191 0
169 190 0
157 179 0
164 186 0
170 192 0
171 192 0
168 190 0
174 196 0
167 189 0
169 191 0
169 191 0
169 191 0
172 194 0
173 195 0
171 192 0
176 199 0
175 195 0
179 201 0
166 189 0
175 197 0
177 199 0
175 197 0
173 194 0
173 195 0
170 192 0
167 191 0
177 199 0
178 200 0
173 193 0
176 199 0
176 198 0
180 201 0
172 194 0
183 204 0
172 194 0
177 200 0
178 199 0
181 202 0
177 198 0
175 197 0
177 199 0
180 201 0
174 197 0
178 199 0
177 199 0
178 200 0
180 202 0
180 201 0
180 202 0
182 204 0
177 199 0
178 200 0
179 201 0
181 203 0
180 201 0
175 197 0
183 203 0
179 201 0
181 202 0
184 204 0
179 202 0
180 203 0
178 199 0
174 196 0
181 203 0
180 202 0
182 203 0
182 204 0
180 202 0
182 203 0
180 202 0
182 203 0
183 204 0
181 202 0
181 203 0
182 204 0
179 200 0
183 204 0
179 201 0
178 199 0
180 202 0
182 203 0
181 203 0
181 202 0
178 200 0
179 201 0
177 200 0
179 201 0
180 202 0
181 203 0
181 203 0
184 205 0
181 203 0
180 202 0
183 204 0
182 204 0
180 202 0
182 204 0
184 205 0
182 204 0
182 204 0
183 203 0
179 201 0
183 204 0
178 200 0
179 201 0
180 203 0
184 205 0
181 203 0
182 203 0
182 204 0
178 199 0
180 203 0
181 203 0
181 203 0
178 200 0
184 205 0
180 202 0
182 204 0
180 202 0
181 203 0
183 204 0
178 201 0
182 204 0
181 203 0
182 204 0
179 201 0
182 203 0
181 203 0
181 203 0
182 204 0
182 204 0
181 203 0
183 204 0
186 206 0
180 202 0
175 198 0
181 203 0
179 202 0
181 203 0
184 204 0
180 203 0
180 202 0
181 203 0
184 205 0
182 203 0
180 202 0
181 203 0
182 204 0
183 204 0
182 204 0
180 203 0
180 203 0
181 202 0
181 203 0
182 204 0
183 204 0
180 203 0
180 203 0
179 202 0
183 204 0
181 203 0
182 204 0
182 204 0
181 203 0
182 204 0
178 200 0
181 203 0
182 204 0
182 204 0
182 204 0
185 205 0
182 203 0
184 204 0
181 203 0
180 203 0
182 204 0
182 204 0
180 202 0
179 202 0
182 203 0
181 203 0
182 204 0
181 202 0
182 204 0
182 204 0
181 203 0
181 203 0
184 205 0
181 203 0
181 203 0
182 204 0
179 201 0
182 204 0
182 204 0
178 200 0
182 203 0
181 203 0
183 204 0
180 203 0
181 203 0
179 201 0
182 204 0
184 205 0
181 202 0
183 204 0
180 202 0
180 202 0
179 202 0
181 202 0
181 202 0
183 204 0
181 203 0
178 201 0
181 203 0
182 204 0
178 200 0
180 202 0
180 202 0
182 204 0
179 201 0
182 204 0
181 203 0
181 203 0
180 202 0
180 203 0
179 201 0
181 202 0
181 202 0
182 204 0
181 203 0
177 199 0
181 203 0
181 203 0
181 203 0
176 199 0
179 201 0
179 202 0
181 202 0
174 197 0
177 200 0
178 200 0
180 203 0
178 200 0
181 202 0
178 201 0
182 203 0
177 199 0
177 201 0
178 201 0
180 201 0
180 202 0
177 200 0
180 202 0
178 200 0
174 197 0
182 203 0
177 200 0
180 202 0
177 200 0
179 201 0
177 200 0
181 202 0
180 201 0
178 200 0
181 203 0
178 201 0
180 202 0
181 202 0
177 199 0
179 201 0
179 201 0
182 203 0
177 199 0
178 200 0
176 198 0
175 197 0
180 202 0
175 197 0
174 197 0
180 202 0
171 193 0
180 202 0
178 200 0
175 197 0
179 201 0
181 203 0
182 204 0
179 202 0
180 202 0
184 205 56
183 204 38
181 202 69
180 201 56
179 200 56
177 198 80
183 204 89
176 197 69
175 197 69
186 207 97
181 202 89
180 202 104
183 203 69
182 205 69
175 198 69
182 203 111
183 204 97
169 192 97
178 198 89
181 203 97
185 206 139
175 198 80
182 203 124
181 203 124
180 201 111
162 183 69
173 195 104
174 196 97
171 193 111
179 200 97
173 194 124
174 196 104
171 194 134
170 191 89
176 196 89
169 191 89
162 184 97
173 195 124
172 193 97
168 190 111
166 187 97
173 195 134
173 195 111
173 194 111
168 189 89
163 185 129
172 193 104
169 189 89
175 195 97
167 188 111
168 188 111
159 178 104
168 188 111
166 185 69
166 185 89
164 184 104
172 193 89
162 183 89
174 195 97
174 194 89
151 173 56
160 180 56
164 184 38
156 178 0
159 179 56
165 186 38
168 188 0
173 194 0
170 191 0
166 188 0
173 193 0
159 180 0
168 189 0
163 184 0
157 179 0
164 185 0
155 175 0
163 184 0
168 190 0
148 169 0
157 178 0
163 184 0
161 182 0
161 181 0
148 169 0
157 179 0
160 182 0
159 179 0
170 191 0
160 182 0
169 190 0
171 193 0
165 186 0
169 190 0
160 180 0
169 191 0
160 181 0
167 188 0
160 183 0
159 181 0
165 187 0
171 192 0
168 190 0
167 188 0
178 199 0
169 190 0
172 193 0
174 196 0
172 194 0
167 189 0
164 186 0
163 184 0
171 192 0
174 196 0
174 196 0
176 197 0
169 191 0
169 191 0
173 195 0
168 190 0
173 195 0
175 196 0
174 195 0
172 194 0
172 195 0
170 191 0
172 192 0
172 194 0
176 198 0
174 196 0
173 194 0
170 192 0
174 195 0
177 198 0
178 200 0
174 196 0
177 199 0
178 199 0
179 200 0
175 196 0
176 198 0
173 196 0
178 201 0
181 202 0
179 201 0
176 197 0
177 199 0
179 202 0
178 199 0
177 199 0
175 198 0
176 198 0
175 197 0
176 197 0
177 200 0
182 204 0
180 201 0
177 200 0
178 199 0
178 199 0
178 200 0
178 200 0
179 201 0
176 197 0
179 201 0
179 202 0
179 201 0
178 200 0
179 202 0
180 201 0
180 200 0
180 201 0
182 204 0
176 198 0
181 203 0
177 199 0
177 199 0
180 203 0
182 203 0
180 202 0
176 199 0
180 202 0
179 201 0
180 202 0
182 203 0
181 203 0
182 204 0
179 201 0
182 204 0
183 204 0
180 202 0
179 201 0
181 203 0
182 204 0
179 201 0
182 203 0
177 199 0
182 204 0
181 203 0
180 203 0
182 203 0
179 202 0
179 202 0
178 200 0
182 204 0
180 202 0
180 202 0
182 203 0
182 204 0
185 205 0
183 204 0
180 203 0
179 202 0
181 203 0
181 203 0
184 205 0
183 204 0
180 202 0
182 203 0
180 203 0
180 202 0
181 203 0
183 204 0
181 203 0
181 203 0
180 203 0
181 203 0
181 203 0
181 203 0
183 204 0
181 202 0
181 203 0
181 203 0
180 202 0
179 201 0
181 203 0
181 202 0
184 205 0
179 201 0
182 204 0
184 205 0
182 204 0
185 205 0
181 203 0
180 201 0
182 204 0
181 203 0
180 202 0
183 204 0
178 201 0
181 202 0
181 202 0
182 203 0
182 204 0
183 204 0
180 202 0
182 204 0
182 203 0
184 205 0
179 201 0
182 202 0
183 204 0
179 201 0
179 201 0
182 204 0
182 204 0
181 203 0
180 203 0
181 203 0
180 202 0
181 202 0
183 204 0
180 202 0
180 203 0
185 205 0
183 204 0
182 204 0
183 204 0
181 203 0
180 202 0
181 203 0
180 202 0
183 204 0
180 203 0
185 205 0
183 204 0
182 203 0
181 203 0
180 203 0
181 202 0
182 204 0
182 204 0
179 201 0
180 203 0
182 203 0
181 203 0
182 204 0
181 203 0
183 204 0
180 202 0
180 202 0
183 204 0
182 204 0
182 204 0
183 204 0
181 203 0
182 204 0
183 204 0
181 203 0
181 203 0
184 205 0
182 203 0
182 203 0
181 203 0
181 203 0
180 202 0
183 204 0
184 205 0
182 204 0
182 204 0
180 203 0
181 202 0
182 204 0
176 198 0
180 202 0
181 202 0
181 203 0
182 203 0
181 203 0
179 202 0
185 205 0
181 202 0
180 202 0
181 203 0
182 204 0
179 201 0
182 203 0
179 202 0
181 203 0
178 200 0
178 201 0
179 201 0
178 200 0
179 202 0
182 204 0
177 200 0
181 203 0
182 204 0
178 200 0
177 199 0
181 202 0
178 200 0
182 203 0
178 201 0
181 202 0
179 200 0
180 202 0
176 198 0
176 198 0
181 203 0
176 198 0
180 201 0
179 200 0
180 203 0
180 201 0
178 200 0
178 200 0
180 203 0
181 203 0
181 203 0
178 200 0
180 202 0
178 200 0
182 203 0
181 203 0
179 201 0
176 198 0
178 200 0
182 204 0
171 194 0
180 203 0
181 202 0
177 199 0
182 203 0
180 202 0
183 203 0
175 197 0
179 201 0
174 196 0
172 195 0
179 201 0
175 197 0
173 194 0
169 191 0
176 199 0
182 204 0
178 200 0
181 203 0
181 203 0
183 204 69
183 205 38
187 207 80
183 204 38
183 204 80
179 200 89
178 200 80
179 200 69
178 199 69
180 201 69
183 203 69
178 200 89
172 195 80
176 199 56
177 198 89
176 197 69
184 205 89
174 196 89
185 205 129
178 199 129
173 195 118
176 197 104
179 201 111
183 204 124
174 196 104
174 196 118
165 187 80
173 195 111
171 193 97
167 190 129
175 197 104
171 193 104
177 196 80
170 191 69
179 200 97
174 196 89
170 192 97
173 195 124
172 195 69
168 190 111
169 190 118
167 189 104
175 196 111
172 194 108
171 192 97
177 198 124
165 186 97
162 183 97
172 193 129
152 172 80
165 186 104
162 182 104
172 192 118
170 189 124
173 193 97
178 197 124
169 188 124
164 185 80
167 185 89
168 188 89
164 184 80
152 173 80
165 184 80
159 180 80
165 186 69
169 189 69
162 182 38
172 194 0
170 191 0
177 199 0
165 187 0
160 181 0
165 186 0
166 187 0
166 187 0
167 188 0
158 180 0
152 173 0
161 182 0
161 182 0
156 179 0
152 172 0
165 186 0
160 181 0
161 182 0
169 189 0
174 197 0
161 184 0
158 180 0
157 179 0
165 186 0
164 185 0
160 182 0
164 186 0
158 179 0
173 195 0
156 176 0
169 190 0
163 184 0
168 190 0
167 187 0
164 186 0
164 187 0
166 187 0
169 192 0
165 186 0
169 192 0
172 193 0
173 195 0
165 187 0
165 187 0
172 194 0
167 189 0
162 185 0
173 196 0
167 189 0
167 190 0
170 191 0
176 198 0
176 198 0
171 193 0
171 193 0
177 199 0
179 200 0
177 199 0
173 195 0
175 197 0
177 198 0
174 196 0
175 196 0
178 200 0
177 199 0
173 195 0
176 198 0
176 199 0
174 196 0
177 198 0
171 194 0
178 199 0
177 199 0
177 198 0
175 197 0
173 195 0
176 197 0
177 199 0
178 200 0
182 202 0
178 200 0
178 200 0
180 201 0
178 200 0
176 199 0
174 195 0
179 201 0
177 199 0
181 203 0
178 201 0
174 196 0
182 203 0
179 201 0
174 197 0
176 199 0
184 205 0
180 202 0
179 200 0
178 200 0
180 201 0
178 200 0
180 202 0
182 203 0
180 203 0
180 201 0
179 200 0
183 204 0
182 202 0
179 201 0
176 199 0
181 202 0
181 203 0
178 200 0
176 197 0
182 203 0
179 201 0
182 203 0
180 202 0
176 198 0
179 201 0
181 203 0
182 202 0
178 200 0
181 202 0
179 201 0
181 203 0
182 204 0
179 201 0
179 201 0
179 202 0
180 202 0
179 202 0
180 202 0
183 204 0
182 204 0
180 203 0
181 203 0
181 203 0
182 204 0
181 203 0
180 202 0
180 202 0
179 201 0
181 203 0
180 202 0
182 204 0
180 202 0
183 204 0
179 202 0
182 203 0
180 203 0
182 203 0
181 203 0
181 203 0
180 202 0
182 204 0
179 201 0
182 204 0
181 203 0
185 205 0
180 203 0
182 204 0
179 201 0
182 203 0
179 201 0
184 204 0
183 204 0
183 204 0
179 201 0
183 204 0
182 203 0
179 201 0
182 204 0
180 202 0
180 203 0
182 204 0
181 203 0
184 205 0
183 204 0
182 203 0
183 204 0
182 204 0
181 203 0
181 203 0
180 203 0
181 203 0
180 202 0
182 204 0
177 200 0
180 202 0
180 203 0
182 204 0
182 204 0
183 204 0
186 206 0
182 203 0
182 204 0
184 205 0
181 203 0
182 203 0
183 204 0
183 204 0
183 204 0
181 203 0
185 205 0
182 204 0
180 203 0
180 203 0
181 202 0
183 204 0
181 203 0
181 203 0
181 203 0
178 201 0
182 204 0
183 204 0
183 204 0
182 204 0
183 204 0
182 204 0
181 203 0
181 203 0
182 204 0
181 203 0
181 203 0
182 204 0
182 204 0
183 204 0
182 204 0
184 205 0
181 203 0
178 201 0
182 204 0
182 204 0
183 204 0
182 204 0
180 202 0
180 202 0
182 203 0
181 203 0
181 203 0
182 203 0
182 204 0
179 201 0
180 203 0
182 204 0
180 202 0
182 203 0
180 202 0
182 204 0
181 203 0
183 204 0
184 205 0
179 202 0
179 202 0
181 203 0
180 203 0
182 204 0
181 203 0
182 204 0
182 203 0
181 202 0
180 202 0
182 204 0
182 204 0
179 200 0
181 203 0
182 204 0
182 204 0
177 200 0
177 200 0
181 202 0
174 197 0
181 203 0
183 204 0
182 204 0
181 203 0
181 203 0
181 203 0
180 203 0
183 204 0
180 203 0
182 204 0
181 203 0
180 202 0
181 202 0
178 200 0
180 202 0
183 204 0
182 202 0
180 203 0
184 205 0
180 202 0
176 199 0
178 200 0
182 203 0
179 201 0
178 200 0
174 196 0
179 201 0
182 203 0
177 199 0
181 203 0
181 202 0
180 202 0
182 204 0
179 201 0
174 198 0
180 202 0
182 203 0
177 199 0
178 200 0
180 202 0
180 202 0
178 200 0
181 203 0
176 197 0
178 201 0
177 200 0
173 195 0
180 203 0
174 196 0
180 201 0
179 202 0
180 201 0
180 201 0
177 199 0
183 204 0
183 203 0
181 202 0
180 202 0
182 204 0
180 202 0
181 203 56
187 207 80
182 204 56
181 203 80
177 198 56
183 204 97
178 199 97
180 202 69
184 205 80
185 206 80
180 201 89
177 199 89
172 193 80
181 203 80
183 204 97
173 196 69
181 202 118
185 205 104
179 201 97
184 205 118
179 200 97
173 195 89
183 205 111
177 199 111
183 204 104
176 198 118
174 195 104
180 201 118
178 200 89
176 196 97
167 189 129
170 192 69
173 195 104
181 204 153
170 191 97
174 195 118
174 195 111
176 197 104
175 197 118
160 182 111
173 195 89
169 189 80
172 193 124
176 197 124
167 188 104
168 189 80
165 185 124
168 189 89
156 177 111
174 194 104
174 194 104
168 189 144
166 185 89
164 185 80
161 182 97
170 190 97
162 183 69
167 188 104
169 188 89
177 197 104
169 188 80
169 189 56
166 185 56
161 181 69
173 193 56
174 193 56
173 194 38
160 182 0
176 197 0
175 197 0
161 183 0
162 185 0
168 190 0
157 178 0
169 190 0
156 176 0
163 184 0
161 181 0
158 179 0
161 182 0
163 185 0
167 188 0
155 177 0
161 182 0
166 187 0
155 176 0
173 194 0
167 187 0
167 188 0
155 177 0
173 192 0
154 176 0
160 182 0
170 192 0
167 187 0
165 187 0
173 193 0
167 187 0
156 178 0
156 179 0
170 192 0
163 184 0
168 189 0
174 197 0
158 180 0
168 191 0
167 189 0
167 189 0
171 194 0
172 193 0
172 193 0
173 195 0
167 189 0
170 193 0
173 194 0
176 197 0
167 188 0
172 193 0
175 197 0
174 197 0
174 196 0
170 193 0
168 190 0
168 190 0
173 195 0
172 193 0
175 197 0
174 197 0
177 198 0
177 199 0
171 191 0
176 198 0
181 202 0
178 200 0
181 202 0
177 198 0
178 200 0
177 199 0
177 198 0
178 201 0
175 197 0
178 200 0
175 196 0
179 202 0
180 202 0
171 193 0
173 195 0
176 199 0
177 199 0
179 201 0
178 200 0
174 196 0
179 202 0
179 201 0
178 200 0
182 203 0
182 202 0
182 202 0
178 200 0
178 199 0
172 193 0
181 202 0
181 203 0
182 202 0
178 200 0
181 203 0
178 200 0
180 202 0
179 200 0
182 204 0
181 202 0
176 199 0
177 199 0
180 202 0
177 198 0
178 200 0
178 200 0
176 198 0
180 202 0
178 201 0
180 202 0
181 203 0
178 199 0
181 203 0
182 204 0
179 201 0
182 204 0
179 201 0
180 201 0
182 204 0
180 203 0
178 200 0
179 202 0
178 201 0
179 200 0
180 203 0
180 203 0
181 203 0
180 202 0
183 204 0
181 203 0
180 202 0
176 198 0
179 201 0
182 204 0
182 203 0
180 202 0
180 202 0
177 199 0
179 201 0
180 202 0
179 201 0
178 200 0
179 200 0
184 205 0
183 204 0
179 201 0
182 203 0
178 201 0
179 200 0
182 204 0
179 202 0
180 203 0
182 204 0
183 204 0
182 204 0
179 202 0
182 204 0
178 200 0
181 202 0
181 203 0
179 201 0
180 202 0
179 201 0
179 201 0
182 204 0
182 204 0
183 204 0
182 204 0
183 203 0
180 203 0
181 203 0
182 204 0
182 204 0
181 203 0
180 203 0
182 204 0
180 202 0
182 204 0
180 202 0
182 204 0
183 204 0
179 202 0
183 203 0
183 204 0
182 203 0
184 205 0
181 203 0
180 202 0
182 204 0
182 203 0
180 202 0
183 204 0
181 203 0
182 204 0
182 204 0
185 205 0
182 204 0
181 203 0
182 203 0
181 203 0
179 201 0
182 204 0
182 203 0
181 203 0
182 204 0
181 202 0
181 203 0
182 204 0
181 203 0
179 202 0
181 203 0
181 203 0
181 203 0
183 204 0
183 204 0
182 204 0
183 204 0
181 203 0
183 204 0
183 204 0
182 204 0
180 203 0
181 202 0
180 202 0
181 203 0
181 202 0
181 203 0
182 203 0
184 205 0
183 204 0
184 205 0
180 202 0
182 204 0
182 204 0
180 203 0
184 205 0
183 204 0
180 202 0
181 203 0
182 204 0
178 201 0
182 204 0
182 203 0
183 204 0
183 204 0
177 199 0
180 202 0
182 204 0
180 203 0
180 202 0
182 203 0
182 204 0
179 202 0
182 204 0
182 204 0
180 202 0
180 203 0
181 202 0
182 204 0
182 204 0
181 203 0
178 201 0
184 205 0
180 202 0
182 204 0
182 204 0
182 203 0
178 201 0
179 202 0
182 203 0
180 201 0
180 202 0
181 202 0
181 202 0
180 202 0
180 203 0
182 203 0
182 203 0
180 202 0
184 205 0
180 202 0
181 203 0
179 201 0
180 203 0
181 201 0
179 202 0
181 203 0
179 201 0
178 200 0
180 202 0
180 202 0
179 201 0
177 199 0
176 199 0
178 200 0
181 202 0
178 200 0
177 200 0
180 203 0
179 202 0
182 204 0
180 202 0
180 203 0
181 203 0
178 199 0
179 202 0
176 199 0
178 200 0
179 201 0
178 200 0
181 202 0
176 199 0
172 195 0
176 197 0
179 201 0
178 200 0
177 198 0
182 203 0
178 200 0
179 200 0
177 198 0
177 199 0
176 198 0
178 200 0
179 201 0
180 201 0
182 204 0
182 203 0
176 199 0
182 204 56
184 205 69
187 207 69
181 202 69
181 201 97
182 203 38
186 207 104
181 202 56
177 198 69
180 201 56
171 193 80
183 204 56
180 202 80
179 200 69
180 201 97
182 204 89
184 205 97
176 198 97
181 203 111
173 195 69
177 198 129
181 202 89
182 203 124
176 197 118
181 203 104
172 194 80
172 194 124
180 202 104
178 199 89
174 194 97
176 197 89
169 190 89
174 195 56
176 197 97
170 193 69
166 188 97
176 199 118
170 191 80
171 191 104
169 190 97
164 184 89
176 197 111
175 195 89
168 190 124
170 190 89
169 190 104
177 199 134
171 192 124
166 188 118
159 179 97
164 183 69
166 188 104
181 201 118
172 192 104
176 196 118
175 194 97
159 180 80
176 196 111
164 183 97
172 193 89
164 184 69
167 187 69
172 190 97
171 191 69
164 184 69
163 183 56
165 185 38
158 179 0
176 198 0
177 199 0
168 190 0
170 192 0
174 195 0
163 184 0
161 183 0
159 182 0
159 179 0
170 191 0
169 189 0
166 185 0
164 187 0
154 177 0
167 187 0
167 188 0
166 188 0
166 186 0
168 188 0
166 187 0
165 186 0
166 189 0
171 192 0
169 190 0
160 182 0
167 189 0
167 188 0
167 189 0
159 181 0
164 186 0
161 182 0
162 184 0
170 191 0
170 191 0
169 191 0
169 190 0
175 197 0
167 190 0
168 189 0
168 190 0
172 193 0
172 193 0
168 189 0
165 186 0
177 199 0
174 196 0
170 192 0
170 192 0
166 188 0
178 199 0
169 192 0
167 189 0
171 193 0
173 195 0
170 192 0
177 198 0
170 193 0
170 193 0
176 199 0
175 196 0
172 194 0
176 198 0
172 195 0
180 202 0
175 197 0
180 202 0
178 200 0
172 195 0
179 201 0
176 198 0
182 204 0
178 199 0
176 198 0
178 200 0
178 199 0
179 200 0
178 200 0
176 198 0
178 200 0
174 197 0
171 194 0
177 200 0
178 200 0
181 203 0
177 200 0
177 199 0
183 203 0
180 202 0
176 197 0
181 203 0
172 194 0
182 204 0
178 199 0
175 196 0
179 201 0
178 200 0
180 202 0
178 200 0
178 200 0
184 205 0
181 201 0
177 199 0
182 203 0
181 203 0
180 202 0
178 201 0
183 204 0
176 198 0
183 204 0
182 204 0
175 197 0
183 204 0
178 200 0
181 202 0
177 199 0
176 198 0
180 202 0
181 203 0
183 204 0
181 203 0
180 202 0
182 204 0
182 203 0
182 203 0
177 199 0
182 204 0
177 199 0
177 199 0
183 204 0
181 202 0
180 203 0
179 202 0
177 199 0
176 198 0
180 202 0
182 203 0
181 203 0
183 204 0
180 202 0
180 202 0
179 201 0
182 203 0
181 203 0
180 201 0
182 204 0
182 204 0
181 203 0
177 200 0
177 199 0
182 204 0
179 202 0
180 202 0
180 202 0
181 203 0
181 203 0
181 203 0
182 204 0
179 202 0
178 200 0
180 202 0
180 202 0
182 203 0
183 204 0
182 204 0
181 203 0
180 202 0
180 202 0
182 204 0
182 204 0
179 201 0
181 202 0
181 203 0
183 203 0
182 204 0
181 203 0
180 202 0
182 204 0
181 203 0
180 202 0
182 203 0
181 203 0
182 204 0
178 201 0
177 199 0
181 203 0
180 202 0
183 204 0
184 205 0
182 204 0
179 202 0
181 203 0
181 203 0
183 204 0
184 204 0
182 204 0
180 203 0
180 203 0
178 201 0
184 205 0
184 204 0
182 204 0
180 203 0
179 202 0
182 204 0
179 201 0
181 203 0
183 204 0
181 203 0
182 204 0
183 204 0
182 203 0
181 202 0
183 204 0
180 203 0
185 205 0
179 201 0
179 201 0
182 204 0
179 201 0
181 203 0
183 204 0
183 204 0
183 204 0
183 204 0
183 204 0
181 203 0
182 204 0
180 202 0
180 202 0
179 201 0
184 205 0
181 203 0
181 203 0
181 203 0
180 202 0
182 204 0
180 202 0
182 204 0
183 204 0
182 204 0
181 202 0
182 203 0
180 201 0
181 203 0
183 204 0
183 204 0
182 204 0
183 204 0
180 202 0
181 203 0
181 203 0
183 204 0
181 202 0
182 204 0
181 202 0
181 203 0
182 204 0
182 203 0
183 204 0
181 202 0
179 202 0
180 202 0
181 203 0
181 202 0
180 202 0
182 204 0
181 203 0
180 201 0
183 203 0
181 202 0
180 202 0
182 204 0
182 204 0
182 203 0
182 203 0
182 204 0
182 204 0
181 203 0
182 204 0
182 204 0
180 202 0
180 202 0
182 204 0
176 199 0
178 200 0
180 202 0
177 199 0
180 202 0
183 204 0
179 201 0
180 202 0
180 202 0
178 200 0
181 202 0
182 204 0
179 201 0
178 200 0
178 200 0
175 198 0
178 201 0
176 199 0
181 203 0
177 199 0
180 202 0
176 197 0
180 203 0
176 198 0
177 199 0
183 204 0
168 191 0
178 201 0
177 199 0
181 203 0
181 203 0
180 202 0
178 199 0
177 200 0
178 200 0
178 200 0
182 203 0
181 203 0
176 199 0
173 195 0
181 202 0
174 197 0
180 202 0
176 198 0
182 203 0
182 204 0
181 203 0
181 203 0
183 204 0
185 206 69
182 203 56
186 206 80
184 205 80
181 202 80
185 205 80
179 201 80
182 204 80
183 205 118
174 196 80
180 200 80
183 205 89
176 197 80
173 195 0
174 195 56
178 199 80
181 202 111
183 204 80
180 201 118
180 200 111
185 206 134
177 197 97
183 204 118
176 197 80
179 200 89
175 198 124
185 206 111
173 195 89
178 199 104
169 189 56
172 194 118
179 201 134
170 192 97
170 191 89
173 194 89
175 197 111
179 201 111
171 192 89
176 197 104
168 189 56
161 183 89
178 199 89
178 199 97
173 194 111
162 184 97
174 195 124
158 179 97
180 200 111
172 193 124
165 185 97
174 195 80
161 181 111
170 189 97
174 194 118
157 177 56
166 186 97
167 186 104
174 193 118
173 191 69
166 186 97
170 190 97
174 193 80
169 190 56
165 185 69
166 186 69
170 190 69
167 189 38
168 190 0
161 183 0
168 190 0
167 190 0
174 196 0
164 186 0
171 192 0
158 180 0
157 179 0
161 182 0
164 186 0
162 182 0
170 190 0
159 180 0
166 187 0
169 191 0
166 187 0
152 175 0
155 178 0
153 175 0
168 189 0
155 177 0
160 181 0
159 181 0
155 177 0
169 190 0
163 185 0
161 183 0
162 185 0
175 197 0
172 195 0
175 197 0
168 189 0
170 192 0
170 192 0
168 190 0
162 183 0
180 200 0
171 192 0
168 191 0
163 184 0
178 201 0
171 193 0
171 193 0
177 199 0
172 194 0
176 197 0
170 192 0
165 187 0
174 197 0
166 187 0
172 194 0
181 201 0
182 204 0
178 199 0
174 196 0
179 200 0
176 197 0
173 196 0
173 195 0
176 198 0
176 198 0
177 199 0
173 195 0
174 196 0
175 197 0
174 196 0
174 196 0
178 200 0
181 203 0
177 199 0
178 199 0
173 196 0
176 198 0
178 200 0
171 194 0
175 197 0
176 198 0
178 200 0
180 202 0
174 196 0
177 199 0
178 200 0
180 202 0
179 200 0
179 201 0
176 199 0
178 200 0
178 201 0
178 199 0
177 199 0
182 203 0
182 203 0
177 199 0
175 197 0
177 200 0
178 200 0
179 201 0
176 197 0
176 198 0
181 203 0
179 201 0
182 204 0
180 202 0
182 204 0
182 203 0
178 200 0
182 203 0
181 201 0
177 199 0
181 203 0
178 199 0
184 205 0
179 202 0
182 203 0
178 200 0
181 202 0
181 202 0
178 200 0
180 202 0
182 203 0
182 204 0
179 201 0
177 199 0
178 201 0
180 201 0
178 200 0
179 201 0
177 200 0
179 201 0
181 202 0
182 204 0
179 202 0
181 202 0
179 202 0
183 204 0
184 205 0
180 202 0
179 201 0
182 203 0
182 202 0
177 199 0
182 203 0
181 203 0
182 204 0
179 202 0
181 202 0
180 203 0
181 203 0
182 203 0
181 203 0
181 203 0
181 203 0
181 203 0
181 203 0
179 202 0
181 202 0
181 203 0
180 203 0
182 204 0
178 200 0
179 202 0
180 203 0
181 203 0
182 203 0
180 203 0
181 203 0
179 201 0
183 204 0
181 203 0
178 201 0
179 201 0
182 203 0
181 203 0
182 204 0
184 205 0
181 203 0
181 203 0
181 203 0
180 201 0
181 203 0
182 204 0
180 203 0
180 202 0
182 203 0
180 202 0
183 204 0
182 204 0
181 203 0
180 202 0
184 205 0
180 202 0
183 204 0
180 202 0
181 203 0
182 204 0
184 205 0
181 203 0
180 203 0
184 205 0
184 205 0
181 202 0
181 202 0
183 204 0
182 203 0
183 204 0
179 202 0
181 203 0
183 204 0
183 204 0
182 203 0
184 205 0
182 204 0
182 204 0
182 204 0
183 204 0
183 204 0
181 203 0
183 204 0
182 203 0
181 202 0
180 202 0
183 204 0
180 203 0
181 203 0
182 204 0
182 204 0
181 203 0
180 202 0
181 203 0
177 200 0
182 204 0
184 204 0
182 204 0
185 205 0
182 204 0
178 201 0
181 203 0
179 201 0
180 202 0
180 202 0
182 203 0
182 204 0
182 204 0
179 201 0
180 202 0
180 203 0
180 202 0
182 204 0
182 203 0
179 202 0
180 202 0
182 204 0
179 202 0
182 204 0
182 203 0
182 204 0
180 201 0
182 204 0
184 205 0
182 204 0
182 204 0
181 203 0
179 202 0
183 204 0
182 204 0
179 201 0
179 202 0
180 202 0
180 202 0
182 204 0
181 203 0
174 196 0
180 202 0
181 203 0
183 204 0
181 203 0
179 202 0
181 203 0
181 203 0
182 204 0
180 202 0
180 201 0
178 200 0
183 204 0
179 202 0
181 202 0
181 203 0
179 201 0
180 203 0
181 202 0
182 203 0
177 200 0
180 202 0
183 204 0
178 201 0
179 202 0
178 200 0
179 201 0
180 202 0
182 204 0
177 199 0
180 202 0
180 203 0
177 200 0
178 201 0
177 201 0
178 200 0
178 199 0
179 201 0
180 201 0
176 198 0
180 202 0
178 201 0
178 201 0
179 202 0
179 200 0
179 200 0
179 202 0
178 200 0
177 198 0
176 198 0
176 198 0
177 199 0
180 202 0
177 199 0
177 199 0
178 200 0
180 203 0
178 200 0
179 200 0
183 204 0
180 202 0
182 204 69
183 205 69
181 203 56
181 202 80
180 200 38
181 202 89
183 203 104
179 200 69
177 199 80
179 200 38
181 202 97
179 200 69
176 197 56
184 205 89
185 205 111
176 197 89
178 200 69
183 204 97
183 205 118
181 203 97
182 203 104
184 205 111
178 200 89
180 202 118
177 197 104
181 202 80
171 193 89
187 208 134
175 197 111
177 199 80
175 196 118
178 201 144
176 197 89
180 201 118
170 191 80
178 199 89
171 192 97
164 185 80
172 194 104
178 198 89
171 191 97
176 196 80
171 191 111
169 189 89
169 190 104
176 196 97
175 196 97
164 186 129
178 199 118
169 191 111
166 185 89
179 198 97
179 199 97
172 193 111
168 187 97
181 200 139
174 194 97
178 198 149
173 193 97
173 193 80
171 191 56
153 175 38
167 188 56
166 188 0
162 182 69
180 199 97
171 192 56
164 184 38
174 196 0
177 200 0
168 189 0
165 186 0
169 191 0
162 184 0
159 181 0
166 187 0
174 195 0
160 182 0
162 183 0
164 184 0
165 187 0
170 191 0
171 191 0
169 190 0
169 190 0
159 180 0
159 182 0
161 183 0
157 179 0
162 183 0
155 177 0
167 189 0
162 184 0
173 194 0
170 191 0
170 193 0
170 191 0
169 191 0
165 184 0
169 191 0
164 186 0
175 197 0
176 199 0
167 191 0
169 191 0
169 192 0
167 190 0
172 193 0
167 188 0
169 190 0
173 195 0
167 188 0
171 194 0
173 196 0
168 190 0
170 191 0
169 191 0
169 191 0
170 193 0
171 192 0
170 192 0
175 197 0
174 196 0
169 191 0
177 199 0
171 193 0
174 196 0
177 198 0
173 195 0
171 192 0
177 198 0
176 198 0
175 197 0
174 196 0
176 198 0
182 203 0
176 198 0
175 198 0
174 197 0
176 199 0
176 198 0
176 199 0
180 202 0
174 196 0
178 199 0
177 199 0
176 198 0
174 196 0
177 200 0
183 204 0
179 200 0
179 201 0
179 201 0
178 200 0
175 197 0
182 204 0
180 202 0
180 202 0
177 199 0
174 197 0
176 198 0
178 199 0
178 200 0
181 202 0
179 201 0
179 202 0
180 200 0
180 201 0
176 198 0
180 202 0
183 204 0
174 197 0
180 202 0
178 200 0
182 203 0
181 202 0
182 203 0
181 202 0
182 204 0
183 204 0
182 204 0
179 202 0
180 202 0
180 202 0
180 203 0
178 200 0
179 202 0
179 201 0
183 204 0
178 201 0
181 203 0
179 201 0
175 197 0
181 202 0
182 204 0
183 204 0
184 205 0
180 202 0
179 202 0
184 205 0
182 204 0
183 204 0
182 203 0
179 201 0
179 201 0
178 201 0
182 204 0
180 202 0
181 203 0
180 201 0
183 204 0
181 203 0
181 203 0
180 202 0
180 202 0
180 202 0
182 204 0
181 203 0
182 204 0
183 204 0
180 202 0
181 203 0
180 201 0
182 204 0
181 203 0
180 202 0
184 205 0
184 205 0
185 205 0
184 205 0
179 201 0
183 204 0
182 204 0
182 204 0
181 202 0
181 202 0
183 204 0
179 201 0
182 204 0
181 203 0
180 202 0
182 204 0
182 204 0
182 204 0
182 204 0
181 203 0
179 200 0
181 203 0
182 203 0
180 202 0
178 201 0
181 203 0
183 204 0
180 202 0
180 203 0
183 204 0
182 204 0
183 204 0
179 201 0
179 201 0
181 203 0
181 203 0
182 203 0
184 205 0
182 203 0
181 202 0
181 203 0
184 205 0
182 204 0
181 203 0
183 204 0
181 203 0
177 200 0
180 203 0
182 203 0
181 203 0
180 203 0
181 203 0
180 201 0
182 203 0
183 204 0
182 203 0
181 203 0
183 204 0
183 204 0
181 203 0
181 202 0
182 204 0
179 202 0
181 203 0
182 204 0
183 204 0
182 204 0
183 204 0
182 204 0
182 204 0
183 204 0
179 202 0
182 204 0
179 202 0
179 201 0
181 203 0
180 202 0
181 203 0
180 203 0
182 204 0
180 202 0
180 202 0
182 204 0
180 203 0
180 202 0
180 202 0
182 204 0
181 203 0
182 204 0
179 202 0
182 203 0
181 202 0
180 202 0
183 204 0
179 201 0
181 203 0
181 203 0
179 201 0
180 203 0
181 203 0
180 201 0
177 199 0
182 204 0
181 202 0
179 201 0
180 202 0
180 202 0
182 203 0
182 204 0
182 204 0
179 201 0
177 200 0
180 202 0
183 204 0
180 202 0
182 204 0
181 203 0
179 201 0
180 202 0
181 203 0
181 203 0
180 202 0
179 201 0
183 204 0
182 204 0
179 201 0
180 201 0
178 201 0
181 203 0
183 204 0
180 202 0
180 202 0
178 201 0
182 203 0
178 201 0
182 204 0
179 201 0
179 201 0
179 201 0
183 204 0
180 203 0
182 204 0
178 200 0
177 199 0
175 198 0
180 202 0
180 202 0
180 202 0
181 203 0
181 203 0
180 202 0
180 202 0
179 200 0
179 200 0
178 200 0
180 202 0
180 201 0
175 198 0
178 200 0
174 197 0
174 196 0
178 201 0
179 201 0
178 200 0
180 202 0
178 200 0
174 196 0
176 198 0
170 193 0
177 199 0
181 203 0
181 203 0
180 202 0
178 200 0
179 201 38
186 207 80
185 206 80
181 202 38
183 204 69
182 204 97
188 209 104
185 205 104
184 205 104
173 195 69
181 202 0
178 199 80
182 203 89
179 201 97
177 198 80
178 198 104
177 198 89
180 201 118
182 202 118
182 203 97
180 201 111
179 200 89
175 196 118
174 196 118
182 203 118
179 201 111
173 195 97
177 199 97
168 190 69
181 202 111
174 195 97
181 203 124
175 196 80
172 193 104
175 195 104
183 205 124
177 199 129
166 186 56
168 190 80
170 191 97
177 197 118
168 188 80
171 191 80
183 204 124
174 196 118
182 201 69
173 194 97
175 196 97
176 196 104
163 184 89
170 190 104
174 195 104
176 196 104
164 184 80
171 190 97
171 191 89
184 203 149
173 193 97
179 199 97
163 183 97
172 192 89
158 179 69
169 191 38
176 196 56
170 191 56
166 187 56
174 195 0
167 188 0
179 200 38
177 198 0
167 188 0
169 191 0
170 191 0
170 191 0
167 188 0
170 192 0
166 187 0
164 185 0
165 187 0
169 190 0
162 183 0
159 180 0
169 191 0
149 170 0
172 193 0
156 178 0
163 184 0
166 188 0
169 190 0
170 191 0
167 189 0
165 187 0
169 191 0
172 193 0
167 188 0
177 198 0
162 185 0
173 195 0
169 190 0
169 193 0
166 188 0
168 190 0
165 187 0
169 191 0
169 191 0
169 189 0
165 187 0
169 191 0
164 185 0
170 192 0
174 197 0
172 194 0
168 190 0
177 199 0
169 189 0
176 198 0
173 194 0
169 191 0
178 200 0
176 198 0
172 194 0
175 196 0
174 196 0
172 194 0
172 195 0
178 200 0
177 199 0
165 187 0
169 192 0
179 200 0
174 197 0
178 199 0
176 197 0
177 199 0
176 199 0
178 199 0
179 201 0
180 200 0
177 199 0
176 197 0
177 199 0
177 200 0
181 203 0
178 200 0
179 201 0
172 195 0
177 199 0
175 197 0
178 200 0
178 200 0
178 200 0
179 201 0
178 200 0
178 199 0
180 201 0
178 199 0
175 198 0
174 197 0
178 200 0
181 202 0
181 203 0
180 201 0
179 201 0
178 199 0
179 201 0
177 199 0
181 203 0
182 203 0
177 200 0
179 202 0
181 203 0
180 202 0
180 201 0
179 200 0
182 204 0
179 200 0
176 198 0
177 199 0
180 201 0
180 203 0
184 205 0
178 200 0
181 203 0
178 200 0
180 202 0
175 197 0
181 203 0
179 201 0
179 201 0
180 202 0
181 203 0
176 199 0
180 202 0
180 202 0
179 201 0
182 204 0
180 203 0
173 196 0
180 203 0
181 203 0
181 203 0
183 204 0
181 202 0
182 204 0
182 204 0
179 202 0
179 202 0
178 200 0
183 204 0
182 204 0
181 203 0
180 202 0
182 203 0
181 202 0
179 202 0
181 203 0
183 204 0
181 202 0
181 203 0
179 201 0
178 200 0
181 203 0
181 203 0
178 200 0
182 204 0
177 199 0
180 202 0
183 204 0
180 202 0
183 204 0
180 202 0
180 202 0
181 203 0
183 204 0
180 203 0
182 203 0
182 204 0
181 203 0
181 203 0
182 204 0
181 203 0
183 204 0
180 201 0
182 203 0
182 204 0
180 203 0
180 203 0
183 204 0
180 203 0
182 204 0
183 204 0
181 203 0
181 203 0
180 202 0
179 202 0
183 204 0
183 204 0
182 204 0
183 204 0
181 203 0
182 204 0
181 203 0
179 202 0
182 204 0
184 205 0
181 203 0
183 204 0
180 201 0
183 204 0
184 204 0
182 204 0
183 204 0
181 203 0
181 202 0
181 202 0
181 203 0
182 204 0
181 203 0
182 204 0
181 202 0
181 203 0
179 201 0
184 205 0
186 206 0
180 203 0
182 204 0
181 203 0
182 204 0
181 203 0
181 203 0
183 204 0
179 201 0
180 202 0
181 203 0
183 204 0
182 203 0
181 203 0
178 201 0
179 201 0
182 204 0
181 203 0
182 204 0
183 204 0
183 204 0
179 201 0
180 203 0
181 203 0
181 203 0
181 203 0
180 202 0
183 204 0
181 203 0
180 202 0
183 204 0
179 202 0
181 202 0
179 200 0
181 203 0
181 203 0
181 203 0
180 203 0
182 204 0
180 202 0
182 204 0
177 200 0
179 201 0
182 204 0
182 204 0
181 203 0
181 203 0
183 204 0
180 203 0
178 201 0
182 204 0
178 200 0
179 201 0
181 202 0
182 204 0
179 201 0
182 204 0
180 202 0
176 198 0
181 202 0
179 201 0
181 203 0
178 201 0
182 204 0
181 203 0
180 202 0
181 202 0
181 203 0
178 201 0
181 203 0
177 199 0
176 198 0
183 204 0
178 200 0
180 202 0
180 202 0
181 203 0
180 202 0
181 203 0
181 202 0
174 196 0
179 201 0
179 201 0
182 204 0
179 200 0
183 204 0
177 200 0
181 203 0
179 202 0
180 201 0
179 201 0
177 200 0
181 202 0
179 201 0
183 204 0
179 200 0
175 198 0
177 200 0
175 197 0
180 201 0
177 199 0
178 199 0
178 199 0
180 202 0
181 202 0
183 204 0
180 201 0
178 199 0
182 203 0
180 201 0
182 203 0
178 201 0
177 200 0
182 203 0
181 202 0
184 204 0
180 203 0
184 206 69
184 204 56
181 203 56
183 205 69
185 206 69
190 209 97
179 201 56
180 202 80
178 200 80
183 203 104
182 203 56
179 201 97
182 203 97
183 206 97
183 204 111
177 199 104
182 203 134
177 197 89
184 204 134
191 211 134
181 203 124
179 200 118
181 202 111
179 201 104
178 199 111
184 205 111
180 200 118
174 194 124
176 198 104
173 195 69
174 194 69
169 190 97
170 191 111
174 196 97
175 197 97
172 195 134
179 200 111
178 198 111
172 194 104
170 191 124
172 194 111
159 180 111
171 193 129
171 192 97
176 196 104
168 189 97
178 200 104
174 195 97
177 198 129
169 190 97
171 191 111
179 199 144
173 194 111
171 191 89
174 194 97
171 191 80
174 193 80
172 192 111
177 196 118
174 193 118
172 193 89
172 193 89
166 187 56
177 198 89
168 189 38
165 186 0
171 193 38
174 193 0
170 190 0
176 197 0
173 195 0
172 194 0
171 192 0
164 186 0
165 187 0
165 186 0
170 192 0
171 192 0
165 187 0
165 186 0
166 187 0
172 195 0
167 188 0
163 185 0
170 192 0
169 190 0
157 178 0
168 189 0
170 191 0
170 191 0
168 191 0
168 190 0
169 190 0
155 178 0
167 189 0
165 186 0
162 183 0
176 198 0
179 201 0
170 193 0
174 195 0
176 197 0
167 188 0
170 191 0
169 190 0
169 190 0
169 191 0
176 198 0
162 185 0
173 195 0
166 188 0
171 194 0
167 187 0
175 196 0
172 194 0
178 199 0
171 192 0
173 195 0
178 198 0
173 194 0
175 198 0
177 198 0
173 195 0
178 200 0
171 192 0
173 195 0
174 196 0
170 192 0
167 190 0
181 203 0
178 200 0
177 199 0
178 201 0
178 199 0
174 196 0
179 200 0
172 195 0
176 197 0
176 198 0
177 199 0
178 199 0
173 195 0
177 199 0
177 199 0
181 203 0
177 200 0
180 201 0
175 198 0
182 203 0
175 197 0
177 199 0
176 198 0
176 198 0
175 197 0
172 195 0
178 200 0
181 203 0
173 195 0
173 194 0
178 200 0
177 200 0
178 200 0
177 198 0
181 203 0
183 203 0
181 203 0
183 204 0
178 200 0
178 200 0
177 200 0
178 199 0
181 203 0
180 202 0
176 197 0
182 203 0
177 199 0
181 202 0
178 201 0
182 203 0
179 201 0
181 203 0
182 204 0
181 203 0
179 202 0
178 200 0
180 201 0
177 198 0
182 203 0
179 202 0
180 202 0
180 201 0
177 200 0
181 202 0
182 204 0
183 204 0
180 201 0
181 203 0
179 201 0
180 202 0
181 202 0
182 204 0
178 200 0
181 203 0
180 202 0
182 204 0
179 201 0
182 204 0
179 200 0
177 199 0
180 201 0
181 203 0
183 204 0
183 204 0
180 202 0
182 204 0
181 203 0
179 201 0
180 202 0
181 202 0
182 204 0
181 202 0
179 201 0
183 204 0
180 203 0
182 203 0
184 205 0
180 202 0
180 203 0
184 205 0
182 203 0
183 204 0
181 203 0
179 201 0
184 205 0
182 204 0
180 202 0
182 203 0
180 202 0
181 203 0
181 203 0
181 203 0
182 204 0
177 200 0
180 202 0
182 204 0
180 203 0
181 203 0
181 203 0
181 203 0
183 204 0
183 204 0
182 204 0
182 204 0
184 205 0
181 203 0
181 203 0
178 201 0
181 203 0
183 204 0
183 204 0
181 202 0
180 203 0
179 201 0
183 204 0
182 204 0
179 202 0
181 203 0
180 202 0
182 204 0
181 202 0
183 204 0
183 204 0
180 203 0
181 203 0
184 205 0
183 204 0
185 205 0
181 203 0
182 204 0
182 204 0
184 205 0
179 201 0
182 204 0
183 204 0
182 204 0
183 204 0
184 205 0
184 205 0
179 201 0
182 204 0
181 203 0
183 204 0
181 203 0
182 204 0
181 203 0
182 204 0
182 204 0
182 204 0
180 202 0
181 203 0
183 203 0
179 202 0
182 203 0
179 202 0
182 203 0
182 204 0
181 202 0
183 204 0
179 200 0
182 204 0
182 203 0
181 203 0
180 202 0
182 203 0
181 203 0
180 203 0
182 204 0
180 202 0
181 203 0
181 203 0
182 204 0
182 203 0
180 202 0
181 203 0
180 203 0
180 202 0
180 201 0
180 202 0
178 201 0
176 198 0
183 204 0
180 202 0
179 202 0
181 202 0
183 204 0
182 204 0
182 204 0
176 199 0
181 203 0
179 201 0
182 204 0
180 203 0
181 203 0
177 200 0
182 204 0
176 199 0
179 202 0
178 201 0
182 204 0
180 203 0
178 201 0
180 201 0
179 200 0
182 204 0
180 202 0
178 200 0
178 200 0
184 204 0
182 204 0
182 204 0
182 204 0
177 199 0
180 203 0
180 203 0
180 201 0
179 202 0
180 202 0
182 203 0
183 204 0
181 203 0
182 204 0
178 200 0
177 199 0
182 204 0
179 200 0
181 202 0
181 203 0
176 198 0
176 199 0
178 200 0
182 204 0
179 200 0
178 200 0
179 202 0
182 204 0
173 195 0
181 202 0
180 202 0
179 200 0
180 201 0
180 201 0
178 200 0
180 202 0
176 198 0
178 200 0
185 205 0
177 200 0
181 203 0
178 200 0
184 205 0
187 207 69
184 205 69
187 208 97
182 203 69
179 201 56
185 207 97
177 198 69
182 203 118
182 201 97
176 197 97
178 199 89
183 204 111
177 198 89
183 203 89
181 202 80
180 202 111
181 201 97
186 207 124
179 200 104
180 201 111
179 200 89
177 198 129
178 200 97
177 198 80
176 197 118
179 200 111
183 205 129
180 200 111
181 203 129
177 199 134
176 197 97
179 200 104
170 192 104
178 199 104
182 202 111
175 196 124
176 196 97
173 193 104
168 189 111
166 187 97
171 192 97
170 192 97
173 196 118
165 186 104
173 194 118
159 179 56
176 197 104
173 194 118
181 201 111
173 193 111
175 195 134
164 184 69
174 194 124
178 199 89
177 198 111
157 177 104
177 197 97
182 201 104
177 196 69
170 191 80
178 198 104
164 185 0
168 189 0
164 186 69
171 192 80
175 195 80
170 192 0
176 196 0
176 198 0
176 198 0
171 192 0
173 194 0
172 192 0
169 191 0
174 194 0
177 197 0
162 183 0
172 193 0
163 185 0
178 197 0
160 182 0
176 196 0
158 179 0
161 183 0
166 188 0
171 191 0
173 194 0
173 195 0
172 194 0
169 191 0
172 195 0
168 189 0
171 192 0
159 181 0
165 187 0
167 189 0
174 195 0
168 191 0
172 193 0
170 191 0
170 192 0
171 193 0
170 192 0
175 197 0
174 196 0
172 196 0
175 197 0
179 200 0
172 192 0
175 198 0
175 197 0
178 199 0
175 196 0
174 196 0
182 203 0
177 199 0
173 195 0
172 194 0
172 194 0
167 189 0
174 194 0
177 198 0
180 202 0
176 197 0
171 192 0
166 189 0
181 203 0
173 194 0
170 193 0
175 197 0
175 197 0
178 199 0
175 197 0
174 196 0
179 201 0
175 197 0
175 198 0
178 200 0
172 195 0
175 197 0
180 202 0
178 200 0
176 198 0
174 196 0
180 202 0
182 204 0
178 200 0
177 198 0
175 197 0
181 202 0
180 202 0
176 198 0
180 203 0
174 195 0
172 195 0
176 198 0
177 199 0
176 198 0
179 202 0
182 204 0
181 203 0
180 201 0
179 202 0
177 199 0
178 200 0
180 202 0
178 200 0
184 205 0
180 201 0
179 201 0
183 204 0
183 203 0
180 202 0
179 201 0
178 200 0
177 199 0
182 203 0
180 203 0
181 203 0
183 204 0
179 201 0
179 202 0
182 203 0
181 203 0
180 202 0
178 200 0
181 203 0
181 202 0
180 201 0
175 197 0
181 203 0
180 203 0
178 199 0
179 202 0
175 197 0
179 201 0
182 203 0
178 200 0
181 202 0
183 204 0
182 204 0
184 205 0
181 200 0
184 205 0
182 204 0
178 201 0
183 204 0
181 203 0
179 201 0
181 202 0
179 201 0
181 203 0
179 202 0
181 203 0
183 204 0
182 203 0
178 200 0
182 204 0
181 203 0
180 201 0
182 204 0
182 204 0
181 203 0
181 203 0
181 202 0
181 203 0
182 204 0
183 204 0
183 204 0
181 202 0
180 203 0
182 203 0
180 201 0
181 203 0
185 205 0
181 202 0
178 201 0
181 203 0
182 203 0
180 202 0
182 204 0
183 204 0
183 204 0
181 203 0
185 205 0
182 204 0
183 204 0
182 204 0
182 204 0
179 201 0
180 202 0
181 203 0
179 201 0
182 204 0
182 204 0
181 203 0
181 202 0
180 202 0
180 203 0
182 204 0
182 204 0
183 204 0
184 204 0
182 204 0
180 202 0
180 202 0
181 203 0
182 204 0
181 203 0
182 203 0
179 202 0
181 203 0
183 204 0
181 202 0
181 203 0
182 203 0
182 204 0
181 202 0
182 204 0
182 204 0
182 204 0
183 204 0
180 202 0
182 204 0
181 203 0
181 203 0
184 205 0
182 204 0
182 203 0
181 203 0
183 204 0
181 202 0
181 203 0
180 201 0
180 202 0
181 203 0
180 203 0
181 202 0
182 204 0
181 203 0
179 202 0
182 204 0
182 204 0
185 205 0
181 203 0
184 205 0
183 204 0
180 202 0
182 204 0
180 202 0
183 204 0
184 205 0
179 202 0
182 204 0
182 204 0
180 203 0
180 203 0
181 203 0
180 202 0
178 200 0
180 201 0
180 202 0
181 202 0
182 203 0
183 204 0
182 203 0
181 203 0
179 201 0
182 202 0
180 203 0
180 203 0
181 202 0
181 203 0
177 199 0
182 203 0
183 204 0
182 204 0
181 203 0
180 203 0
180 202 0
180 202 0
182 203 0
179 202 0
180 202 0
180 202 0
179 202 0
181 203 0
181 203 0
180 202 0
181 203 0
181 202 0
181 202 0
178 199 0
180 202 0
178 200 0
180 202 0
181 203 0
181 203 0
180 201 0
179 200 0
180 202 0
179 201 0
182 204 0
181 202 0
179 201 0
174 196 0
181 203 0
179 202 0
179 201 0
181 203 0
177 198 0
181 203 0
179 202 0
181 202 0
175 197 0
179 200 0
179 201 0
177 200 0
175 197 0
180 201 0
181 203 0
177 199 0
180 201 0
178 200 0
177 199 0
179 200 0
181 203 0
178 200 0
180 201 0
183 204 0
178 200 0
179 201 0
177 199 0
178 200 0
179 200 0
180 202 0
181 203 0
182 203 0
180 202 0
177 199 0
180 203 0
185 205 80
174 196 0
176 197 38
184 205 69
182 204 80
179 199 89
183 203 80
174 196 97
181 203 89
183 203 89
180 202 69
181 202 38
181 203 80
182 203 89
182 202 80
184 203 104
179 200 118
180 201 89
181 202 97
175 196 89
175 195 69
177 198 97
177 198 80
187 209 129
177 198 111
181 202 104
185 206 124
179 199 97
173 195 97
181 203 118
179 201 129
182 202 56
181 204 144
171 192 111
172 193 97
175 197 89
175 195 104
174 194 89
170 191 118
168 189 89
171 193 129
178 199 111
173 194 118
171 191 104
173 194 124
174 194 111
178 198 97
176 197 104
177 197 111
180 201 111
177 197 104
170 190 104
178 198 111
179 199 104
169 188 80
170 191 89
167 187 111
177 196 97
176 195 89
173 193 80
180 199 111
167 188 56
173 191 56
173 195 80
171 192 0
173 193 0
164 185 38
174 195 0
173 195 0
176 198 0
172 196 0
169 191 0
174 195 0
165 188 0
169 192 0
161 182 0
172 194 0
171 193 0
161 182 0
168 189 0
157 180 0
176 197 0
163 186 0
169 190 0
169 190 0
170 192 0
165 186 0
169 190 0
170 191 0
170 192 0
167 188 0
168 190 0
168 190 0
172 194 0
173 194 0
174 196 0
167 189 0
178 198 0
171 194 0
168 191 0
171 193 0
166 187 0
168 190 0
167 190 0
175 196 0
169 192 0
174 196 0
175 197 0
170 191 0
174 195 0
173 196 0
173 195 0
170 192 0
166 188 0
176 199 0
174 195 0
170 192 0
175 196 0
169 190 0
181 203 0
174 197 0
177 199 0
183 204 0
173 194 0
171 193 0
174 196 0
172 194 0
179 201 0
174 196 0
178 200 0
176 198 0
175 197 0
171 193 0
180 202 0
174 196 0
180 202 0
175 196 0
170 192 0
180 202 0
182 202 0
179 201 0
178 200 0
177 199 0
178 199 0
178 200 0
179 201 0
175 197 0
176 197 0
178 200 0
175 197 0
170 192 0
168 190 0
177 199 0
176 198 0
176 199 0
179 201 0
177 199 0
176 197 0
181 202 0
180 202 0
176 198 0
178 200 0
179 202 0
178 201 0
180 202 0
181 202 0
179 201 0
176 198 0
178 200 0
181 202 0
183 204 0
179 201 0
178 199 0
176 199 0
180 202 0
182 204 0
180 201 0
180 202 0
180 201 0
182 203 0
180 202 0
183 203 0
178 200 0
180 203 0
183 204 0
180 202 0
181 202 0
183 204 0
183 204 0
182 204 0
182 203 0
178 200 0
182 203 0
182 204 0
180 201 0
181 203 0
178 201 0
180 202 0
180 201 0
179 202 0
182 204 0
179 201 0
176 198 0
181 203 0
178 201 0
180 203 0
181 202 0
181 202 0
177 200 0
180 203 0
181 202 0
179 201 0
181 202 0
181 202 0
181 202 0
184 205 0
181 203 0
183 204 0
180 202 0
179 202 0
180 202 0
182 203 0
181 203 0
183 204 0
180 202 0
181 203 0
181 202 0
181 202 0
181 203 0
180 202 0
181 203 0
183 204 0
181 202 0
181 203 0
180 201 0
180 203 0
183 204 0
178 200 0
180 203 0
181 202 0
181 202 0
180 202 0
179 202 0
179 201 0
181 202 0
179 202 0
184 205 0
181 203 0
181 203 0
182 204 0
184 204 0
184 205 0
182 204 0
179 202 0
181 203 0
180 203 0
179 201 0
182 204 0
180 201 0
183 203 0
178 201 0
182 204 0
183 204 0
181 203 0
181 203 0
183 204 0
181 203 0
182 203 0
181 203 0
178 200 0
182 204 0
180 203 0
181 203 0
182 203 0
179 202 0
182 203 0
181 203 0
182 203 0
182 203 0
182 204 0
181 203 0
181 203 0
182 204 0
184 205 0
183 204 0
181 203 0
181 203 0
182 204 0
181 203 0
182 204 0
180 202 0
179 201 0
182 204 0
181 203 0
181 203 0
180 202 0
181 203 0
183 204 0
183 204 0
181 203 0
182 204 0
183 204 0
179 202 0
181 203 0
183 204 0
178 200 0
181 203 0
181 203 0
180 202 0
183 204 0
179 202 0
181 203 0
179 201 0
181 203 0
179 201 0
183 204 0
180 202 0
181 203 0
182 204 0
181 202 0
180 202 0
182 203 0
181 203 0
182 204 0
182 204 0
178 201 0
180 203 0
179 201 0
178 200 0
181 202 0
183 204 0
180 203 0
180 202 0
182 204 0
182 204 0
184 205 0
180 203 0
181 203 0
179 202 0
183 204 0
180 202 0
183 204 0
181 203 0
181 203 0
182 204 0
179 201 0
181 203 0
180 201 0
179 201 0
182 204 0
176 199 0
182 203 0
179 202 0
179 201 0
176 199 0
182 203 0
181 203 0
181 203 0
180 203 0
181 203 0
181 203 0
184 205 0
178 200 0
180 203 0
177 199 0
179 201 0
177 199 0
183 204 0
178 200 0
180 201 0
180 201 0
180 202 0
174 194 0
174 196 0
180 202 0
182 204 0
181 203 0
176 199 0
180 201 0
182 204 0
176 198 0
179 200 0
177 199 0
176 199 0
181 201 0
179 200 0
178 199 0
177 198 0
180 202 0
178 200 0
178 200 0
179 200 0
183 203 0
183 204 0
176 199 0
179 201 0
180 202 0
178 200 0
182 203 0
180 202 0
182 203 56
182 203 69
182 203 80
177 199 38
187 206 111
182 203 80
187 208 104
185 205 80
177 199 56
183 204 69
180 202 80
176 197 56
181 203 97
182 202 89
185 205 124
188 208 118
188 208 129
178 201 89
174 194 89
181 201 56
180 201 118
176 196 69
177 198 97
175 196 80
176 197 89
174 195 80
186 207 89
172 193 104
184 206 124
177 197 89
180 201 124
177 198 97
176 197 97
173 193 89
176 197 104
179 199 97
171 193 97
174 194 69
160 182 111
173 193 80
178 198 80
170 191 104
180 200 111
172 195 118
169 189 97
170 192 111
178 198 144
165 186 69
178 199 118
176 197 111
180 200 104
169 189 104
166 187 89
175 194 97
187 207 149
171 191 97
175 194 111
179 198 124
174 194 97
172 191 104
173 193 69
174 194 56
166 187 38
173 194 56
158 180 56
169 191 0
168 188 0
173 194 38
176 198 0
169 191 0
175 197 0
172 193 0
177 199 0
172 194 0
166 188 0
167 188 0
155 177 0
161 183 0
170 192 0
164 185 0
169 191 0
165 186 0
172 194 0
163 185 0
157 178 0
166 187 0
160 183 0
169 190 0
160 182 0
171 192 0
171 192 0
170 191 0
160 181 0
169 192 0
174 196 0
164 187 0
175 197 0
166 188 0
167 188 0
170 192 0
166 188 0
174 196 0
166 187 0
172 193 0
165 187 0
168 191 0
174 196 0
172 193 0
176 198 0
172 194 0
170 191 0
174 196 0
169 191 0
173 194 0
172 196 0
174 196 0
178 199 0
174 195 0
173 195 0
174 197 0
169 191 0
180 202 0
172 195 0
174 197 0
171 194 0
175 197 0
176 198 0
177 199 0
176 198 0
178 200 0
177 199 0
173 195 0
172 193 0
177 199 0
176 199 0
174 195 0
177 199 0
177 199 0
174 197 0
174 197 0
177 199 0
175 196 0
176 198 0
178 200 0
177 199 0
179 202 0
174 196 0
178 201 0
178 200 0
180 203 0
175 196 0
178 199 0
181 202 0
177 199 0
179 201 0
177 199 0
177 199 0
183 204 0
181 203 0
178 199 0
178 201 0
183 204 0
178 201 0
175 197 0
182 204 0
180 202 0
173 196 0
175 198 0
176 199 0
175 197 0
179 200 0
179 200 0
176 198 0
181 203 0
175 196 0
179 202 0
183 204 0
182 203 0
180 202 0
182 203 0
181 203 0
180 202 0
180 202 0
180 202 0
178 200 0
182 204 0
181 202 0
183 204 0
180 202 0
180 203 0
181 203 0
184 205 0
183 204 0
181 203 0
179 201 0
182 204 0
185 205 0
179 201 0
181 203 0
180 202 0
180 202 0
180 202 0
181 202 0
177 200 0
183 204 0
178 201 0
181 202 0
178 200 0
180 202 0
182 203 0
182 204 0
179 201 0
180 203 0
180 203 0
178 200 0
181 203 0
182 204 0
182 204 0
182 204 0
182 203 0
181 203 0
181 202 0
182 203 0
183 204 0
182 203 0
182 204 0
182 204 0
181 203 0
180 202 0
182 204 0
179 201 0
181 202 0
184 205 0
182 204 0
182 203 0
182 204 0
179 201 0
181 202 0
182 203 0
180 202 0
184 205 0
180 203 0
180 202 0
183 204 0
184 205 0
183 204 0
184 205 0
181 203 0
179 202 0
180 202 0
180 203 0
182 204 0
182 203 0
180 202 0
181 203 0
182 203 0
182 204 0
182 204 0
184 204 0
183 204 0
182 204 0
182 204 0
182 204 0
182 203 0
180 203 0
181 203 0
183 204 0
182 204 0
180 202 0
180 202 0
179 202 0
181 203 0
180 202 0
180 202 0
184 204 0
182 204 0
180 201 0
181 203 0
181 203 0
183 204 0
181 203 0
184 205 0
182 204 0
182 204 0
182 204 0
182 204 0
178 201 0
180 203 0
182 204 0
181 203 0
182 203 0
178 201 0
182 203 0
183 204 0
182 204 0
181 203 0
178 201 0
180 203 0
181 203 0
181 203 0
180 202 0
178 200 0
178 201 0
183 204 0
181 203 0
181 203 0
182 203 0
180 202 0
181 203 0
179 202 0
182 203 0
181 202 0
180 203 0
181 203 0
180 202 0
182 204 0
180 202 0
184 204 0
180 202 0
176 198 0
180 202 0
181 202 0
181 203 0
182 203 0
181 203 0
182 204 0
183 204 0
183 204 0
181 203 0
180 201 0
181 203 0
179 200 0
179 201 0
182 203 0
182 204 0
182 204 0
184 205 0
180 202 0
181 203 0
183 204 0
184 204 0
181 203 0
179 202 0
179 201 0
180 202 0
181 203 0
179 201 0
182 203 0
178 200 0
182 204 0
177 199 0
184 205 0
182 203 0
179 201 0
178 200 0
179 200 0
179 201 0
180 202 0
181 203 0
181 202 0
183 204 0
177 199 0
179 200 0
180 202 0
178 200 0
177 199 0
178 200 0
179 201 0
178 200 0
182 204 0
181 202 0
179 200 0
178 199 0
182 203 0
181 203 0
174 196 0
177 200 0
177 199 0
178 201 0
182 203 0
178 200 0
176 197 0
178 200 0
180 201 0
179 201 0
179 201 0
178 200 0
181 203 0
178 200 0
181 202 0
178 200 0
178 200 0
178 200 0
184 204 0
177 199 0
178 200 0
182 203 0
180 202 0
183 204 0
181 203 0
182 204 56
179 201 38
181 203 56
181 204 38
178 199 69
177 199 56
188 207 129
174 195 56
180 201 89
176 199 69
180 200 38
182 203 89
181 202 89
180 200 104
181 201 111
184 205 124
177 197 56
178 199 89
178 200 134
185 206 124
175 196 89
182 203 111
174 194 56
171 191 97
178 199 104
186 208 134
180 201 104
174 195 97
182 204 89
175 197 111
175 195 89
177 196 80
176 196 69
172 193 111
171 193 118
182 204 124
178 199 97
175 197 97
175 196 104
183 203 104
174 194 80
168 188 97
168 188 104
180 200 129
177 199 149
184 205 111
175 194 118
176 196 111
178 199 129
181 202 124
173 193 104
184 204 134
166 185 80
169 190 124
178 198 134
170 189 111
174 192 129
179 198 111
183 202 111
176 196 97
175 196 69
169 190 56
162 183 80
173 193 69
171 191 0
175 197 0
174 195 0
175 197 0
178 199 0
181 202 0
171 191 0
173 195 0
170 192 0
163 184 0
173 194 0
162 183 0
174 195 0
166 188 0
172 192 0
169 190 0
166 187 0
167 188 0
164 185 0
159 180 0
164 186 0
164 185 0
164 186 0
163 184 0
168 189 0
170 193 0
175 197 0
171 193 0
168 190 0
175 197 0
176 197 0
168 189 0
171 192 0
171 192 0
172 194 0
172 194 0
170 193 0
174 196 0
167 190 0
172 195 0
168 190 0
173 195 0
167 188 0
166 189 0
162 185 0
172 194 0
175 197 0
175 197 0
179 201 0
171 194 0
168 190 0
174 195 0
172 196 0
176 198 0
175 197 0
178 200 0
172 194 0
177 199 0
174 196 0
173 194 0
175 196 0
180 202 0
178 201 0
181 203 0
172 193 0
179 200 0
176 198 0
177 200 0
171 194 0
180 203 0
178 200 0
178 199 0
174 197 0
180 201 0
170 192 0
179 200 0
174 196 0
179 201 0
177 198 0
179 201 0
178 202 0
181 202 0
175 197 0
181 202 0
181 203 0
178 200 0
180 202 0
179 201 0
176 198 0
179 201 0
185 205 0
177 199 0
177 199 0
178 199 0
179 201 0
179 202 0
176 199 0
179 201 0
182 203 0
181 202 0
183 203 0
178 200 0
181 203 0
180 202 0
181 202 0
183 203 0
183 204 0
180 202 0
175 197 0
182 202 0
175 198 0
177 200 0
175 197 0
179 201 0
179 202 0
180 202 0
181 202 0
183 204 0
179 201 0
176 199 0
180 202 0
182 203 0
181 203 0
182 203 0
182 204 0
183 204 0
183 204 0
179 200 0
181 203 0
177 200 0
179 202 0
179 200 0
177 199 0
180 202 0
181 202 0
182 203 0
179 201 0
182 204 0
182 203 0
177 199 0
181 203 0
180 203 0
182 204 0
180 202 0
180 203 0
180 203 0
183 203 0
180 202 0
180 202 0
182 204 0
181 203 0
184 205 0
183 204 0
180 202 0
182 203 0
180 203 0
180 202 0
180 203 0
182 204 0
179 202 0
182 204 0
181 203 0
182 203 0
179 201 0
180 202 0
185 205 0
179 201 0
182 204 0
180 202 0
180 202 0
181 203 0
180 203 0
181 203 0
177 200 0
180 203 0
180 203 0
178 201 0
182 204 0
179 201 0
180 202 0
181 203 0
183 204 0
181 203 0
182 204 0
183 204 0
181 203 0
181 203 0
182 204 0
182 204 0
183 204 0
180 203 0
180 202 0
184 205 0
180 202 0
183 204 0
180 203 0
183 204 0
181 203 0
182 204 0
182 204 0
180 202 0
181 203 0
182 203 0
181 203 0
181 203 0
183 204 0
179 202 0
180 203 0
184 205 0
182 204 0
180 202 0
183 204 0
180 202 0
181 203 0
177 200 0
184 205 0
180 203 0
183 204 0
180 202 0
181 203 0
181 202 0
183 204 0
183 204 0
180 201 0
183 204 0
182 204 0
182 204 0
182 204 0
178 202 0
182 203 0
183 204 0
180 203 0
183 204 0
181 203 0
181 202 0
180 202 0
179 202 0
181 203 0
183 204 0
180 202 0
181 203 0
180 203 0
177 200 0
183 203 0
182 204 0
180 202 0
182 204 0
180 202 0
182 204 0
183 204 0
177 200 0
182 204 0
180 202 0
180 202 0
181 203 0
181 202 0
179 202 0
182 203 0
180 201 0
180 202 0
175 198 0
183 204 0
182 204 0
180 203 0
181 203 0
180 202 0
180 201 0
183 204 0
182 204 0
182 203 0
180 202 0
180 202 0
182 203 0
179 201 0
181 203 0
179 202 0
183 204 0
179 202 0
176 198 0
180 203 0
180 202 0
181 202 0
182 204 0
180 202 0
181 202 0
181 203 0
180 202 0
183 204 0
178 201 0
181 203 0
181 203 0
182 204 0
179 201 0
181 203 0
182 203 0
179 201 0
179 201 0
181 202 0
179 200 0
182 203 0
181 202 0
182 204 0
177 199 0
181 203 0
181 203 0
181 202 0
179 201 0
181 203 0
177 199 0
177 199 0
180 202 0
177 199 0
182 204 0
177 199 0
180 202 0
181 202 0
179 201 0
182 204 0
182 204 0
179 201 0
181 203 0
180 202 0
179 201 0
179 201 0
180 202 0
178 201 0
177 200 0
177 199 0
176 199 0
176 198 0
180 201 0
182 204 0
179 202 0
181 203 0
181 203 0
179 201 0
185 206 56
183 204 38
178 200 38
184 205 56
183 204 80
182 201 80
180 201 97
188 208 118
184 205 104
176 198 89
182 202 97
179 200 104
186 206 97
184 205 111
181 201 80
184 204 129
186 206 118
179 200 124
188 208 144
183 204 89
177 198 104
182 203 118
182 202 97
182 201 97
179 201 89
180 201 118
177 199 104
175 196 89
185 206 129
181 202 134
173 194 124
177 198 97
174 195 104
172 192 89
180 202 124
172 193 104
177 197 80
174 196 104
177 198 118
172 193 104
174 193 104
178 198 89
181 201 89
172 193 97
176 196 97
174 195 80
172 193 129
179 199 104
178 198 80
174 194 80
175 195 104
166 185 38
185 205 118
180 200 129
182 202 97
177 196 97
176 196 97
180 199 89
170 190 97
177 198 89
168 190 0
177 197 80
173 193 69
179 199 38
175 197 38
166 188 56
158 179 0
170 192 0
177 199 0
174 196 0
165 187 0
167 189 0
166 188 0
158 180 0
170 191 0
171 194 0
167 189 0
164 186 0
172 194 0
174 195 0
170 191 0
168 191 0
174 196 0
172 193 0
165 188 0
172 193 0
162 184 0
171 193 0
169 191 0
167 189 0
182 204 0
172 194 0
162 184 0
168 189 0
173 195 0
168 190 0
169 191 0
172 194 0
164 186 0
170 192 0
174 195 0
172 195 0
172 194 0
174 197 0
168 190 0
168 190 0
175 196 0
174 196 0
162 185 0
168 190 0
170 191 0
170 192 0
177 199 0
169 190 0
174 196 0
170 193 0
168 189 0
176 197 0
169 191 0
174 197 0
177 200 0
173 195 0
171 193 0
172 194 0
177 199 0
177 198 0
175 198 0
172 193 0
169 192 0
179 201 0
177 199 0
172 194 0
176 198 0
172 194 0
174 196 0
177 199 0
176 198 0
178 200 0
173 195 0
178 200 0
176 199 0
177 200 0
175 197 0
178 200 0
180 202 0
178 199 0
174 196 0
176 197 0
178 201 0
181 203 0
182 203 0
178 200 0
180 202 0
176 198 0
181 203 0
181 202 0
177 199 0
177 199 0
177 198 0
176 199 0
180 202 0
176 198 0
180 202 0
174 196 0
180 203 0
182 204 0
182 202 0
181 202 0
179 201 0
183 204 0
183 204 0
176 199 0
176 199 0
178 200 0
178 200 0
180 202 0
181 203 0
180 201 0
180 202 0
183 203 0
180 202 0
181 203 0
180 203 0
178 200 0
181 202 0
181 202 0
179 201 0
182 204 0
182 203 0
179 201 0
180 201 0
179 201 0
177 198 0
177 199 0
180 202 0
180 203 0
180 201 0
181 203 0
181 202 0
182 204 0
179 201 0
182 203 0
181 203 0
181 203 0
179 201 0
180 201 0
184 205 0
182 204 0
182 204 0
178 201 0
179 201 0
180 202 0
179 201 0
180 202 0
180 202 0
182 204 0
182 204 0
183 204 0
180 202 0
181 203 0
181 203 0
180 202 0
178 201 0
182 204 0
177 200 0
185 205 0
183 204 0
180 202 0
182 204 0
178 200 0
181 203 0
182 204 0
181 203 0
183 204 0
180 202 0
178 200 0
180 203 0
180 201 0
182 203 0
181 203 0
183 204 0
181 203 0
183 204 0
182 204 0
181 203 0
180 202 0
182 204 0
180 202 0
182 204 0
182 204 0
182 203 0
182 204 0
181 203 0
184 205 0
182 204 0
181 203 0
183 204 0
181 203 0
182 204 0
182 204 0
183 204 0
184 205 0
181 203 0
180 202 0
179 202 0
182 204 0
185 205 0
181 203 0
181 203 0
181 203 0
181 203 0
182 204 0
181 203 0
182 203 0
183 204 0
177 200 0
182 204 0
180 202 0
182 204 0
180 202 0
179 201 0
183 204 0
184 205 0
181 203 0
181 203 0
182 204 0
181 203 0
181 203 0
183 204 0
181 203 0
181 202 0
183 204 0
183 204 0
182 203 0
181 202 0
182 203 0
180 202 0
183 204 0
179 201 0
182 203 0
182 204 0
179 201 0
181 203 0
180 202 0
183 204 0
181 203 0
182 203 0
180 203 0
183 204 0
182 203 0
179 202 0
179 202 0
180 203 0
181 203 0
181 202 0
182 204 0
182 203 0
180 202 0
181 203 0
179 201 0
181 202 0
184 205 0
183 204 0
182 203 0
179 202 0
180 201 0
181 203 0
182 204 0
180 202 0
180 202 0
180 203 0
181 203 0
177 199 0
182 203 0
183 204 0
182 204 0
176 199 0
180 202 0
178 200 0
181 203 0
181 202 0
182 204 0
181 202 0
181 203 0
181 203 0
181 203 0
181 203 0
184 205 0
179 201 0
181 202 0
181 203 0
182 204 0
181 203 0
179 201 0
182 204 0
180 202 0
181 203 0
179 200 0
180 202 0
181 202 0
181 203 0
181 203 0
179 201 0
179 202 0
181 202 0
181 202 0
179 201 0
182 203 0
179 202 0
180 202 0
178 200 0
179 201 0
178 200 0
180 201 0
183 204 0
180 201 0
179 202 0
182 204 0
179 201 0
180 201 0
181 203 0
182 202 0
181 202 0
177 200 0
178 200 0
180 201 0
181 202 0
179 201 0
180 201 0
179 202 0
177 199 0
171 193 0
179 200 0
178 199 0
181 202 0
177 200 0
181 203 0
178 200 0
181 202 0
184 205 0
186 206 56
182 203 56
178 200 38
183 204 69
178 200 0
181 202 69
188 207 111
180 202 89
179 200 80
174 195 69
183 204 97
183 204 80
182 203 89
180 201 89
185 206 104
186 207 139
180 201 111
180 201 97
180 201 89
173 195 104
180 201 104
182 202 111
182 204 104
180 202 104
185 206 118
180 202 118
175 195 89
179 200 89
178 198 104
185 205 69
182 201 89
178 198 80
180 202 111
175 196 129
176 196 97
172 192 97
179 200 118
176 198 97
173 195 124
171 192 89
171 191 69
173 193 111
166 186 89
175 197 129
185 206 134
175 196 124
173 194 111
175 194 97
179 199 118
180 201 80
174 194 80
176 196 111
173 192 97
177 196 69
177 197 111
176 196 69
179 199 104
172 191 69
179 198 124
177 197 97
174 195 69
178 197 80
169 191 38
171 193 0
163 185 0
173 195 0
170 192 0
179 202 0
180 201 0
173 194 0
175 197 0
172 193 0
168 190 0
174 196 0
165 186 0
170 191 0
163 184 0
171 193 0
171 194 0
167 188 0
169 190 0
165 188 0
168 190 0
173 195 0
165 187 0
174 195 0
177 199 0
171 193 0
164 187 0
170 193 0
165 187 0
171 193 0
170 192 0
164 186 0
171 193 0
179 201 0
171 192 0
172 195 0
176 198 0
177 200 0
171 193 0
173 195 0
173 195 0
177 198 0
172 194 0
172 194 0
161 183 0
172 194 0
165 188 0
172 194 0
173 195 0
171 193 0
177 198 0
176 198 0
178 200 0
179 200 0
169 192 0
175 197 0
172 193 0
173 194 0
169 193 0
178 200 0
173 194 0
170 192 0
178 200 0
177 199 0
178 200 0
178 199 0
174 196 0
174 195 0
171 193 0
173 194 0
176 198 0
177 199 0
173 195 0
181 203 0
179 201 0
173 196 0
180 201 0
171 193 0
180 202 0
175 197 0
178 200 0
179 200 0
174 195 0
176 197 0
179 201 0
181 202 0
181 202 0
183 204 0
178 200 0
178 200 0
179 201 0
183 204 0
180 201 0
178 201 0
181 202 0
178 200 0
180 201 0
182 203 0
180 203 0
181 202 0
173 195 0
182 203 0
172 195 0
179 202 0
181 203 0
176 199 0
180 202 0
181 202 0
181 203 0
181 202 0
176 198 0
178 200 0
182 204 0
181 202 0
175 198 0
180 202 0
176 199 0
181 203 0
181 203 0
181 203 0
181 203 0
182 204 0
181 203 0
181 203 0
178 201 0
178 200 0
177 200 0
181 203 0
179 201 0
182 204 0
180 202 0
184 205 0
182 204 0
176 199 0
180 203 0
179 201 0
182 204 0
180 202 0
185 205 0
181 203 0
182 204 0
179 201 0
183 204 0
179 202 0
184 205 0
181 203 0
182 204 0
181 203 0
181 203 0
180 202 0
180 202 0
181 203 0
181 203 0
182 204 0
181 202 0
179 202 0
183 204 0
180 203 0
182 204 0
180 202 0
182 204 0
180 202 0
179 201 0
179 202 0
184 205 0
181 203 0
182 204 0
181 203 0
183 204 0
180 203 0
179 202 0
181 203 0
182 204 0
180 202 0
181 203 0
181 203 0
183 204 0
182 204 0
180 202 0
181 203 0
183 203 0
180 202 0
183 204 0
180 201 0
180 202 0
182 203 0
182 204 0
182 203 0
180 203 0
181 203 0
181 203 0
183 204 0
181 203 0
180 201 0
180 202 0
181 203 0
181 203 0
181 203 0
180 202 0
181 203 0
183 204 0
182 203 0
181 203 0
178 202 0
182 204 0
183 204 0
183 204 0
183 204 0
182 204 0
181 203 0
180 203 0
183 203 0
181 203 0
183 204 0
183 204 0
183 204 0
182 204 0
185 205 0
181 203 0
180 201 0
181 203 0
183 204 0
183 204 0
180 203 0
180 202 0
181 203 0
180 203 0
179 201 0
183 204 0
182 204 0
181 203 0
180 202 0
180 201 0
180 202 0
181 203 0
181 203 0
181 203 0
180 202 0
182 204 0
182 204 0
183 204 0
180 201 0
179 201 0
181 203 0
181 203 0
180 202 0
184 205 0
181 203 0
182 203 0
182 204 0
180 202 0
183 204 0
183 204 0
183 204 0
180 202 0
179 201 0
180 203 0
180 202 0
182 204 0
181 203 0
180 202 0
181 203 0
183 204 0
183 204 0
181 202 0
182 203 0
181 202 0
184 205 0
182 203 0
180 202 0
179 201 0
180 203 0
182 203 0
179 201 0
184 205 0
181 202 0
179 202 0
180 202 0
181 203 0
178 200 0
181 203 0
178 200 0
180 201 0
180 203 0
181 203 0
183 204 0
182 203 0
180 203 0
182 204 0
180 202 0
180 202 0
182 204 0
182 204 0
176 199 0
181 202 0
180 202 0
180 203 0
183 204 0
181 203 0
181 203 0
179 200 0
181 203 0
180 202 0
178 201 0
178 201 0
180 201 0
177 200 0
182 204 0
176 198 0
177 200 0
179 200 0
178 200 0
180 202 0
184 203 0
176 199 0
181 203 0
180 201 0
179 201 0
182 203 0
183 204 0
179 202 0
178 199 0
179 201 0
179 201 0
176 199 0
178 200 0
172 195 0
176 198 0
176 198 0
181 203 0
176 198 0
180 201 0
181 203 0
181 203 0
182 203 0
179 202 0
182 203 0
184 205 0
181 203 56
182 203 56
186 206 56
184 205 38
185 204 56
181 202 80
182 204 69
185 205 97
177 199 80
183 204 104
175 198 56
187 207 111
182 202 89
184 205 118
190 210 124
184 205 118
184 204 104
184 204 97
182 202 111
182 204 104
183 204 118
184 205 118
185 206 139
188 209 139
174 196 69
175 197 89
178 199 118
185 205 124
178 200 111
177 196 97
175 196 118
182 203 129
178 199 104
180 200 111
179 200 134
173 195 124
178 198 69
175 196 104
177 197 69
170 190 80
178 199 89
171 194 118
178 199 89
174 195 97
168 189 104
186 207 124
180 200 124
181 200 104
173 193 89
180 200 118
180 199 80
167 186 97
178 199 111
182 202 80
181 201 118
169 189 97
175 195 111
172 192 104
180 199 111
173 193 69
172 193 38
175 196 56
172 192 97
166 188 38
170 191 0
176 198 0
176 198 0
175 197 0
180 201 0
176 197 0
174 196 0
169 192 0
171 192 0
172 193 0
181 202 0
161 183 0
169 190 0
159 181 0
169 189 0
167 189 0
178 199 0
169 190 0
172 193 0
173 195 0
169 190 0
164 186 0
170 192 0
166 189 0
171 193 0
174 195 0
174 196 0
176 198 0
173 193 0
168 190 0
167 190 0
176 198 0
175 197 0
182 203 0
174 196 0
176 197 0
173 195 0
173 194 0
174 197 0
177 200 0
170 192 0
173 195 0
177 198 0
174 196 0
163 185 0
173 195 0
178 199 0
172 193 0
176 198 0
171 193 0
173 194 0
171 194 0
179 200 0
177 199 0
176 199 0
174 196 0
178 199 0
171 193 0
177 198 0
179 201 0
171 193 0
175 197 0
172 194 0
173 195 0
178 200 0
179 201 0
177 198 0
181 203 0
178 200 0
173 194 0
181 202 0
178 200 0
175 197 0
178 200 0
169 191 0
178 201 0
180 202 0
173 196 0
173 194 0
176 198 0
179 201 0
177 200 0
180 202 0
176 199 0
178 199 0
178 200 0
176 199 0
171 194 0
177 200 0
178 200 0
176 198 0
182 203 0
174 196 0
180 202 0
179 201 0
181 202 0
178 201 0
179 202 0
180 201 0
180 201 0
183 204 0
178 200 0
181 202 0
181 202 0
182 204 0
176 198 0
180 202 0
174 197 0
182 203 0
182 203 0
181 202 0
178 200 0
180 201 0
183 204 0
181 203 0
179 201 0
178 199 0
182 203 0
178 201 0
176 199 0
181 203 0
177 200 0
179 202 0
181 203 0
180 201 0
178 200 0
179 201 0
178 200 0
181 203 0
178 200 0
182 204 0
181 203 0
182 203 0
176 199 0
182 204 0
182 203 0
177 200 0
182 203 0
182 204 0
180 202 0
179 201 0
180 202 0
183 204 0
181 203 0
180 201 0
183 203 0
182 204 0
180 201 0
182 203 0
180 201 0
183 204 0
181 203 0
180 202 0
183 204 0
182 204 0
182 204 0
183 204 0
183 204 0
181 203 0
182 204 0
182 204 0
181 203 0
182 204 0
181 203 0
185 205 0
183 204 0
182 204 0
182 204 0
182 204 0
181 203 0
179 202 0
180 202 0
183 204 0
180 202 0
182 204 0
182 203 0
183 204 0
182 204 0
181 203 0
181 203 0
182 204 0
181 203 0
181 203 0
183 204 0
180 202 0
178 200 0
179 202 0
183 204 0
181 202 0
183 204 0
183 204 0
182 204 0
181 203 0
181 203 0
182 204 0
181 203 0
183 204 0
182 204 0
182 204 0
183 204 0
183 204 0
181 202 0
181 203 0
180 202 0
183 204 0
181 203 0
182 204 0
184 205 0
180 202 0
180 203 0
179 202 0
182 204 0
182 204 0
183 204 0
182 204 0
181 203 0
180 202 0
183 204 0
178 201 0
181 203 0
183 204 0
184 205 0
181 203 0
182 203 0
180 202 0
181 203 0
183 204 0
181 203 0
181 203 0
180 203 0
183 204 0
181 202 0
182 204 0
181 202 0
185 205 0
183 203 0
183 204 0
182 204 0
182 204 0
181 203 0
181 203 0
181 203 0
183 203 0
181 203 0
180 202 0
181 203 0
182 204 0
182 204 0
182 204 0
183 204 0
182 204 0
182 204 0
179 202 0
181 203 0
181 203 0
182 204 0
183 204 0
182 204 0
182 203 0
180 203 0
179 201 0
180 203 0
183 204 0
181 203 0
181 202 0
182 204 0
181 202 0
180 203 0
180 202 0
184 205 0
184 205 0
183 204 0
183 204 0
181 203 0
181 203 0
180 202 0
184 205 0
178 200 0
179 200 0
178 200 0
181 202 0
178 200 0
182 204 0
182 203 0
176 198 0
182 203 0
180 202 0
179 202 0
182 203 0
181 203 0
180 202 0
180 203 0
183 204 0
180 203 0
182 204 0
181 203 0
182 204 0
180 203 0
177 199 0
184 204 0
181 203 0
182 204 0
180 202 0
181 203 0
181 203 0
179 200 0
180 202 0
175 197 0
183 204 0
176 198 0
181 203 0
180 202 0
185 205 0
178 201 0
176 198 0
179 201 0
180 202 0
178 200 0
181 202 0
177 200 0
177 199 0
183 203 0
182 204 0
177 199 0
177 199 0
179 200 0
180 202 0
181 203 0
176 199 0
179 200 0
179 201 0
181 203 0
175 198 0
183 204 0
184 205 0
181 203 0
182 204 0
183 203 80
181 202 69
177 198 56
182 203 56
183 204 56
186 207 97
179 201 69
176 197 56
183 203 69
179 200 56
183 204 97
181 202 118
186 207 124
189 209 144
188 208 104
181 202 89
181 202 104
188 208 97
183 204 104
177 198 56
182 203 69
183 203 97
174 195 97
183 204 118
175 197 111
186 206 80
177 197 89
183 204 111
181 201 80
183 204 129
175 196 93
181 201 89
183 204 118
183 204 118
177 199 111
178 199 124
177 197 89
170 191 89
182 201 104
172 193 80
183 203 104
178 198 118
176 197 97
181 201 111
177 197 118
176 196 111
182 202 139
173 194 97
173 192 97
176 195 97
172 193 56
180 199 129
176 195 69
179 199 111
177 196 104
179 199 97
178 197 104
178 198 97
172 193 89
177 196 89
173 194 80
172 192 38
171 193 0
173 195 0
173 195 0
176 197 0
177 200 0
173 194 0
178 199 0
170 193 0
172 193 0
169 191 0
169 191 0
175 196 0
156 178 0
176 196 0
172 193 0
175 197 0
179 201 0
168 190 0
169 192 0
173 194 0
163 184 0
175 196 0
173 194 0
168 191 0
172 193 0
167 189 0
168 191 0
169 191 0
172 194 0
172 194 0
180 201 0
173 194 0
176 197 0
175 196 0
167 189 0
171 193 0
173 195 0
162 185 0
172 194 0
176 197 0
176 196 0
171 193 0
173 195 0
178 200 0
165 187 0
173 195 0
166 188 0
172 194 0
176 198 0
175 197 0
177 200 0
174 197 0
172 193 0
179 200 0
172 195 0
175 198 0
171 193 0
175 196 0
182 203 0
171 194 0
175 198 0
177 199 0
173 195 0
168 191 0
174 197 0
176 198 0
176 198 0
178 200 0
170 193 0
178 200 0
175 196 0
173 195 0
179 201 0
181 203 0
177 199 0
178 200 0
178 199 0
176 198 0
176 197 0
181 202 0
177 199 0
178 200 0
177 199 0
181 202 0
176 198 0
179 201 0
182 202 0
179 201 0
182 204 0
180 201 0
174 197 0
180 203 0
180 202 0
183 204 0
183 204 0
180 202 0
179 201 0
177 200 0
176 199 0
178 201 0
179 201 0
182 204 0
180 202 0
179 200 0
181 203 0
176 199 0
179 200 0
179 201 0
181 203 0
179 201 0
181 202 0
181 202 0
180 202 0
177 198 0
180 202 0
179 201 0
174 197 0
177 199 0
178 200 0
176 198 0
178 201 0
180 202 0
181 203 0
176 197 0
180 202 0
180 202 0
180 202 0
181 202 0
182 204 0
177 201 0
181 203 0
182 204 0
181 202 0
181 203 0
183 203 0
179 201 0
183 204 0
181 202 0
178 200 0
179 201 0
183 204 0
181 203 0
184 205 0
179 201 0
183 203 0
181 203 0
181 203 0
178 201 0
181 203 0
182 204 0
181 202 0
182 204 0
183 204 0
179 202 0
183 203 0
179 201 0
181 203 0
182 204 0
180 201 0
183 204 0
180 202 0
181 203 0
180 203 0
183 204 0
182 203 0
181 203 0
180 202 0
177 200 0
184 205 0
179 202 0
182 204 0
181 202 0
181 202 0
180 203 0
182 203 0
183 204 0
183 204 0
181 202 0
182 204 0
181 203 0
180 202 0
181 203 0
182 204 0
184 205 0
181 203 0
177 199 0
180 202 0
183 204 0
181 203 0
182 204 0
180 202 0
184 205 0
180 202 0
180 202 0
180 202 0
179 202 0
178 201 0
178 202 0
179 202 0
181 203 0
184 205 0
181 202 0
181 203 0
180 202 0
183 204 0
182 204 0
182 204 0
182 203 0
182 204 0
180 201 0
184 205 0
183 204 0
181 202 0
181 203 0
181 203 0
181 203 0
180 203 0
181 203 0
181 203 0
181 203 0
180 203 0
183 204 0
182 204 0
182 203 0
180 203 0
183 204 0
182 204 0
179 201 0
184 205 0
184 205 0
182 203 0
183 204 0
180 202 0
181 203 0
181 203 0
183 204 0
181 203 0
181 202 0
181 203 0
182 204 0
181 203 0
183 204 0
181 203 0
182 204 0
182 204 0
182 204 0
181 202 0
183 204 0
180 203 0
182 204 0
181 203 0
181 203 0
182 203 0
183 204 0
179 201 0
183 203 0
183 204 0
181 203 0
181 203 0
184 205 0
183 204 0
182 203 0
178 200 0
178 201 0
181 203 0
184 205 0
182 203 0
179 201 0
178 200 0
181 202 0
184 205 0
181 203 0
182 204 0
181 202 0
179 201 0
182 203 0
181 202 0
182 204 0
180 202 0
178 200 0
179 201 0
183 204 0
180 202 0
182 204 0
180 202 0
181 203 0
179 202 0
180 203 0
177 200 0
178 200 0
179 201 0
181 203 0
177 200 0
180 202 0
180 201 0
180 202 0
177 199 0
181 203 0
176 199 0
180 203 0
180 202 0
180 202 0
182 203 0
179 202 0
177 199 0
182 203 0
183 204 0
180 202 0
183 204 0
178 201 0
183 204 0
178 200 0
179 202 0
183 204 0
178 200 0
178 200 0
178 200 0
179 202 0
179 202 0
182 204 0
183 204 0
176 198 0
179 201 0
176 199 0
179 201 0
177 199 0
179 201 0
179 201 0
179 200 0
178 200 0
179 200 0
176 198 0
175 197 0
181 202 0
177 199 0
180 203 0
182 203 0
181 203 0
182 204 38
182 203 89
184 205 89
181 203 56
186 206 89
185 205 69
179 200 56
180 201 80
183 203 111
181 201 89
177 198 69
182 204 56
181 201 80
179 201 104
188 208 111
185 206 104
181 200 111
186 206 104
183 204 104
183 203 97
181 201 97
184 204 134
178 199 89
183 203 111
184 205 104
180 200 97
178 200 124
180 200 111
180 201 118
182 201 80
178 199 111
175 195 104
182 202 89
172 193 89
179 199 104
176 196 124
184 205 104
178 199 97
176 198 124
171 192 111
176 198 129
183 203 124
169 189 89
174 195 111
170 190 89
182 203 97
174 193 124
180 200 111
170 189 69
180 199 89
176 195 69
178 197 124
177 196 89
185 203 124
170 190 97
190 208 144
178 197 80
179 199 69
166 187 56
169 190 0
167 187 56
172 193 38
178 199 56
173 194 38
174 195 0
176 198 0
176 197 0
172 195 0
178 199 0
169 191 0
173 194 0
173 195 0
174 196 0
166 188 0
169 190 0
166 188 0
172 192 0
169 189 0
172 194 0
173 195 0
170 191 0
165 187 0
160 183 0
170 191 0
167 188 0
166 188 0
175 197 0
177 198 0
173 196 0
170 193 0
165 188 0
169 190 0
176 197 0
171 192 0
167 189 0
168 191 0
173 195 0
170 192 0
171 193 0
176 197 0
174 195 0
172 194 0
173 195 0
169 191 0
172 195 0
180 202 0
179 201 0
175 197 0
178 200 0
170 193 0
180 202 0
172 194 0
170 192 0
169 191 0
175 197 0
172 193 0
179 202 0
175 197 0
172 195 0
182 203 0
175 198 0
178 199 0
175 197 0
176 198 0
179 201 0
174 196 0
180 202 0
168 190 0
174 196 0
178 201 0
179 201 0
175 197 0
175 196 0
181 203 0
176 199 0
179 201 0
177 198 0
182 203 0
171 193 0
177 198 0
177 199 0
177 199 0
180 202 0
178 200 0
180 202 0
175 198 0
176 197 0
177 199 0
180 201 0
176 198 0
182 203 0
181 203 0
177 199 0
179 201 0
182 203 0
179 201 0
179 202 0
179 202 0
181 203 0
178 200 0
177 200 0
178 199 0
182 203 0
182 204 0
181 203 0
177 199 0
180 200 0
180 202 0
181 202 0
180 203 0
180 202 0
180 202 0
178 200 0
179 201 0
182 204 0
178 200 0
179 202 0
177 200 0
180 202 0
180 202 0
177 199 0
180 202 0
180 202 0
181 203 0
181 203 0
177 200 0
180 202 0
181 202 0
181 202 0
179 201 0
178 200 0
181 203 0
183 204 0
181 203 0
183 204 0
181 203 0
181 202 0
179 202 0
180 203 0
180 202 0
182 204 0
181 203 0
179 201 0
184 204 0
183 204 0
181 202 0
183 204 0
181 203 0
181 203 0
181 202 0
183 204 0
181 203 0
183 204 0
182 203 0
179 202 0
183 204 0
183 204 0
180 202 0
179 201 0
180 203 0
180 202 0
181 203 0
182 203 0
180 202 0
182 204 0
182 204 0
182 204 0
180 203 0
181 203 0
179 202 0
180 202 0
183 204 0
179 201 0
181 203 0
183 204 0
182 204 0
182 204 0
182 204 0
182 204 0
181 203 0
183 204 0
183 204 0
182 204 0
182 203 0
182 203 0
180 203 0
180 202 0
180 202 0
181 203 0
182 204 0
181 203 0
182 203 0
183 204 0
182 203 0
182 203 0
181 203 0
179 201 0
182 203 0
183 204 0
180 202 0
180 203 0
183 204 0
181 202 0
183 204 0
183 204 0
181 203 0
183 204 0
181 203 0
183 204 0
181 203 0
182 204 0
180 203 0
182 204 0
180 202 0
181 203 0
183 204 0
180 203 0
182 203 0
181 203 0
182 204 0
181 203 0
183 204 0
182 204 0
182 204 0
179 201 0
181 203 0
182 204 0
181 203 0
181 203 0
182 203 0
182 203 0
184 205 0
179 201 0
182 204 0
182 204 0
180 202 0
182 204 0
180 202 0
183 204 0
181 203 0
182 203 0
180 202 0
182 204 0
180 202 0
184 205 0
178 200 0
183 204 0
180 201 0
177 200 0
181 203 0
184 205 0
181 203 0
178 200 0
181 202 0
182 204 0
182 204 0
184 205 0
180 203 0
181 203 0
181 203 0
180 202 0
181 203 0
181 202 0
179 202 0
183 204 0
177 200 0
180 202 0
182 204 0
178 199 0
181 203 0
181 203 0
178 201 0
180 201 0
182 204 0
182 204 0
182 204 0
180 202 0
182 204 0
181 203 0
181 203 0
181 203 0
179 200 0
176 199 0
182 203 0
180 202 0
181 203 0
182 204 0
184 205 0
184 205 0
182 204 0
179 201 0
181 203 0
181 203 0
177 200 0
181 203 0
177 200 0
180 202 0
181 203 0
176 198 0
183 204 0
180 202 0
179 201 0
182 204 0
180 202 0
179 202 0
181 202 0
182 204 0
178 200 0
173 196 0
182 204 0
179 202 0
179 201 0
177 200 0
180 202 0
178 200 0
180 202 0
180 202 0
173 195 0
173 195 0
178 199 0
180 202 0
180 202 0
175 198 0
175 199 0
180 202 0
176 199 0
175 197 0
180 202 0
181 202 0
176 197 0
182 203 0
174 196 0
178 200 0
179 201 0
182 203 0
177 200 0
181 203 0
180 202 0
180 201 0
181 203 0
183 204 56
184 205 80
176 198 38
178 200 56
180 202 38
187 207 97
176 197 56
180 201 69
185 205 97
180 202 111
183 203 97
186 207 104
184 204 111
179 200 80
185 206 89
187 208 118
182 203 97
186 206 80
180 201 89
182 203 104
186 206 134
181 202 104
184 204 111
179 200 97
181 201 80
184 205 129
181 203 104
181 202 104
179 200 104
185 206 97
181 202 104
173 194 89
175 196 118
178 198 104
179 200 89
179 199 89
182 203 124
177 199 104
172 193 104
178 199 118
180 201 129
178 199 89
173 194 111
182 202 124
174 193 97
176 197 104
166 187 89
177 198 97
179 199 80
162 183 89
182 202 111
181 201 111
181 201 80
180 199 104
190 209 134
184 205 89
173 193 69
174 194 89
177 197 38
172 194 56
184 204 80
176 199 38
165 185 0
172 193 0
177 197 0
180 202 0
176 198 0
177 199 0
175 196 0
177 197 0
178 200 0
168 190 0
158 179 0
175 195 0
169 190 0
169 189 0
171 192 0
175 197 0
178 199 0
173 194 0
179 200 0
162 185 0
170 191 0
172 194 0
174 195 0
171 193 0
170 191 0
171 192 0
168 190 0
172 193 0
174 196 0
170 192 0
174 196 0
164 185 0
175 197 0
161 184 0
177 199 0
162 183 0
178 199 0
175 197 0
168 189 0
175 197 0
177 199 0
180 202 0
171 192 0
174 195 0
173 196 0
176 198 0
176 198 0
170 193 0
172 192 0
172 194 0
177 199 0
175 198 0
175 198 0
174 196 0
174 196 0
177 200 0
178 199 0
177 198 0
172 194 0
175 198 0
173 196 0
178 200 0
176 199 0
172 195 0
178 201 0
173 195 0
173 194 0
179 201 0
179 201 0
170 192 0
174 196 0
175 197 0
179 201 0
177 199 0
174 196 0
178 201 0
176 199 0
175 196 0
178 199 0
182 203 0
179 202 0
178 201 0
180 202 0
179 201 0
177 198 0
180 201 0
180 202 0
182 203 0
171 193 0
177 199 0
184 205 0
177 200 0
177 199 0
180 201 0
180 203 0
179 202 0
180 203 0
181 203 0
181 202 0
175 197 0
180 202 0
178 199 0
179 202 0
176 198 0
179 200 0
182 204 0
180 202 0
182 204 0
179 201 0
180 202 0
179 201 0
181 203 0
181 202 0
183 204 0
181 202 0
179 200 0
180 202 0
177 200 0
179 201 0
181 203 0
180 202 0
180 202 0
181 203 0
179 202 0
183 204 0
181 203 0
178 200 0
180 202 0
183 204 0
182 204 0
183 204 0
179 200 0
182 204 0
181 202 0
183 204 0
182 204 0
184 205 0
184 205 0
181 203 0
182 204 0
181 202 0
179 202 0
179 199 0
180 203 0
182 204 0
179 201 0
183 203 0
180 202 0
181 203 0
181 203 0
181 203 0
181 202 0
180 202 0
180 201 0
182 203 0
179 201 0
181 203 0
181 203 0
184 205 0
179 201 0
181 203 0
179 201 0
183 204 0
180 202 0
180 203 0
181 202 0
183 204 0
183 204 0
180 203 0
180 202 0
183 204 0
180 203 0
181 203 0
181 202 0
180 203 0
182 204 0
181 202 0
182 204 0
182 204 0
180 203 0
183 204 0
181 202 0
181 203 0
179 202 0
182 204 0
182 204 0
183 204 0
179 201 0
181 202 0
180 203 0
183 204 0
182 204 0
184 205 0
183 204 0
181 202 0
181 203 0
182 204 0
179 201 0
182 204 0
180 202 0
183 204 0
181 203 0
183 204 0
183 203 0
181 203 0
181 203 0
181 202 0
181 203 0
183 204 0
183 204 0
182 204 0
178 201 0
181 203 0
181 203 0
182 204 0
183 204 0
182 204 0
181 202 0
181 203 0
185 205 0
181 203 0
182 203 0
179 202 0
181 203 0
182 204 0
182 204 0
181 203 0
180 203 0
181 203 0
180 203 0
182 203 0
183 204 0
184 205 0
182 204 0
183 204 0
181 203 0
179 202 0
181 203 0
182 204 0
180 202 0
182 204 0
182 204 0
183 204 0
181 203 0
180 202 0
180 203 0
180 203 0
180 202 0
179 201 0
182 204 0
180 202 0
182 204 0
183 204 0
181 203 0
181 203 0
181 203 0
179 202 0
178 201 0
180 203 0
182 203 0
181 203 0
182 204 0
181 203 0
182 203 0
182 204 0
179 201 0
183 203 0
183 204 0
181 203 0
177 199 0
182 204 0
178 200 0
181 203 0
179 201 0
179 202 0
179 201 0
184 205 0
180 203 0
184 205 0
176 199 0
181 203 0
182 204 0
179 202 0
181 202 0
181 203 0
181 203 0
179 201 0
181 202 0
179 201 0
181 202 0
180 202 0
179 202 0
182 204 0
180 201 0
182 204 0
180 203 0
177 199 0
178 201 0
180 203 0
177 199 0
181 203 0
182 204 0
180 202 0
178 199 0
180 202 0
181 203 0
180 203 0
180 203 0
177 199 0
181 203 0
180 202 0
179 201 0
179 201 0
177 201 0
178 200 0
180 202 0
176 198 0
180 202 0
179 201 0
178 200 0
181 203 0
181 203 0
179 201 0
181 203 0
177 199 0
182 204 0
177 200 0
180 201 0
180 202 0
178 200 0
177 199 0
184 205 0
183 204 0
177 200 0
180 202 0
183 204 0
179 202 0
182 204 0
183 204 0
182 204 38
182 202 69
183 204 89
179 199 56
185 204 89
186 206 97
183 204 69
180 202 80
176 197 38
182 203 97
181 202 56
182 202 89
185 204 124
184 203 101
176 197 84
180 201 89
183 205 104
176 197 111
187 206 101
186 206 111
189 209 111
183 203 97
182 202 69
180 201 134
184 204 104
179 199 104
184 204 104
176 198 124
183 204 111
178 199 118
179 199 69
171 193 104
180 199 118
181 201 111
178 199 104
172 193 80
170 191 118
174 195 104
173 194 97
177 198 97
180 200 104
177 197 97
177 196 80
180 200 69
179 199 111
185 204 69
184 203 80
180 200 104
186 205 134
177 197 124
183 202 97
178 197 104
179 199 97
178 198 97
180 198 104
185 204 111
180 199 69
177 196 69
170 192 0
179 200 69
165 186 0
169 191 0
169 191 56
176 198 0
177 200 0
177 198 0
173 195 0
174 197 0
174 196 0
164 186 0
175 197 0
162 183 0
176 198 0
176 197 0
172 193 0
169 191 0
173 195 0
169 190 0
164 188 0
173 195 0
174 196 0
168 189 0
166 188 0
172 193 0
169 190 0
174 196 0
179 200 0
168 189 0
171 193 0
174 196 0
172 193 0
172 194 0
169 191 0
172 193 0
172 194 0
177 198 0
172 193 0
173 195 0
168 190 0
177 199 0
172 194 0
173 195 0
179 201 0
172 194 0
169 192 0
169 192 0
175 195 0
182 203 0
171 193 0
175 197 0
175 197 0
171 193 0
170 192 0
170 191 0
169 191 0
180 201 0
177 199 0
179 201 0
177 199 0
173 195 0
174 197 0
178 200 0
176 198 0
177 199 0
177 199 0
174 197 0
179 201 0
180 202 0
176 198 0
172 194 0
178 200 0
177 200 0
178 198 0
177 199 0
177 199 0
180 201 0
178 200 0
178 200 0
180 201 0
182 203 0
179 201 0
177 199 0
180 203 0
176 198 0
176 197 0
179 202 0
174 196 0
179 201 0
179 200 0
175 196 0
181 202 0
177 198 0
180 202 0
178 200 0
182 204 0
175 197 0
180 203 0
179 200 0
182 203 0
178 200 0
180 202 0
181 202 0
179 201 0
181 203 0
180 202 0
180 202 0
182 203 0
180 201 0
181 203 0
181 203 0
181 203 0
180 201 0
182 204 0
178 200 0
183 204 0
177 200 0
180 202 0
182 203 0
178 201 0
182 204 0
179 200 0
177 199 0
177 200 0
176 198 0
178 201 0
180 203 0
177 201 0
183 204 0
179 202 0
180 202 0
181 203 0
180 202 0
179 201 0
179 201 0
182 203 0
178 200 0
179 200 0
183 203 0
183 204 0
180 203 0
182 204 0
183 204 0
181 202 0
181 203 0
182 203 0
178 201 0
177 198 0
180 202 0
182 203 0
181 203 0
182 204 0
182 204 0
182 203 0
182 204 0
179 202 0
180 202 0
181 202 0
178 200 0
184 205 0
181 203 0
183 204 0
183 204 0
180 202 0
178 201 0
180 202 0
181 203 0
179 202 0
182 204 0
182 204 0
182 203 0
179 201 0
184 205 0
184 205 0
182 204 0
180 203 0
184 205 0
181 203 0
181 203 0
180 202 0
182 204 0
182 203 0
182 203 0
183 204 0
183 204 0
181 203 0
183 203 0
180 201 0
179 202 0
178 200 0
183 204 0
181 203 0
182 204 0
183 204 0
181 202 0
182 204 0
180 203 0
180 202 0
182 203 0
180 203 0
178 201 0
182 204 0
179 201 0
179 202 0
182 204 0
183 204 0
181 203 0
183 204 0
182 204 0
179 202 0
182 204 0
181 202 0
181 203 0
182 204 0
181 203 0
182 203 0
182 204 0
182 204 0
183 204 0
179 201 0
182 203 0
181 203 0
181 203 0
180 203 0
181 202 0
182 204 0
180 203 0
180 202 0
183 204 0
181 203 0
182 203 0
182 204 0
184 205 0
182 204 0
183 204 0
181 203 0
183 204 0
178 200 0
182 204 0
181 203 0
180 202 0
182 204 0
183 204 0
180 202 0
180 202 0
182 204 0
179 201 0
181 202 0
177 199 0
178 200 0
181 202 0
181 203 0
181 203 0
182 204 0
181 202 0
179 201 0
180 203 0
185 205 0
180 202 0
178 200 0
182 204 0
178 200 0
180 202 0
180 203 0
181 203 0
180 201 0
180 201 0
182 203 0
182 204 0
181 202 0
183 204 0
181 203 0
183 204 0
182 203 0
182 203 0
183 204 0
179 201 0
181 202 0
182 204 0
182 204 0
181 202 0
180 203 0
181 203 0
180 203 0
181 202 0
184 205 0
181 203 0
180 202 0
180 202 0
181 203 0
179 202 0
180 202 0
182 204 0
183 204 0
179 201 0
182 204 0
181 203 0
179 202 0
181 203 0
180 201 0
181 202 0
182 204 0
179 201 0
176 197 0
179 200 0
176 198 0
183 204 0
178 200 0
179 201 0
180 202 0
184 205 0
179 201 0
183 203 0
174 197 0
180 202 0
179 201 0
180 202 0
179 201 0
182 204 0
182 203 0
174 197 0
179 200 0
180 202 0
180 202 0
176 199 0
180 202 0
179 200 0
179 201 0
177 199 0
182 204 0
181 202 0
177 198 0
177 198 0
180 202 0
180 202 0
175 197 0
177 199 0
181 202 0
182 203 0
179 201 0
183 204 0
181 202 56
180 202 56
188 208 97
184 205 69
182 203 38
180 201 69
180 201 56
183 203 118
184 204 97
181 202 89
182 204 80
179 202 56
190 209 134
178 198 75
179 199 97
180 201 114
181 201 80
181 202 101
176 198 93
185 204 69
183 203 89
184 204 89
180 200 89
183 203 118
183 203 69
188 207 104
182 203 124
182 202 97
183 203 97
180 201 118
180 200 104
172 193 56
182 202 118
179 201 118
175 195 89
174 195 104
177 198 118
181 202 118
175 196 80
175 196 80
186 205 111
182 202 104
177 198 89
177 197 124
183 202 118
180 200 69
181 200 89
180 200 97
182 201 124
179 200 89
181 202 111
185 203 97
185 204 118
180 199 80
176 196 80
175 195 56
171 192 56
179 199 89
176 197 38
173 194 0
177 197 0
178 199 0
175 197 0
180 202 38
179 199 0
177 199 0
176 199 0
172 194 0
174 197 0
171 192 0
169 192 0
172 193 0
170 192 0
169 191 0
176 197 0
165 186 0
173 193 0
168 190 0
175 197 0
165 186 0
170 191 0
170 191 0
173 194 0
169 191 0
173 194 0
160 183 0
176 197 0
175 197 0
170 192 0
169 189 0
170 191 0
174 196 0
176 197 0
170 192 0
170 192 0
170 190 0
169 191 0
172 193 0
171 193 0
176 198 0
168 190 0
176 198 0
176 198 0
174 196 0
176 198 0
174 196 0
172 194 0
176 198 0
171 193 0
175 198 0
178 200 0
175 196 0
169 191 0
174 196 0
178 200 0
170 192 0
175 198 0
175 196 0
178 199 0
175 197 0
174 196 0
177 199 0
175 198 0
174 196 0
173 195 0
178 199 0
177 199 0
175 197 0
178 200 0
182 204 0
177 199 0
177 199 0
174 197 0
178 200 0
177 198 0
181 202 0
178 199 0
177 199 0
176 199 0
180 201 0
175 198 0
180 201 0
178 200 0
178 201 0
177 199 0
180 203 0
177 198 0
178 199 0
179 200 0
178 200 0
178 200 0
177 199 0
181 203 0
182 203 0
179 201 0
178 200 0
181 203 0
181 202 0
179 202 0
177 200 0
183 204 0
181 202 0
178 199 0
178 201 0
183 204 0
179 201 0
176 198 0
180 202 0
180 202 0
183 204 0
180 203 0
177 199 0
183 204 0
179 201 0
181 202 0
182 204 0
182 203 0
183 204 0
178 200 0
183 204 0
177 200 0
182 203 0
182 203 0
183 204 0
179 200 0
180 202 0
178 200 0
179 202 0
181 203 0
181 203 0
182 204 0
180 202 0
182 203 0
179 201 0
180 203 0
182 203 0
180 202 0
179 201 0
184 205 0
181 203 0
180 202 0
180 202 0
182 203 0
181 202 0
181 203 0
181 202 0
182 203 0
179 202 0
180 202 0
180 203 0
182 203 0
180 202 0
180 202 0
182 203 0
182 204 0
183 204 0
180 203 0
183 204 0
181 203 0
181 203 0
181 202 0
181 202 0
180 202 0
183 204 0
180 203 0
180 202 0
180 202 0
179 200 0
181 202 0
179 201 0
179 202 0
180 203 0
180 203 0
179 201 0
183 204 0
182 204 0
181 203 0
182 204 0
180 203 0
183 204 0
182 204 0
181 203 0
174 198 0
181 203 0
181 203 0
179 201 0
181 202 0
183 204 0
181 203 0
182 204 0
183 204 0
180 201 0
180 202 0
182 204 0
183 204 0
176 199 0
182 204 0
182 204 0
182 203 0
178 200 0
182 204 0
182 204 0
180 202 0
181 203 0
182 204 0
179 201 0
181 203 0
182 203 0
183 204 0
181 202 0
181 203 0
183 204 0
183 204 0
182 204 0
182 203 0
182 204 0
180 201 0
183 204 0
183 204 0
183 204 0
183 204 0
184 205 0
180 202 0
180 202 0
182 203 0
183 204 0
180 203 0
181 203 0
180 202 0
179 202 0
183 204 0
185 205 0
180 203 0
181 203 0
181 203 0
184 205 0
180 203 0
180 202 0
182 204 0
180 203 0
180 202 0
180 201 0
182 203 0
182 204 0
183 204 0
180 202 0
180 202 0
180 202 0
182 204 0
179 201 0
182 204 0
180 202 0
180 203 0
182 204 0
182 204 0
182 204 0
183 204 0
180 202 0
183 204 0
181 202 0
182 204 0
181 203 0
183 204 0
180 201 0
182 204 0
177 200 0
179 200 0
181 202 0
181 203 0
182 204 0
181 203 0
181 202 0
179 201 0
175 197 0
180 202 0
182 204 0
178 201 0
181 203 0
180 202 0
182 203 0
178 200 0
181 201 0
180 202 0
183 204 0
182 204 0
179 202 0
181 203 0
180 203 0
178 201 0
176 198 0
182 204 0
182 203 0
181 202 0
179 201 0
179 201 0
180 202 0
178 199 0
177 199 0
180 202 0
182 204 0
180 202 0
178 200 0
181 202 0
183 204 0
177 199 0
179 200 0
181 203 0
179 201 0
182 203 0
183 203 0
180 203 0
180 202 0
177 200 0
178 200 0
182 204 0
179 202 0
180 203 0
177 199 0
181 202 0
174 196 0
182 204 0
181 203 0
179 202 0
181 202 0
179 200 0
175 197 0
179 201 0
178 199 0
178 199 0
177 200 0
176 198 0
176 198 0
180 202 0
182 203 0
180 202 0
180 202 0
181 203 0
180 202 0
183 204 0
183 204 0
180 202 0
184 205 38
181 202 38
178 200 56
180 202 56
178 199 0
180 200 69
182 203 56
183 203 56
185 206 89
177 198 38
182 203 56
178 199 56
173 195 93
175 195 89
172 194 101
175 196 84
182 202 89
176 198 80
182 201 104
177 197 75
180 201 80
184 205 111
185 205 97
186 206 104
181 202 124
183 203 129
183 204 104
184 205 124
181 202 111
182 203 97
180 201 104
179 200 80
180 200 129
178 198 89
182 202 118
176 196 97
180 201 104
183 203 118
184 204 111
179 200 118
176 195 97
177 198 89
180 201 118
179 198 134
182 201 80
187 205 111
176 196 89
182 201 111
184 202 144
183 202 97
184 202 89
173 193 80
176 196 80
176 197 80
175 195 56
171 191 38
175 195 80
175 197 38
175 197 38
175 196 0
177 196 0
172 194 0
177 198 0
179 201 0
174 196 0
176 197 0
180 201 0
175 196 0
177 198 0
173 194 0
166 187 0
167 188 0
173 195 0
175 196 0
165 186 0
174 195 0
173 194 0
176 196 0
173 194 0
174 195 0
164 185 0
168 190 0
175 197 0
168 189 0
170 190 0
173 194 0
171 194 0
173 194 0
170 191 0
175 197 0
173 194 0
174 195 0
171 193 0
180 201 0
175 198 0
176 198 0
178 199 0
174 196 0
173 194 0
170 192 0
169 191 0
176 198 0
170 193 0
173 195 0
170 193 0
172 195 0
174 196 0
171 195 0
177 199 0
175 198 0
172 193 0
171 193 0
169 191 0
174 197 0
174 198 0
176 197 0
178 200 0
177 199 0
174 196 0
177 199 0
180 202 0
179 201 0
169 192 0
178 200 0
179 200 0
179 201 0
177 199 0
180 201 0
174 196 0
176 198 0
178 200 0
177 200 0
176 199 0
176 199 0
177 199 0
178 201 0
179 201 0
175 197 0
176 199 0
172 194 0
178 200 0
181 202 0
175 197 0
175 198 0
182 204 0
179 200 0
180 202 0
183 204 0
179 201 0
183 204 0
179 201 0
181 202 0
176 198 0
179 200 0
179 201 0
179 202 0
181 202 0
178 200 0
178 201 0
180 202 0
180 201 0
181 203 0
177 199 0
182 203 0
178 200 0
183 204 0
183 203 0
179 200 0
180 202 0
183 204 0
179 201 0
182 203 0
177 201 0
178 200 0
181 203 0
178 200 0
181 202 0
181 202 0
180 202 0
181 202 0
179 200 0
178 201 0
180 202 0
182 204 0
180 203 0
182 203 0
179 201 0
178 200 0
181 202 0
183 204 0
178 199 0
183 204 0
179 201 0
181 203 0
181 203 0
183 204 0
180 202 0
181 203 0
180 202 0
180 201 0
184 205 0
180 202 0
182 204 0
181 203 0
180 203 0
180 202 0
183 204 0
180 201 0
180 202 0
179 202 0
180 202 0
181 202 0
180 202 0
185 205 0
182 204 0
181 203 0
183 204 0
184 205 0
181 203 0
183 204 0
182 204 0
182 203 0
182 204 0
181 203 0
180 202 0
179 201 0
181 202 0
182 203 0
183 204 0
182 204 0
182 203 0
179 201 0
181 202 0
181 203 0
181 203 0
183 204 0
182 204 0
177 200 0
182 204 0
179 201 0
179 201 0
180 202 0
181 203 0
179 202 0
180 202 0
184 205 0
183 204 0
181 203 0
179 202 0
182 204 0
182 204 0
181 203 0
180 202 0
180 202 0
183 204 0
183 204 0
182 203 0
179 202 0
183 204 0
182 204 0
181 203 0
182 204 0
179 202 0
182 204 0
180 202 0
183 204 0
181 203 0
182 204 0
182 204 0
181 203 0
181 203 0
180 202 0
181 203 0
181 203 0
181 203 0
182 204 0
182 204 0
181 203 0
183 204 0
179 202 0
182 204 0
180 203 0
181 202 0
182 204 0
180 202 0
182 204 0
179 202 0
183 204 0
179 202 0
180 203 0
180 202 0
183 204 0
178 201 0
182 204 0
182 203 0
183 204 0
183 204 0
183 204 0
182 204 0
181 203 0
180 203 0
181 203 0
181 202 0
183 204 0
183 204 0
181 203 0
181 202 0
181 203 0
181 202 0
180 202 0
184 205 0
180 203 0
180 203 0
179 201 0
182 203 0
182 204 0
182 202 0
181 203 0
181 203 0
183 204 0
181 203 0
182 203 0
180 203 0
180 203 0
182 203 0
180 202 0
182 204 0
181 203 0
181 203 0
181 203 0
182 203 0
181 202 0
183 204 0
181 203 0
182 204 0
180 202 0
181 203 0
181 203 0
182 204 0
178 200 0
179 201 0
179 201 0
182 204 0
179 202 0
178 200 0
183 204 0
180 202 0
181 202 0
179 201 0
181 203 0
180 203 0
180 202 0
182 204 0
183 203 0
179 201 0
177 200 0
180 203 0
179 201 0
181 202 0
182 204 0
181 203 0
180 203 0
179 202 0
178 200 0
182 204 0
179 201 0
180 202 0
178 200 0
181 203 0
180 202 0
182 204 0
179 201 0
176 198 0
181 203 0
180 203 0
175 198 0
182 204 0
178 200 0
178 200 0
182 203 0
180 203 0
184 204 0
178 201 0
181 203 0
177 199 0
177 198 0
180 202 0
182 204 0
172 195 0
181 202 0
179 201 0
182 203 0
180 202 0
182 204 0
181 203 0
181 202 0
180 203 0
182 204 0
184 205 0
179 201 0
182 204 0
184 204 97
180 201 38
187 208 97
178 200 38
183 205 69
177 198 56
182 201 111
185 205 80
179 200 56
176 197 38
183 203 89
179 201 75
185 205 89
176 196 56
178 199 63
185 205 114
176 197 104
181 202 56
171 191 80
187 206 89
181 201 97
175 197 101
183 203 108
185 205 118
182 200 89
183 204 129
187 207 118
180 200 97
187 206 80
181 201 111
179 200 111
175 194 0
184 205 118
177 199 139
176 197 89
182 202 118
181 202 97
176 197 124
178 199 111
179 199 89
184 204 124
177 198 97
183 202 118
185 204 118
184 203 111
184 203 111
182 202 104
181 199 104
185 205 111
184 204 104
183 202 80
178 199 89
173 193 56
183 202 89
178 199 89
176 198 0
176 196 56
174 196 0
171 192 38
174 196 0
172 193 0
180 202 0
177 199 0
171 194 0
170 192 0
172 194 0
167 189 0
175 196 0
171 192 0
177 199 0
169 190 0
178 200 0
175 196 0
170 191 0
175 197 0
174 196 0
166 187 0
172 194 0
177 198 0
175 197 0
170 192 0
169 190 0
170 193 0
177 199 0
178 200 0
168 190 0
169 191 0
181 202 0
171 193 0
180 201 0
178 199 0
173 195 0
172 194 0
175 196 0
174 195 0
170 193 0
168 189 0
168 189 0
168 191 0
170 191 0
171 193 0
177 199 0
167 188 0
181 202 0
174 195 0
172 194 0
171 193 0
168 191 0
173 195 0
176 198 0
173 194 0
177 198 0
173 195 0
179 201 0
176 197 0
176 198 0
176 198 0
179 201 0
171 192 0
172 194 0
178 200 0
174 196 0
177 199 0
174 196 0
178 199 0
174 197 0
180 202 0
174 196 0
179 200 0
177 198 0
178 201 0
179 199 0
176 199 0
175 197 0
178 199 0
178 199 0
172 196 0
177 199 0
178 200 0
178 201 0
182 203 0
175 197 0
178 199 0
175 197 0
178 200 0
176 198 0
177 198 0
177 198 0
178 200 0
180 202 0
177 199 0
181 203 0
175 198 0
181 203 0
180 202 0
177 198 0
182 204 0
178 200 0
175 198 0
179 201 0
178 200 0
182 203 0
179 201 0
178 200 0
181 203 0
179 200 0
179 201 0
178 200 0
182 204 0
182 204 0
180 202 0
183 204 0
179 201 0
181 203 0
183 204 0
181 202 0
179 202 0
175 197 0
181 203 0
181 202 0
178 201 0
178 200 0
177 200 0
179 201 0
180 202 0
182 203 0
180 203 0
181 203 0
184 204 0
183 204 0
184 204 0
181 202 0
178 199 0
181 203 0
182 203 0
179 202 0
178 199 0
183 204 0
178 200 0
182 203 0
178 201 0
183 204 0
183 204 0
179 201 0
184 205 0
182 203 0
179 201 0
178 201 0
180 202 0
179 201 0
183 204 0
182 204 0
182 204 0
179 201 0
184 205 0
181 203 0
182 204 0
182 203 0
179 200 0
179 201 0
181 203 0
181 203 0
183 204 0
181 203 0
183 204 0
180 203 0
182 204 0
179 202 0
183 204 0
179 202 0
181 202 0
182 204 0
182 204 0
179 201 0
179 201 0
179 202 0
182 204 0
180 203 0
181 203 0
178 201 0
182 203 0
179 201 0
183 204 0
179 201 0
181 203 0
182 204 0
180 203 0
182 204 0
183 204 0
180 202 0
180 203 0
180 203 0
181 203 0
180 202 0
178 201 0
183 204 0
182 203 0
182 204 0
180 202 0
182 204 0
182 204 0
181 203 0
181 202 0
182 204 0
183 204 0
183 204 0
182 204 0
180 203 0
181 203 0
183 204 0
182 204 0
183 204 0
179 201 0
181 203 0
179 200 0
180 203 0
181 202 0
180 202 0
181 203 0
183 204 0
181 202 0
180 203 0
181 203 0
180 203 0
181 202 0
180 203 0
179 202 0
178 200 0
182 204 0
182 204 0
179 202 0
184 205 0
180 201 0
180 202 0
183 204 0
180 202 0
182 203 0
179 201 0
179 202 0
181 203 0
182 203 0
184 205 0
182 204 0
180 202 0
181 203 0
181 203 0
182 204 0
181 203 0
183 204 0
182 204 0
180 202 0
182 203 0
175 198 0
184 205 0
178 200 0
181 203 0
183 204 0
181 203 0
182 204 0
182 204 0
180 203 0
180 203 0
181 203 0
180 202 0
180 201 0
181 203 0
184 205 0
181 203 0
182 204 0
179 201 0
181 203 0
180 203 0
182 204 0
182 203 0
181 203 0
182 204 0
182 204 0
181 203 0
178 200 0
180 201 0
181 202 0
177 200 0
179 201 0
181 203 0
181 203 0
181 202 0
182 204 0
181 203 0
181 203 0
181 203 0
183 204 0
180 202 0
180 202 0
182 204 0
179 201 0
183 204 0
180 202 0
184 205 0
181 203 0
182 204 0
180 202 0
181 203 0
180 202 0
181 202 0
180 202 0
181 202 0
180 203 0
182 204 0
180 202 0
183 204 0
182 204 0
179 201 0
178 200 0
177 201 0
178 200 0
181 202 0
178 200 0
178 200 0
175 197 0
183 203 0
175 197 0
179 202 0
177 199 0
182 204 0
180 201 0
183 204 0
183 204 0
179 201 0
177 199 0
179 201 0
178 199 0
179 201 0
183 204 0
180 203 0
180 202 0
183 204 0
182 204 0
180 202 0
180 202 0
178 200 0
184 205 38
180 202 56
181 201 56
183 204 80
183 204 69
185 205 80
179 201 38
178 199 56
179 201 56
179 199 97
181 201 56
177 197 69
176 197 93
175 197 0
176 197 69
182 203 80
175 194 124
174 194 97
179 199 104
181 201 56
176 196 38
181 201 108
184 204 111
182 201 69
190 209 111
188 208 134
189 207 97
187 206 111
187 206 97
187 208 134
179 199 80
183 202 104
184 205 118
176 196 89
182 202 111
180 201 97
182 201 111
185 204 118
183 202 97
185 205 104
180 198 69
185 205 111
181 201 104
182 202 89
180 200 104
189 208 118
178 197 89
180 199 111
177 195 104
177 197 80
179 198 80
183 202 111
184 204 56
182 202 56
176 196 38
176 196 38
178 199 56
176 196 38
176 197 0
175 195 0
181 201 38
176 198 0
178 200 0
180 201 0
176 198 0
174 197 0
170 192 0
169 190 0
179 199 0
176 197 0
177 198 0
174 194 0
169 191 0
174 196 0
177 199 0
174 195 0
176 195 0
177 198 0
175 197 0
177 197 0
170 192 0
174 196 0
181 202 0
176 197 0
170 192 0
169 190 0
172 194 0
169 192 0
172 195 0
170 191 0
175 196 0
176 198 0
175 197 0
173 195 0
171 194 0
169 191 0
171 192 0
175 198 0
172 194 0
178 200 0
172 194 0
166 190 0
171 194 0
177 200 0
181 202 0
171 193 0
174 195 0
174 197 0
170 192 0
179 201 0
175 197 0
171 193 0
172 193 0
177 198 0
179 200 0
172 194 0
175 197 0
172 193 0
177 199 0
175 197 0
174 197 0
179 201 0
171 193 0
178 200 0
177 199 0
176 198 0
173 195 0
171 193 0
179 201 0
180 201 0
177 199 0
177 198 0
176 198 0
178 199 0
179 201 0
177 200 0
179 200 0
179 201 0
175 198 0
173 195 0
174 197 0
181 203 0
178 200 0
180 202 0
177 199 0
178 201 0
177 199 0
176 199 0
179 202 0
177 200 0
178 200 0
178 200 0
178 200 0
176 198 0
179 201 0
178 201 0
178 201 0
177 200 0
171 193 0
180 202 0
179 201 0
178 200 0
182 203 0
176 200 0
179 201 0
180 201 0
181 202 0
181 203 0
180 202 0
180 202 0
180 202 0
181 202 0
182 203 0
181 202 0
181 202 0
181 203 0
180 202 0
178 200 0
180 202 0
180 201 0
179 200 0
185 205 0
182 204 0
182 203 0
178 201 0
182 203 0
181 203 0
178 201 0
183 204 0
182 204 0
178 200 0
179 202 0
179 201 0
180 202 0
181 203 0
180 202 0
182 204 0
181 203 0
181 203 0
183 204 0
180 203 0
179 201 0
180 203 0
183 203 0
179 202 0
178 199 0
179 202 0
182 204 0
182 204 0
185 205 0
180 203 0
181 202 0
182 204 0
182 204 0
181 202 0
183 204 0
183 204 0
183 204 0
183 204 0
182 203 0
178 201 0
179 202 0
182 204 0
181 203 0
179 202 0
182 204 0
182 203 0
182 202 0
183 204 0
181 202 0
183 204 0
180 203 0
183 204 0
183 204 0
182 204 0
180 203 0
182 204 0
181 203 0
181 203 0
182 204 0
182 204 0
182 204 0
181 203 0
183 204 0
182 204 0
181 202 0
181 202 0
183 204 0
178 201 0
182 203 0
182 204 0
179 202 0
179 202 0
182 204 0
183 204 0
179 202 0
182 204 0
184 205 0
181 203 0
181 203 0
179 202 0
178 200 0
181 203 0
178 201 0
180 203 0
181 203 0
183 204 0
182 204 0
183 204 0
180 202 0
181 202 0
181 203 0
181 203 0
181 202 0
181 203 0
181 203 0
179 202 0
181 203 0
179 202 0
180 202 0
181 203 0
180 202 0
180 202 0
180 202 0
181 203 0
184 205 0
182 204 0
181 203 0
183 204 0
183 204 0
181 203 0
182 203 0
181 202 0
181 203 0
182 204 0
183 204 0
180 202 0
183 204 0
180 202 0
183 204 0
179 201 0
180 202 0
181 203 0
181 202 0
177 199 0
183 204 0
183 204 0
179 202 0
181 202 0
180 202 0
179 201 0
182 204 0
181 203 0
180 202 0
182 203 0
181 203 0
181 202 0
179 201 0
185 205 0
181 203 0
182 204 0
183 204 0
182 203 0
180 203 0
177 199 0
180 202 0
183 204 0
178 201 0
184 205 0
182 204 0
181 203 0
181 203 0
181 203 0
180 202 0
181 203 0
180 202 0
181 203 0
178 201 0
179 202 0
182 204 0
179 201 0
177 200 0
179 201 0
181 203 0
178 201 0
181 202 0
182 203 0
181 203 0
179 202 0
180 202 0
177 199 0
182 204 0
179 201 0
176 199 0
180 202 0
181 203 0
180 202 0
180 202 0
180 202 0
183 204 0
181 202 0
182 203 0
180 202 0
181 202 0
181 202 0
180 202 0
182 204 0
180 202 0
181 203 0
178 200 0
182 203 0
182 204 0
181 203 0
180 202 0
176 197 0
183 204 0
178 200 0
176 199 0
179 201 0
182 204 0
180 202 0
181 202 0
180 201 0
179 200 0
178 200 0
180 202 0
180 203 0
181 202 0
180 202 0
181 203 0
181 203 0
179 201 0
178 200 0
180 202 0
179 201 0
178 201 0
182 203 0
182 203 0
180 200 0
179 202 0
179 201 0
181 202 0
183 203 80
185 205 97
182 203 38
180 201 38
183 204 56
183 204 89
180 200 80
180 201 89
182 202 93
175 195 48
184 204 84
179 200 63
186 205 114
177 197 75
180 200 80
175 194 89
180 199 48
181 201 104
173 193 89
175 195 97
183 203 80
184 203 93
183 203 104
179 198 104
185 205 118
190 209 129
179 200 89
184 203 111
180 200 104
180 199 118
183 201 97
188 208 139
185 204 97
175 195 80
187 207 111
180 200 80
181 199 89
185 204 111
184 205 104
184 202 69
179 198 69
182 201 80
180 199 97
191 209 139
180 199 80
179 198 80
180 200 89
174 194 56
183 203 104
180 199 97
172 194 38
178 198 69
169 190 38
179 199 56
171 193 38
171 191 38
180 201 0
176 197 0
181 203 0
181 203 0
176 199 0
172 193 0
171 193 0
173 195 0
175 197 0
164 184 0
170 191 0
168 189 0
171 192 0
173 192 0
169 192 0
172 193 0
169 190 0
169 191 0
167 188 0
166 188 0
173 196 0
179 200 0
173 195 0
175 197 0
176 199 0
176 197 0
175 196 0
173 195 0
172 194 0
170 192 0
168 191 0
174 196 0
181 201 0
174 195 0
170 192 0
177 197 0
175 196 0
177 199 0
173 195 0
182 203 0
176 198 0
173 195 0
174 195 0
160 183 0
179 201 0
175 197 0
175 197 0
181 202 0
170 193 0
174 196 0
179 200 0
178 199 0
173 195 0
175 198 0
168 189 0
177 199 0
168 190 0
172 195 0
181 203 0
175 197 0
176 198 0
174 197 0
176 198 0
179 201 0
175 197 0
175 197 0
178 200 0
174 196 0
176 199 0
180 202 0
177 199 0
179 202 0
181 202 0
175 198 0
184 204 0
178 201 0
172 194 0
181 203 0
175 197 0
181 202 0
177 199 0
180 203 0
180 201 0
177 199 0
176 199 0
174 195 0
176 198 0
177 200 0
181 203 0
178 200 0
179 201 0
179 201 0
177 199 0
177 200 0
176 198 0
180 202 0
181 202 0
178 200 0
180 202 0
176 198 0
180 202 0
180 203 0
182 204 0
181 203 0
180 201 0
180 202 0
177 199 0
182 203 0
178 200 0
177 200 0
180 202 0
181 202 0
184 204 0
180 202 0
180 202 0
181 203 0
181 202 0
181 202 0
181 203 0
180 202 0
182 204 0
181 203 0
182 202 0
179 201 0
179 201 0
181 203 0
180 203 0
180 203 0
181 202 0
180 203 0
179 201 0
182 204 0
181 202 0
182 204 0
181 203 0
183 203 0
177 200 0
182 203 0
180 202 0
179 201 0
182 204 0
181 203 0
180 202 0
181 202 0
182 203 0
177 199 0
181 202 0
181 203 0
181 203 0
180 202 0
182 204 0
179 201 0
177 199 0
179 201 0
182 204 0
181 203 0
180 201 0
182 204 0
182 204 0
181 203 0
181 202 0
181 203 0
183 204 0
182 204 0
179 202 0
181 202 0
181 203 0
181 203 0
182 204 0
184 205 0
182 204 0
180 202 0
182 204 0
183 204 0
182 204 0
182 204 0
181 203 0
182 204 0
180 201 0
182 203 0
183 204 0
181 201 0
182 204 0
181 203 0
182 204 0
182 204 0
180 202 0
181 203 0
180 203 0
180 202 0
180 203 0
182 204 0
183 204 0
182 203 0
180 202 0
181 203 0
182 204 0
182 204 0
180 203 0
181 203 0
181 203 0
181 203 0
182 204 0
184 205 0
182 204 0
179 201 0
180 203 0
180 203 0
180 203 0
179 202 0
180 202 0
181 203 0
180 202 0
178 201 0
183 203 0
182 203 0
181 203 0
185 205 0
182 203 0
180 202 0
182 203 0
182 204 0
183 204 0
183 204 0
180 203 0
183 204 0
183 204 0
181 203 0
181 202 0
182 203 0
180 202 0
180 203 0
183 204 0
179 202 0
181 203 0
182 204 0
181 203 0
181 202 0
180 203 0
181 203 0
181 203 0
182 203 0
179 202 0
181 203 0
182 204 0
178 200 0
181 203 0
182 204 0
183 204 0
181 203 0
182 204 0
184 205 0
183 204 0
182 203 0
179 202 0
182 204 0
179 201 0
182 204 0
181 201 0
184 205 0
182 204 0
184 205 0
182 204 0
181 202 0
182 204 0
181 203 0
183 204 0
181 203 0
184 205 0
180 202 0
182 204 0
181 203 0
179 202 0
182 204 0
181 203 0
181 203 0
180 203 0
182 204 0
179 202 0
181 202 0
178 200 0
181 203 0
179 201 0
180 203 0
184 205 0
179 201 0
179 202 0
179 201 0
177 199 0
180 203 0
181 203 0
180 201 0
183 204 0
179 201 0
183 204 0
182 204 0
179 201 0
182 204 0
181 203 0
181 202 0
182 204 0
177 199 0
181 203 0
179 201 0
185 205 0
180 203 0
182 203 0
180 202 0
180 202 0
181 203 0
181 203 0
176 198 0
180 202 0
180 202 0
179 202 0
178 201 0
180 202 0
181 202 0
182 203 0
179 201 0
183 204 0
176 198 0
181 202 0
181 202 0
178 201 0
182 203 0
181 203 0
180 202 0
179 201 0
179 201 0
179 202 0
185 205 0
181 203 0
177 199 0
181 203 0
182 204 0
178 200 0
180 202 0
180 202 0
179 201 0
182 204 0
182 204 0
181 201 0
180 203 38
178 199 38
179 201 56
180 202 38
184 205 56
186 206 56
184 204 80
184 204 111
184 204 80
177 197 63
181 201 104
168 188 56
178 197 93
176 197 124
182 202 80
182 202 121
179 200 101
180 200 97
182 202 108
178 199 89
173 194 80
176 196 93
167 187 114
170 190 101
179 199 114
183 203 80
176 195 80
182 201 104
184 204 104
186 206 111
180 201 89
184 204 118
182 202 104
183 203 111
182 202 89
182 201 89
184 204 124
184 204 104
182 201 104
185 203 89
182 202 97
188 207 134
185 204 89
179 198 97
183 202 111
184 203 118
185 204 104
177 197 56
180 199 97
184 203 89
182 202 104
180 201 56
172 193 0
179 201 0
174 194 56
177 199 0
177 198 0
176 197 38
180 203 0
176 199 0
181 203 0
175 198 0
174 196 0
178 199 0
177 199 0
173 195 0
175 196 0
175 195 0
171 193 0
171 192 0
177 199 0
170 192 0
177 199 0
172 193 0
174 196 0
174 197 0
179 200 0
172 194 0
172 194 0
177 198 0
167 189 0
172 194 0
171 193 0
177 199 0
176 199 0
172 195 0
180 202 0
176 197 0
171 195 0
173 195 0
168 190 0
166 188 0
172 193 0
169 191 0
168 190 0
175 196 0
175 197 0
173 194 0
178 199 0
173 196 0
172 193 0
174 195 0
174 196 0
174 197 0
177 198 0
176 198 0
169 190 0
177 198 0
175 198 0
170 193 0
172 195 0
174 197 0
174 196 0
174 196 0
178 201 0
177 199 0
178 200 0
177 200 0
177 199 0
176 197 0
177 199 0
170 192 0
176 197 0
175 198 0
177 198 0
180 201 0
182 203 0
176 199 0
177 198 0
182 202 0
180 202 0
177 199 0
182 203 0
174 195 0
176 198 0
179 202 0
175 198 0
183 204 0
177 200 0
172 194 0
177 200 0
179 202 0
176 198 0
177 199 0
175 197 0
176 199 0
178 201 0
180 201 0
180 202 0
176 197 0
180 202 0
179 201 0
179 201 0
176 199 0
179 201 0
179 200 0
181 202 0
180 202 0
179 202 0
181 202 0
178 200 0
179 201 0
178 200 0
179 200 0
177 199 0
180 202 0
180 202 0
178 201 0
178 200 0
181 202 0
184 205 0
179 201 0
179 202 0
180 202 0
178 200 0
180 201 0
183 204 0
177 199 0
183 204 0
181 203 0
182 203 0
181 203 0
179 202 0
181 203 0
178 201 0
180 201 0
182 203 0
179 202 0
180 203 0
183 204 0
182 204 0
179 201 0
181 202 0
180 202 0
181 203 0
182 204 0
181 202 0
179 202 0
182 203 0
183 204 0
182 204 0
181 202 0
182 204 0
181 203 0
183 204 0
182 203 0
182 203 0
179 200 0
181 202 0
180 202 0
183 204 0
180 202 0
178 201 0
177 200 0
183 204 0
183 204 0
182 204 0
182 203 0
182 204 0
180 203 0
183 204 0
180 203 0
178 200 0
182 204 0
180 202 0
183 204 0
181 203 0
179 202 0
180 201 0
183 204 0
181 203 0
183 204 0
181 203 0
180 202 0
182 203 0
181 202 0
183 203 0
180 202 0
183 204 0
183 204 0
183 204 0
183 203 0
181 203 0
180 202 0
181 203 0
179 202 0
182 204 0
181 203 0
181 203 0
184 205 0
182 204 0
180 201 0
180 202 0
183 204 0
181 203 0
183 204 0
181 203 0
182 204 0
182 203 0
183 204 0
182 203 0
181 203 0
177 199 0
182 204 0
176 198 0
182 204 0
180 203 0
182 203 0
180 203 0
181 203 0
181 203 0
183 204 0
181 203 0
181 203 0
181 202 0
184 205 0
182 204 0
181 203 0
183 204 0
182 204 0
181 202 0
180 202 0
181 203 0
177 200 0
184 205 0
182 204 0
179 202 0
182 203 0
183 204 0
176 199 0
182 204 0
182 203 0
184 205 0
182 204 0
178 200 0
180 202 0
180 203 0
181 203 0
180 203 0
180 202 0
180 201 0
179 201 0
180 202 0
181 203 0
182 204 0
180 202 0
180 203 0
183 204 0
184 205 0
183 204 0
177 200 0
181 203 0
177 200 0
183 204 0
180 201 0
181 203 0
182 203 0
181 202 0
183 204 0
182 204 0
183 204 0
182 204 0
181 203 0
183 204 0
180 202 0
177 200 0
182 204 0
179 201 0
181 203 0
178 200 0
181 202 0
181 203 0
180 202 0
182 204 0
181 203 0
180 202 0
181 203 0
180 202 0
181 203 0
183 204 0
179 202 0
180 202 0
181 203 0
180 202 0
179 201 0
181 203 0
182 204 0
178 200 0
180 203 0
178 201 0
181 203 0
178 201 0
181 202 0
180 202 0
183 204 0
181 202 0
178 200 0
182 204 0
182 203 0
180 201 0
180 202 0
181 203 0
181 202 0
181 202 0
178 200 0
182 203 0
181 203 0
184 205 0
180 202 0
175 198 0
181 203 0
184 205 0
181 202 0
180 203 0
179 201 0
181 202 0
179 201 0
176 198 0
182 203 0
180 203 0
179 202 0
180 202 0
179 200 0
183 204 0
178 200 0
178 200 0
178 200 0
177 199 0
182 203 0
176 197 0
182 203 0
181 203 0
180 201 0
177 199 0
177 200 0
180 203 0
182 204 0
176 198 0
184 205 0
183 204 0
179 201 0
183 203 56
182 203 89
180 200 80
179 200 84
182 202 56
180 201 38
185 206 97
185 205 104
177 197 56
174 193 56
183 202 111
177 197 111
180 200 69
176 196 84
180 200 111
171 191 69
184 205 97
179 198 89
171 191 60
182 202 69
180 200 97
179 198 97
180 200 89
177 196 93
178 197 104
174 194 111
184 202 80
184 203 111
182 201 104
182 202 129
183 203 111
185 203 104
185 204 118
186 205 97
181 201 89
183 203 104
185 205 118
189 209 129
189 207 124
184 203 89
184 203 104
182 202 89
187 205 97
186 204 104
183 202 97
181 201 69
186 205 104
181 201 97
183 201 89
179 200 56
181 201 38
174 195 0
179 199 0
168 190 38
177 198 56
178 198 0
179 200 0
167 189 0
174 195 0
180 203 0
166 188 0
176 198 0
173 195 0
169 191 0
177 199 0
173 194 0
168 189 0
167 190 0
171 193 0
169 189 0
173 195 0
179 200 0
168 189 0
175 197 0
174 195 0
167 189 0
174 196 0
172 195 0
172 194 0
165 187 0
180 201 0
173 194 0
172 194 0
178 200 0
175 197 0
178 199 0
177 199 0
173 195 0
175 197 0
173 195 0
172 194 0
178 200 0
174 195 0
175 197 0
170 192 0
177 200 0
171 193 0
173 195 0
179 200 0
174 195 0
167 188 0
178 200 0
178 199 0
177 199 0
180 202 0
177 200 0
177 199 0
178 199 0
175 196 0
178 201 0
175 196 0
176 196 0
176 198 0
180 202 0
177 198 0
176 198 0
173 196 0
178 201 0
176 197 0
180 201 0
177 199 0
179 201 0
183 203 0
177 199 0
178 201 0
177 199 0
177 198 0
179 202 0
175 198 0
177 199 0
176 197 0
176 197 0
178 200 0
175 197 0
176 199 0
178 199 0
178 201 0
177 199 0
178 200 0
179 202 0
181 202 0
181 203 0
179 202 0
180 202 0
179 201 0
180 202 0
181 203 0
179 201 0
180 202 0
181 203 0
178 199 0
173 196 0
180 202 0
180 202 0
179 201 0
175 198 0
179 201 0
179 201 0
178 199 0
181 203 0
176 198 0
179 201 0
171 193 0
176 198 0
183 204 0
181 202 0
180 201 0
179 201 0
175 197 0
180 203 0
181 203 0
179 201 0
179 200 0
183 204 0
182 204 0
181 203 0
182 204 0
181 203 0
176 199 0
178 200 0
183 204 0
180 201 0
178 201 0
181 203 0
181 202 0
181 203 0
179 201 0
178 200 0
181 202 0
181 202 0
182 204 0
181 203 0
182 203 0
180 202 0
182 204 0
178 201 0
180 202 0
181 202 0
182 204 0
181 203 0
182 203 0
179 201 0
180 203 0
181 203 0
181 202 0
181 202 0
183 204 0
183 204 0
183 204 0
181 202 0
184 205 0
178 201 0
178 200 0
181 203 0
179 201 0
182 204 0
183 204 0
180 202 0
181 202 0
179 201 0
181 203 0
182 204 0
182 203 0
180 202 0
181 203 0
181 203 0
183 204 0
180 202 0
180 202 0
184 205 0
180 202 0
180 201 0
180 202 0
180 203 0
180 202 0
179 202 0
182 204 0
182 203 0
178 200 0
181 203 0
181 203 0
182 203 0
181 202 0
183 204 0
180 203 0
182 203 0
184 204 0
181 203 0
183 204 0
182 204 0
179 201 0
181 203 0
183 204 0
180 202 0
183 204 0
180 203 0
182 204 0
183 204 0
182 203 0
184 205 0
182 203 0
182 203 0
179 201 0
183 204 0
180 202 0
181 203 0
182 204 0
183 204 0
181 203 0
181 203 0
182 203 0
179 201 0
180 203 0
182 204 0
179 202 0
182 204 0
182 204 0
185 205 0
182 203 0
183 204 0
182 204 0
183 204 0
178 201 0
183 204 0
184 205 0
184 205 0
185 205 0
182 204 0
181 203 0
180 202 0
182 204 0
180 201 0
184 205 0
182 204 0
181 202 0
180 202 0
184 205 0
182 204 0
181 203 0
183 204 0
182 204 0
180 203 0
184 205 0
181 203 0
178 200 0
177 200 0
182 204 0
180 202 0
181 202 0
182 204 0
182 204 0
182 204 0
182 204 0
180 203 0
181 203 0
183 204 0
183 204 0
181 203 0
177 200 0
182 204 0
182 204 0
181 203 0
182 204 0
181 203 0
176 199 0
183 204 0
182 204 0
180 203 0
180 203 0
183 204 0
180 202 0
180 202 0
178 200 0
180 203 0
182 204 0
180 202 0
183 204 0
181 203 0
181 203 0
181 203 0
179 200 0
178 202 0
178 200 0
182 204 0
178 201 0
181 203 0
181 203 0
181 203 0
180 202 0
181 203 0
181 202 0
181 203 0
184 204 0
179 200 0
182 204 0
182 204 0
179 201 0
179 201 0
183 203 0
177 200 0
178 201 0
179 201 0
180 202 0
183 204 0
177 199 0
181 203 0
175 197 0
181 203 0
180 202 0
181 203 0
178 201 0
180 201 0
180 202 0
183 204 0
178 200 0
183 204 0
179 201 0
179 201 0
178 201 0
181 203 0
180 201 0
176 199 0
183 204 0
183 204 0
179 201 0
180 202 0
180 201 0
180 202 0
177 200 0
178 200 0
177 199 0
178 200 0
183 204 0
182 203 0
180 202 0
181 203 0
180 202 0
183 204 0
182 204 0
181 202 25
179 201 38
179 200 38
179 200 56
180 202 56
180 201 56
183 203 69
182 202 69
183 204 69
184 204 93
176 197 97
182 202 89
182 202 89
183 203 104
175 195 84
176 197 75
173 194 93
184 203 75
177 198 111
175 196 48
185 204 97
181 201 75
175 196 89
176 196 25
173 193 84
176 196 84
178 198 104
180 200 75
184 202 97
183 202 104
185 204 129
189 207 80
186 205 111
184 204 97
187 206 118
183 202 89
189 207 124
181 200 124
185 204 97
192 211 129
189 208 89
182 201 118
186 205 124
181 200 80
189 207 124
186 205 104
187 206 89
187 206 111
180 201 80
170 191 56
179 200 0
178 199 69
173 193 38
179 199 56
178 199 0
179 200 0
175 197 0
182 204 0
178 201 0
183 204 0
174 197 0
176 198 0
178 199 0
172 194 0
173 194 0
169 190 0
173 194 0
178 200 0
173 194 0
173 195 0
170 191 0
173 195 0
176 198 0
176 197 0
170 190 0
176 197 0
175 196 0
176 197 0
171 194 0
175 197 0
175 196 0
178 200 0
165 188 0
164 186 0
173 195 0
173 195 0
173 195 0
173 194 0
173 195 0
179 200 0
173 197 0
171 193 0
174 196 0
172 195 0
179 200 0
169 192 0
174 196 0
169 191 0
177 199 0
177 199 0
175 197 0
172 195 0
179 201 0
172 195 0
173 194 0
176 198 0
168 191 0
177 200 0
180 201 0
177 199 0
169 191 0
181 202 0
179 200 0
167 190 0
178 200 0
178 200 0
176 197 0
172 195 0
174 197 0
182 203 0
178 200 0
176 198 0
178 200 0
178 200 0
173 195 0
176 198 0
169 190 0
178 200 0
179 201 0
181 203 0
179 201 0
177 200 0
173 195 0
182 204 0
176 198 0
172 195 0
179 201 0
180 203 0
178 200 0
177 200 0
182 203 0
177 199 0
179 200 0
181 203 0
180 201 0
178 199 0
177 199 0
182 204 0
178 200 0
180 202 0
178 200 0
176 197 0
177 199 0
176 197 0
178 200 0
177 199 0
177 199 0
179 200 0
179 201 0
178 200 0
182 204 0
177 199 0
181 202 0
182 204 0
182 204 0
182 204 0
181 203 0
181 203 0
182 203 0
178 201 0
179 200 0
181 203 0
182 204 0
182 203 0
179 201 0
181 203 0
177 201 0
181 202 0
178 200 0
180 202 0
179 202 0
179 201 0
182 204 0
177 199 0
181 202 0
181 203 0
178 200 0
183 204 0
177 199 0
181 203 0
182 203 0
179 202 0
180 203 0
180 201 0
182 204 0
180 203 0
181 203 0
179 201 0
178 200 0
182 204 0
182 204 0
182 204 0
181 203 0
183 204 0
182 204 0
182 204 0
177 199 0
182 204 0
180 202 0
182 204 0
183 204 0
181 203 0
183 204 0
180 202 0
181 202 0
183 204 0
181 203 0
180 203 0
183 204 0
181 203 0
183 204 0
181 203 0
180 202 0
178 201 0
182 203 0
179 201 0
180 203 0
182 204 0
181 203 0
181 202 0
179 202 0
180 203 0
183 204 0
182 204 0
180 201 0
182 204 0
180 203 0
181 203 0
182 204 0
183 204 0
183 204 0
183 204 0
180 202 0
183 204 0
181 203 0
181 203 0
183 204 0
181 203 0
180 203 0
182 204 0
183 204 0
183 204 0
182 204 0
183 204 0
180 202 0
179 201 0
179 201 0
183 204 0
181 202 0
183 204 0
180 202 0
182 203 0
181 203 0
178 201 0
181 203 0
182 204 0
180 203 0
182 204 0
185 205 0
180 202 0
182 203 0
182 204 0
180 202 0
184 205 0
179 201 0
181 203 0
182 204 0
182 204 0
180 203 0
180 203 0
182 204 0
181 203 0
181 203 0
181 203 0
183 204 0
181 203 0
180 203 0
182 204 0
183 204 0
181 203 0
179 201 0
181 203 0
181 202 0
180 202 0
181 203 0
182 203 0
184 205 0
182 203 0
181 202 0
184 205 0
179 201 0
179 202 0
182 203 0
180 202 0
181 203 0
181 203 0
182 204 0
183 204 0
180 202 0
182 204 0
180 203 0
183 204 0
181 203 0
181 203 0
181 203 0
181 203 0
180 201 0
179 202 0
181 203 0
179 201 0
182 203 0
181 203 0
179 202 0
180 202 0
182 203 0
181 203 0
181 203 0
181 203 0
182 204 0
181 203 0
182 204 0
179 200 0
183 204 0
180 202 0
182 204 0
181 203 0
179 202 0
182 203 0
180 202 0
182 204 0
181 203 0
177 199 0
178 200 0
182 203 0
181 203 0
178 200 0
183 204 0
182 204 0
181 202 0
180 202 0
180 202 0
178 201 0
182 204 0
178 200 0
179 202 0
178 199 0
177 199 0
180 202 0
179 202 0
181 203 0
180 202 0
181 203 0
183 204 0
181 202 0
179 200 0
181 203 0
179 201 0
181 203 0
185 205 0
178 200 0
181 203 0
180 202 0
177 199 0
179 201 0
180 203 0
180 202 0
182 204 0
180 202 0
182 204 0
176 198 0
181 202 0
181 202 0
184 204 0
182 203 0
175 197 0
182 204 0
181 202 0
179 200 0
175 196 0
181 203 0
176 198 0
178 200 0
176 199 0
182 203 0
178 200 0
177 199 0
181 203 0
177 200 0
179 202 0
183 204 0
181 202 0
178 200 0
182 203 0
180 202 0
178 199 38
180 201 38
174 195 75
183 203 89
175 197 56
185 204 89
187 206 111
180 200 89
176 196 80
176 196 63
175 197 56
182 201 118
176 196 89
176 196 48
176 197 63
182 201 80
176 196 89
179 199 114
174 194 104
180 199 114
172 192 80
175 194 104
175 194 111
184 202 101
181 200 118
178 198 69
178 198 104
183 203 118
183 202 97
184 205 80
185 204 97
188 207 97
187 206 118
190 208 124
190 209 118
187 205 104
187 206 139
193 212 144
192 211 129
182 202 89
184 205 89
179 198 97
178 197 89
183 202 97
176 198 38
181 202 0
171 194 0
178 199 0
174 195 0
182 203 89
178 199 0
176 197 0
182 203 0
178 199 0
179 201 0
174 195 0
170 192 0
179 200 0
177 199 0
177 199 0
174 195 0
179 200 0
175 194 0
175 196 0
172 194 0
178 199 0
170 191 0
171 192 0
173 195 0
174 195 0
175 196 0
178 199 0
170 193 0
178 200 0
174 196 0
180 202 0
174 197 0
175 197 0
176 198 0
166 188 0
172 193 0
166 188 0
176 199 0
174 196 0
171 194 0
177 199 0
174 196 0
172 194 0
167 190 0
173 196 0
172 194 0
178 199 0
177 199 0
172 195 0
173 196 0
173 196 0
175 197 0
174 195 0
176 199 0
179 201 0
180 203 0
171 193 0
175 197 0
177 199 0
178 199 0
175 197 0
178 199 0
178 200 0
177 198 0
178 200 0
174 197 0
173 194 0
177 199 0
176 199 0
181 202 0
176 198 0
178 199 0
172 195 0
178 199 0
175 197 0
175 198 0
169 191 0
180 202 0
176 198 0
179 201 0
180 203 0
179 201 0
177 198 0
178 201 0
179 201 0
175 198 0
179 201 0
177 199 0
178 200 0
179 201 0
173 196 0
176 199 0
178 199 0
180 202 0
179 201 0
182 204 0
180 202 0
181 202 0
178 200 0
182 203 0
174 198 0
181 203 0
181 203 0
180 201 0
179 200 0
181 203 0
180 201 0
177 199 0
181 202 0
181 202 0
181 202 0
178 201 0
180 202 0
176 198 0
179 202 0
180 203 0
178 200 0
177 200 0
179 201 0
180 202 0
179 201 0
176 198 0
174 197 0
182 203 0
175 198 0
180 202 0
179 201 0
179 201 0
178 200 0
182 204 0
179 201 0
178 199 0
181 203 0
179 201 0
181 203 0
179 201 0
181 202 0
182 204 0
179 200 0
182 204 0
180 202 0
182 203 0
179 201 0
183 204 0
179 201 0
181 203 0
182 204 0
183 204 0
180 203 0
181 203 0
179 201 0
180 201 0
182 203 0
183 204 0
182 204 0
179 201 0
178 200 0
182 204 0
183 204 0
180 202 0
179 201 0
182 204 0
182 204 0
184 205 0
181 203 0
179 202 0
180 202 0
182 203 0
180 202 0
182 204 0
180 202 0
181 203 0
182 204 0
182 203 0
181 203 0
181 203 0
178 200 0
185 205 0
182 204 0
179 201 0
180 202 0
181 203 0
183 204 0
184 205 0
182 204 0
180 202 0
180 203 0
182 204 0
181 203 0
180 203 0
178 201 0
179 202 0
183 203 0
181 203 0
182 203 0
182 203 0
178 200 0
181 203 0
184 205 0
182 204 0
180 203 0
183 204 0
182 203 0
180 201 0
183 204 0
181 203 0
181 203 0
182 204 0
181 203 0
180 203 0
181 203 0
180 203 0
180 202 0
183 204 0
181 203 0
181 203 0
183 204 0
183 204 0
182 203 0
181 203 0
182 204 0
181 202 0
180 203 0
180 202 0
182 204 0
178 201 0
180 202 0
181 203 0
183 204 0
180 203 0
181 203 0
182 204 0
183 204 0
181 203 0
183 204 0
183 204 0
180 203 0
181 203 0
183 204 0
181 203 0
182 203 0
182 204 0
182 204 0
183 204 0
183 204 0
182 204 0
180 203 0
183 204 0
183 204 0
183 204 0
182 203 0
182 204 0
179 202 0
182 203 0
182 203 0
180 203 0
181 203 0
181 203 0
182 203 0
180 203 0
182 204 0
180 202 0
183 204 0
180 202 0
180 202 0
180 203 0
182 204 0
180 202 0
180 202 0
183 204 0
180 202 0
181 203 0
179 201 0
181 203 0
181 203 0
180 202 0
181 202 0
181 203 0
181 203 0
182 204 0
180 203 0
183 204 0
176 198 0
180 202 0
179 202 0
179 202 0
180 202 0
185 205 0
182 204 0
185 205 0
178 201 0
182 203 0
182 204 0
182 204 0
181 203 0
179 201 0
181 202 0
178 201 0
182 204 0
180 201 0
180 203 0
179 200 0
177 199 0
181 202 0
178 200 0
178 200 0
182 203 0
179 200 0
181 203 0
178 200 0
181 203 0
181 203 0
182 204 0
179 202 0
178 201 0
178 201 0
175 196 0
180 201 0
178 200 0
182 203 0
179 202 0
179 202 0
179 200 0
180 202 0
183 204 0
180 202 0
181 202 0
178 200 0
182 203 0
182 202 0
179 201 0
179 202 0
178 200 0
182 204 0
179 201 0
178 198 0
177 199 0
179 200 0
180 201 0
178 200 0
180 201 0
174 196 0
182 203 0
178 200 0
181 202 0
179 201 0
181 202 0
182 203 0
180 202 0
181 202 0
179 201 0
182 204 0
177 200 0
179 201 0
179 200 0
182 203 0
182 202 56
182 203 69
179 199 56
184 204 38
185 206 69
181 201 56
178 198 38
179 200 48
182 202 38
186 205 126
185 204 89
177 197 84
179 199 66
178 199 97
180 200 80
176 196 104
180 199 69
173 192 63
173 192 80
183 201 84
184 203 89
185 204 84
180 200 108
187 205 111
181 201 129
186 205 104
183 203 111
187 206 111
188 207 111
185 203 104
187 206 124
181 201 118
185 204 118
185 203 97
184 204 89
176 195 89
182 201 97
177 197 80
185 205 97
181 201 69
186 206 80
175 195 69
180 199 38
179 200 0
180 201 38
178 199 56
175 196 56
176 198 38
177 199 38
178 199 0
182 202 38
179 200 0
182 204 0
179 201 0
178 200 0
177 199 0
166 190 0
176 198 0
178 199 0
179 200 0
174 195 0
171 192 0
176 196 0
175 196 0
176 197 0
177 198 0
174 196 0
176 198 0
177 198 0
178 199 0
167 188 0
174 196 0
159 181 0
175 198 0
175 197 0
173 194 0
178 199 0
173 196 0
170 192 0
170 192 0
173 193 0
176 198 0
175 196 0
180 201 0
170 191 0
167 189 0
176 197 0
175 197 0
176 198 0
174 195 0
180 202 0
178 199 0
169 192 0
175 197 0
177 199 0
176 198 0
179 200 0
177 198 0
178 201 0
171 193 0
178 200 0
177 198 0
175 197 0
182 203 0
178 200 0
178 200 0
171 194 0
177 200 0
176 198 0
174 197 0
179 200 0
176 197 0
176 198 0
173 195 0
176 198 0
176 198 0
181 202 0
176 197 0
174 196 0
180 202 0
177 199 0
180 200 0
178 200 0
180 202 0
178 201 0
181 203 0
176 199 0
179 202 0
171 194 0
183 204 0
179 200 0
176 197 0
177 199 0
178 201 0
178 199 0
180 201 0
181 203 0
176 197 0
179 202 0
177 199 0
182 204 0
181 203 0
176 200 0
181 203 0
179 201 0
181 202 0
177 198 0
180 201 0
179 201 0
176 197 0
180 202 0
178 200 0
178 200 0
178 199 0
178 200 0
181 203 0
181 202 0
177 199 0
179 201 0
179 201 0
183 204 0
182 204 0
178 201 0
182 203 0
177 200 0
184 205 0
180 201 0
183 204 0
179 201 0
180 201 0
179 202 0
178 201 0
179 201 0
180 201 0
179 201 0
179 201 0
181 203 0
181 202 0
181 203 0
179 201 0
180 202 0
181 203 0
181 203 0
181 203 0
180 202 0
181 202 0
183 204 0
179 201 0
176 198 0
181 203 0
181 203 0
183 204 0
183 204 0
181 202 0
183 204 0
183 204 0
180 202 0
177 199 0
179 202 0
185 205 0
181 203 0
182 204 0
181 203 0
182 204 0
182 204 0
179 202 0
185 205 0
179 202 0
182 203 0
185 205 0
181 202 0
181 203 0
182 204 0
178 201 0
179 202 0
182 204 0
178 201 0
180 202 0
182 204 0
182 203 0
181 203 0
182 204 0
181 203 0
182 204 0
181 203 0
180 202 0
183 204 0
182 204 0
183 204 0
183 204 0
184 205 0
182 203 0
183 204 0
182 203 0
179 201 0
180 202 0
181 203 0
182 203 0
182 204 0
178 200 0
181 202 0
182 203 0
181 202 0
182 203 0
182 204 0
182 204 0
182 204 0
181 203 0
182 203 0
180 203 0
184 204 0
180 203 0
183 204 0
178 201 0
181 203 0
183 204 0
183 204 0
181 203 0
181 203 0
182 204 0
183 204 0
182 203 0
182 204 0
182 204 0
183 204 0
182 204 0
179 201 0
182 203 0
181 202 0
184 205 0
184 205 0
185 205 0
180 203 0
181 202 0
180 202 0
180 202 0
181 203 0
180 203 0
180 203 0
183 204 0
182 204 0
182 203 0
181 203 0
180 202 0
182 204 0
182 204 0
180 203 0
181 203 0
180 202 0
180 203 0
181 203 0
181 202 0
184 205 0
182 203 0
180 202 0
181 203 0
183 204 0
183 204 0
181 202 0
179 201 0
181 203 0
182 204 0
181 203 0
181 203 0
182 203 0
182 204 0
181 203 0
181 203 0
182 204 0
178 200 0
179 201 0
181 203 0
183 204 0
182 204 0
182 204 0
180 201 0
180 203 0
181 202 0
181 203 0
181 202 0
180 202 0
182 204 0
179 201 0
181 203 0
182 204 0
181 203 0
179 201 0
181 203 0
181 202 0
182 204 0
182 204 0
182 204 0
181 203 0
181 202 0
181 203 0
179 202 0
180 202 0
181 202 0
181 203 0
179 201 0
183 204 0
182 203 0
181 202 0
179 202 0
182 203 0
178 201 0
184 205 0
182 204 0
181 202 0
180 202 0
180 203 0
183 204 0
180 202 0
181 203 0
181 202 0
179 200 0
181 203 0
182 204 0
180 202 0
179 201 0
178 200 0
181 203 0
182 203 0
181 203 0
181 202 0
180 202 0
179 201 0
177 200 0
179 200 0
182 203 0
180 202 0
180 203 0
180 202 0
181 203 0
180 202 0
182 204 0
181 202 0
181 202 0
180 202 0
183 203 0
181 202 0
179 201 0
177 199 0
182 204 0
181 202 0
177 200 0
178 200 0
183 204 0
181 202 0
179 201 0
179 201 0
181 203 0
183 204 0
179 201 0
178 201 0
181 203 0
180 203 0
179 202 0
183 204 0
180 201 0
179 201 0
186 205 80
180 201 56
177 198 69
181 202 56
179 200 38
179 199 56
183 203 97
173 193 80
172 192 56
179 198 89
181 200 89
177 197 69
187 206 111
177 198 75
179 199 63
178 197 63
181 201 111
184 202 84
183 202 104
176 195 97
173 193 56
177 197 84
180 200 114
186 205 104
184 203 69
188 207 89
187 205 111
184 203 104
190 208 111
189 207 118
187 206 97
188 206 89
184 203 80
190 209 118
181 200 97
187 206 97
185 204 97
186 205 104
179 199 69
176 195 56
184 204 69
178 199 0
178 199 38
176 197 38
176 197 0
180 201 38
178 199 38
177 197 0
182 203 38
179 201 0
180 203 0
175 197 0
177 198 0
178 200 0
175 197 0
176 198 0
175 196 0
168 191 0
171 193 0
170 192 0
173 194 0
173 195 0
175 196 0
172 194 0
177 198 0
173 194 0
174 196 0
175 196 0
175 196 0
176 196 0
176 197 0
176 198 0
176 197 0
174 196 0
178 199 0
173 195 0
179 201 0
174 196 0
178 199 0
174 195 0
178 199 0
165 186 0
176 198 0
176 198 0
173 196 0
171 193 0
179 200 0
176 198 0
175 198 0
172 194 0
176 197 0
179 200 0
171 193 0
178 200 0
180 202 0
174 196 0
178 199 0
175 197 0
174 195 0
178 200 0
174 197 0
177 199 0
172 195 0
178 200 0
181 202 0
177 199 0
176 197 0
178 200 0
177 199 0
176 198 0
179 200 0
179 201 0
181 203 0
182 203 0
180 201 0
171 194 0
177 199 0
177 200 0
175 197 0
172 194 0
177 200 0
179 201 0
179 201 0
179 201 0
175 198 0
178 200 0
180 203 0
174 196 0
179 201 0
175 198 0
180 201 0
178 199 0
177 198 0
181 203 0
176 199 0
179 200 0
176 199 0
182 204 0
180 203 0
177 200 0
177 199 0
179 201 0
184 205 0
180 203 0
172 196 0
175 197 0
180 203 0
177 200 0
185 205 0
176 198 0
178 200 0
174 196 0
179 200 0
175 198 0
180 201 0
181 203 0
178 199 0
180 202 0
178 200 0
181 201 0
181 203 0
178 201 0
180 202 0
179 201 0
176 198 0
182 203 0
179 201 0
181 202 0
181 203 0
183 204 0
182 203 0
179 201 0
181 203 0
181 203 0
179 201 0
182 204 0
178 201 0
181 202 0
178 200 0
181 203 0
184 204 0
179 202 0
182 203 0
185 205 0
178 201 0
181 203 0
178 200 0
180 202 0
183 204 0
181 203 0
179 201 0
183 204 0
182 204 0
184 205 0
181 203 0
180 203 0
181 203 0
183 204 0
181 203 0
183 204 0
181 203 0
180 203 0
181 203 0
182 204 0
182 204 0
181 202 0
181 202 0
180 202 0
181 203 0
183 204 0
182 204 0
181 203 0
179 202 0
180 202 0
182 204 0
179 201 0
182 204 0
181 203 0
184 205 0
182 203 0
181 203 0
179 201 0
183 204 0
180 202 0
183 204 0
181 203 0
182 204 0
183 204 0
183 204 0
181 202 0
180 203 0
182 204 0
180 202 0
181 202 0
184 205 0
183 204 0
182 204 0
181 202 0
179 201 0
182 204 0
180 202 0
183 204 0
182 203 0
182 204 0
179 201 0
179 202 0
182 204 0
180 202 0
182 204 0
184 205 0
181 202 0
180 201 0
182 203 0
181 203 0
183 204 0
180 203 0
181 203 0
180 202 0
184 205 0
183 204 0
184 205 0
182 204 0
181 202 0
181 203 0
183 204 0
182 204 0
183 204 0
180 203 0
183 204 0
183 204 0
181 203 0
182 204 0
182 203 0
180 203 0
184 205 0
180 203 0
182 203 0
182 204 0
183 204 0
182 204 0
181 203 0
181 202 0
182 203 0
183 204 0
182 203 0
181 203 0
181 203 0
181 203 0
181 203 0
181 203 0
182 203 0
181 203 0
182 204 0
181 203 0
183 204 0
181 203 0
182 204 0
181 203 0
183 203 0
182 204 0
182 204 0
182 204 0
184 205 0
180 201 0
183 204 0
182 204 0
182 203 0
179 201 0
182 204 0
182 203 0
181 203 0
181 203 0
178 201 0
183 204 0
181 203 0
183 204 0
181 203 0
181 203 0
181 203 0
180 203 0
180 203 0
180 203 0
179 201 0
181 203 0
181 203 0
181 203 0
181 203 0
181 203 0
182 203 0
182 203 0
180 202 0
181 203 0
182 203 0
176 199 0
183 204 0
182 204 0
181 203 0
181 203 0
181 203 0
178 200 0
179 201 0
178 199 0
182 204 0
181 203 0
180 201 0
180 203 0
178 200 0
178 200 0
180 202 0
182 203 0
180 202 0
185 205 0
183 204 0
181 203 0
181 202 0
177 200 0
177 199 0
178 200 0
179 201 0
177 200 0
179 201 0
180 203 0
177 199 0
181 203 0
180 203 0
180 203 0
180 201 0
177 200 0
178 200 0
180 202 0
181 203 0
179 201 0
180 203 0
181 202 0
182 203 0
181 203 0
182 204 0
180 202 0
181 202 0
182 203 0
180 201 0
178 201 0
184 205 0
178 200 0
180 200 0
180 201 0
182 202 0
179 199 0
180 202 0
180 201 0
181 202 0
178 201 0
180 202 0
182 204 0
182 204 0
178 201 0
184 204 0
180 202 0
177 198 0
181 202 0
184 204 0
184 205 56
183 202 56
184 204 0
176 198 38
177 197 0
181 199 69
181 202 69
183 203 69
181 201 89
174 193 80
180 200 93
177 196 84
178 198 56
185 204 101
183 202 108
182 201 80
179 198 101
176 197 84
182 203 48
178 198 56
180 201 108
178 196 101
193 211 129
188 207 97
188 207 139
187 206 118
192 210 118
189 207 118
187 206 118
185 205 80
185 205 69
186 206 118
186 206 56
188 206 104
186 205 89
182 203 69
182 202 80
186 205 56
178 199 0
178 198 0
176 197 0
178 199 0
180 202 38
179 199 0
172 193 0
171 192 38
180 201 38
181 203 0
181 203 0
181 202 0
179 200 0
180 201 0
176 198 0
183 204 0
175 197 0
173 194 0
172 193 0
171 192 0
180 201 0
177 198 0
172 193 0
169 192 0
168 190 0
176 197 0
176 199 0
171 193 0
173 195 0
177 199 0
174 196 0
172 193 0
168 191 0
176 197 0
175 196 0
178 199 0
175 195 0
173 194 0
171 192 0
178 199 0
172 195 0
177 199 0
175 198 0
169 191 0
178 199 0
171 193 0
177 199 0
182 203 0
170 193 0
172 194 0
177 200 0
169 193 0
174 196 0
176 199 0
177 199 0
180 203 0
176 198 0
175 197 0
177 199 0
173 196 0
177 199 0
177 199 0
179 200 0
175 198 0
178 200 0
177 200 0
171 193 0
177 198 0
173 196 0
180 202 0
180 201 0
170 194 0
179 201 0
176 198 0
180 202 0
175 198 0
176 197 0
181 203 0
176 198 0
178 199 0
180 203 0
179 201 0
180 201 0
179 200 0
180 201 0
182 204 0
177 199 0
178 200 0
176 198 0
173 195 0
179 201 0
176 198 0
178 201 0
178 201 0
180 201 0
175 197 0
178 201 0
178 200 0
174 197 0
176 199 0
177 200 0
175 196 0
181 202 0
180 202 0
180 202 0
182 204 0
182 204 0
179 201 0
179 200 0
181 202 0
179 201 0
179 201 0
179 200 0
180 202 0
179 201 0
178 200 0
178 200 0
181 203 0
179 200 0
181 203 0
179 201 0
178 201 0
181 202 0
179 201 0
179 201 0
180 202 0
180 202 0
179 201 0
182 203 0
178 200 0
177 200 0
182 204 0
181 202 0
180 202 0
179 201 0
181 203 0
182 203 0
180 202 0
179 201 0
183 204 0
181 203 0
182 203 0
177 200 0
181 203 0
180 202 0
181 203 0
180 202 0
181 203 0
177 200 0
178 201 0
181 203 0
183 204 0
181 203 0
181 203 0
182 203 0
182 204 0
180 202 0
183 204 0
179 201 0
180 202 0
182 204 0
182 204 0
178 201 0
181 203 0
182 203 0
180 202 0
182 204 0
181 203 0
181 203 0
180 203 0
181 203 0
182 203 0
179 201 0
178 200 0
181 203 0
182 204 0
182 204 0
183 203 0
181 203 0
180 202 0
181 203 0
181 203 0
184 205 0
182 204 0
182 204 0
179 202 0
179 201 0
180 201 0
181 203 0
182 204 0
183 204 0
183 204 0
182 204 0
183 204 0
181 202 0
181 203 0
181 203 0
186 206 0
183 204 0
180 202 0
182 204 0
181 202 0
181 203 0
183 204 0
180 202 0
181 203 0
182 204 0
182 204 0
180 203 0
182 204 0
181 203 0
184 205 0
182 202 0
182 204 0
180 202 0
180 203 0
181 203 0
181 202 0
180 202 0
183 204 0
184 205 0
181 203 0
177 200 0
181 203 0
182 204 0
184 205 0
180 202 0
183 204 0
183 204 0
182 204 0
180 203 0
180 203 0
179 202 0
180 203 0
182 203 0
181 203 0
181 203 0
181 203 0
182 203 0
184 205 0
181 203 0
183 204 0
179 201 0
180 202 0
181 203 0
178 200 0
178 200 0
181 202 0
181 202 0
181 203 0
182 204 0
180 203 0
181 203 0
183 204 0
183 204 0
182 204 0
183 204 0
180 203 0
180 203 0
179 201 0
177 200 0
183 204 0
181 203 0
178 201 0
180 202 0
182 204 0
182 204 0
179 201 0
181 203 0
181 203 0
183 204 0
180 201 0
184 205 0
181 203 0
182 204 0
179 201 0
183 204 0
179 201 0
180 202 0
180 202 0
182 204 0
182 204 0
178 200 0
181 202 0
180 203 0
183 204 0
181 203 0
180 202 0
174 196 0
183 204 0
180 203 0
180 202 0
182 204 0
181 203 0
184 205 0
183 204 0
182 203 0
181 203 0
180 203 0
180 202 0
183 204 0
178 200 0
182 203 0
180 203 0
179 202 0
177 201 0
182 204 0
181 203 0
183 204 0
179 201 0
180 202 0
181 203 0
182 203 0
181 203 0
177 200 0
184 205 0
176 198 0
180 202 0
180 202 0
181 202 0
181 203 0
178 200 0
178 201 0
180 202 0
180 203 0
183 204 0
182 204 0
177 200 0
182 204 0
177 199 0
181 203 0
182 203 0
181 203 0
179 201 0
179 200 0
183 204 0
181 202 0
180 201 0
184 205 0
179 202 0
177 200 0
176 198 0
179 201 0
180 201 0
178 200 0
181 203 0
181 202 0
183 204 0
184 205 0
179 201 0
180 202 0
178 200 0
177 199 0
180 203 0
180 202 0
182 204 0
183 204 0
179 202 0
181 203 0
177 199 0
182 203 0
179 201 0
179 201 38
182 203 38
182 203 69
179 200 0
176 198 38
178 198 56
182 202 69
182 203 56
178 199 56
168 188 48
176 197 56
184 204 84
177 196 75
179 199 69
189 207 97
180 200 84
183 201 69
183 202 104
178 198 84
181 200 56
185 205 121
183 202 84
184 204 104
189 208 104
185 203 89
187 206 111
183 202 56
186 204 97
190 208 104
182 202 89
182 202 69
183 202 69
185 204 97
183 203 80
185 205 97
190 209 104
175 195 80
182 203 0
178 198 0
177 198 0
182 202 56
181 201 56
175 196 0
175 197 56
179 200 0
179 198 38
176 198 0
179 200 0
180 202 0
177 198 0
180 202 0
176 198 0
178 200 0
178 200 0
176 198 0
173 195 0
177 198 0
176 198 0
169 190 0
179 200 0
175 197 0
175 197 0
171 193 0
176 197 0
177 199 0
177 198 0
166 188 0
174 195 0
170 192 0
175 196 0
173 195 0
171 192 0
172 193 0
173 194 0
176 198 0
179 200 0
169 191 0
169 191 0
177 200 0
176 197 0
171 194 0
178 199 0
172 193 0
171 193 0
175 197 0
179 200 0
177 199 0
173 195 0
173 195 0
177 199 0
178 200 0
176 197 0
178 199 0
170 192 0
174 197 0
174 197 0
174 196 0
173 195 0
173 195 0
183 204 0
179 200 0
171 192 0
171 193 0
180 202 0
175 197 0
175 198 0
174 197 0
173 196 0
176 198 0
180 201 0
176 197 0
176 199 0
178 200 0
179 200 0
182 204 0
179 201 0
170 193 0
180 201 0
180 202 0
174 197 0
178 199 0
178 200 0
181 202 0
179 201 0
180 202 0
173 195 0
179 202 0
182 203 0
177 200 0
177 199 0
179 201 0
176 199 0
179 200 0
178 201 0
179 201 0
179 202 0
180 202 0
183 203 0
182 203 0
181 203 0
178 200 0
179 201 0
179 201 0
181 202 0
182 202 0
181 202 0
181 203 0
179 201 0
179 201 0
179 201 0
180 202 0
178 200 0
178 201 0
180 201 0
179 201 0
181 203 0
182 203 0
179 201 0
181 203 0
180 203 0
180 202 0
176 198 0
182 204 0
178 201 0
181 203 0
179 201 0
180 203 0
182 204 0
180 203 0
182 204 0
178 200 0
177 200 0
180 203 0
180 202 0
182 204 0
180 202 0
179 201 0
182 204 0
180 203 0
182 203 0
182 204 0
182 204 0
178 199 0
180 202 0
182 203 0
178 200 0
178 201 0
181 203 0
176 198 0
180 202 0
182 204 0
178 200 0
182 204 0
179 201 0
180 203 0
178 200 0
181 202 0
179 201 0
180 202 0
181 203 0
181 203 0
180 202 0
180 201 0
182 203 0
179 201 0
183 203 0
179 201 0
180 203 0
180 203 0
182 204 0
180 202 0
179 201 0
179 200 0
182 204 0
182 204 0
180 203 0
179 202 0
181 203 0
182 203 0
177 199 0
183 204 0
181 203 0
179 202 0
181 203 0
185 205 0
181 203 0
182 204 0
179 201 0
182 203 0
181 203 0
181 203 0
181 203 0
184 205 0
180 203 0
182 204 0
181 203 0
181 203 0
182 204 0
180 202 0
181 203 0
181 202 0
184 205 0
181 203 0
182 204 0
182 204 0
184 205 0
180 202 0
182 204 0
183 204 0
181 202 0
183 204 0
180 203 0
183 204 0
182 203 0
183 204 0
181 203 0
182 204 0
182 204 0
182 204 0
180 203 0
181 203 0
182 204 0
179 202 0
182 204 0
182 204 0
181 203 0
181 203 0
182 203 0
182 204 0
182 204 0
181 203 0
182 203 0
182 204 0
182 204 0
180 203 0
181 203 0
181 203 0
181 203 0
183 204 0
181 203 0
181 203 0
180 203 0
182 204 0
180 202 0
182 204 0
184 205 0
180 202 0
182 204 0
180 202 0
181 203 0
180 203 0
180 202 0
181 203 0
180 203 0
181 203 0
179 202 0
180 202 0
180 201 0
182 204 0
180 202 0
181 203 0
180 202 0
181 202 0
183 204 0
182 204 0
183 204 0
182 204 0
180 203 0
180 203 0
178 200 0
181 203 0
182 204 0
180 203 0
182 204 0
181 203 0
179 201 0
180 202 0
179 202 0
179 202 0
181 203 0
181 203 0
181 203 0
180 203 0
182 204 0
176 198 0
181 203 0
179 202 0
180 202 0
180 202 0
179 202 0
183 204 0
183 204 0
181 203 0
181 202 0
178 201 0
182 203 0
183 204 0
181 203 0
185 205 0
178 200 0
182 204 0
180 202 0
181 202 0
178 201 0
182 203 0
182 204 0
182 204 0
182 204 0
182 203 0
179 201 0
181 202 0
175 197 0
182 204 0
181 203 0
179 202 0
176 198 0
180 202 0
179 201 0
183 203 0
181 202 0
182 203 0
179 201 0
179 202 0
179 202 0
179 202 0
181 203 0
177 198 0
182 204 0
179 201 0
184 205 0
180 202 0
179 201 0
179 201 0
177 199 0
177 200 0
183 203 0
177 199 0
182 203 0
183 203 0
179 202 0
182 202 0
180 201 0
181 203 0
179 200 0
174 196 0
183 204 0
179 201 0
176 197 0
182 203 0
181 203 0
181 203 0
181 202 0
180 202 0
182 203 0
180 203 0
179 201 0
181 203 0
180 202 0
175 195 25
179 200 0
180 202 0
179 201 0
178 200 38
179 201 0
176 197 48
180 201 38
178 199 69
179 199 69
183 202 69
182 203 56
177 198 63
179 200 63
183 202 38
174 194 93
179 199 63
179 199 56
185 204 89
178 197 93
181 202 89
182 202 75
182 202 75
175 195 69
180 200 80
183 203 69
180 199 56
188 207 104
191 209 129
178 198 80
188 206 97
184 203 69
181 202 56
179 197 89
177 198 38
177 198 38
182 203 38
180 201 0
179 200 0
177 197 0
179 200 56
176 197 0
177 197 0
183 203 56
177 199 0
173 194 38
177 198 69
175 198 0
179 201 0
180 202 0
178 200 0
179 201 0
177 199 0
173 195 0
174 196 0
174 196 0
171 193 0
174 196 0
174 194 0
181 201 0
173 194 0
171 193 0
176 199 0
174 195 0
174 196 0
179 200 0
177 199 0
177 199 0
171 193 0
171 194 0
176 198 0
171 193 0
173 195 0
175 197 0
176 199 0
170 193 0
179 199 0
168 190 0
169 192 0
172 195 0
173 196 0
169 192 0
172 195 0
176 198 0
181 202 0
168 190 0
177 199 0
174 196 0
175 198 0
178 199 0
175 196 0
179 201 0
174 196 0
176 197 0
178 200 0
177 199 0
176 198 0
177 198 0
177 199 0
174 197 0
180 202 0
170 192 0
172 194 0
178 200 0
179 201 0
178 200 0
177 199 0
177 199 0
181 202 0
176 198 0
179 201 0
178 201 0
172 194 0
181 202 0
178 200 0
176 198 0
169 192 0
182 204 0
177 199 0
178 200 0
180 203 0
178 200 0
179 200 0
180 202 0
178 200 0
173 195 0
181 203 0
176 199 0
178 201 0
175 196 0
177 200 0
181 202 0
178 200 0
176 198 0
177 200 0
172 195 0
182 204 0
174 196 0
179 200 0
177 200 0
178 200 0
181 203 0
179 201 0
180 202 0
182 203 0
180 202 0
179 201 0
184 205 0
178 199 0
176 198 0
179 202 0
179 201 0
180 202 0
179 202 0
181 202 0
180 203 0
181 202 0
177 199 0
180 203 0
180 202 0
180 202 0
181 202 0
181 203 0
178 201 0
179 201 0
180 201 0
179 201 0
181 203 0
180 201 0
179 201 0
180 202 0
177 199 0
180 202 0
181 203 0
178 200 0
176 199 0
181 202 0
179 201 0
179 202 0
178 201 0
174 198 0
179 202 0
182 204 0
178 200 0
181 202 0
182 204 0
181 202 0
178 200 0
182 204 0
181 202 0
180 202 0
180 202 0
181 202 0
182 204 0
180 201 0
180 202 0
183 204 0
184 205 0
181 203 0
181 203 0
181 203 0
181 202 0
182 204 0
178 199 0
181 203 0
182 204 0
181 202 0
178 200 0
180 203 0
180 202 0
181 203 0
177 199 0
179 202 0
179 202 0
182 203 0
182 203 0
181 202 0
182 204 0
179 201 0
181 203 0
182 204 0
184 205 0
180 202 0
181 203 0
185 205 0
180 201 0
182 204 0
183 204 0
184 205 0
180 202 0
177 199 0
182 203 0
181 203 0
182 204 0
180 202 0
179 201 0
181 203 0
180 203 0
182 204 0
183 204 0
182 204 0
181 202 0
181 203 0
183 204 0
182 204 0
183 204 0
182 204 0
180 203 0
180 202 0
180 202 0
182 204 0
181 203 0
184 205 0
183 204 0
180 202 0
179 201 0
181 203 0
182 204 0
179 202 0
182 204 0
182 204 0
180 203 0
180 203 0
181 203 0
181 203 0
180 203 0
182 204 0
179 202 0
180 203 0
182 204 0
181 203 0
180 202 0
181 203 0
180 202 0
180 202 0
180 203 0
182 204 0
178 201 0
183 204 0
184 205 0
182 204 0
181 203 0
183 204 0
181 203 0
182 204 0
183 204 0
182 203 0
180 203 0
179 201 0
179 201 0
181 203 0
182 203 0
182 204 0
179 201 0
178 201 0
182 204 0
179 201 0
179 201 0
181 203 0
183 204 0
183 204 0
179 202 0
180 202 0
181 202 0
180 202 0
183 204 0
182 204 0
179 201 0
184 205 0
183 204 0
182 204 0
180 202 0
180 201 0
183 204 0
183 203 0
181 203 0
181 202 0
181 202 0
180 203 0
182 203 0
180 203 0
180 201 0
181 202 0
182 204 0
179 201 0
178 200 0
183 204 0
179 201 0
179 202 0
181 203 0
181 203 0
179 202 0
181 203 0
181 203 0
183 204 0
181 203 0
183 204 0
181 203 0
182 204 0
180 201 0
181 203 0
180 203 0
180 201 0
183 204 0
181 203 0
180 203 0
179 202 0
180 201 0
184 205 0
182 203 0
179 202 0
180 203 0
181 203 0
178 199 0
182 203 0
179 201 0
180 202 0
182 204 0
181 203 0
178 200 0
178 200 0
181 203 0
182 204 0
182 203 0
179 200 0
181 203 0
181 203 0
183 204 0
181 202 0
181 202 0
181 203 0
181 202 0
179 200 0
174 197 0
179 201 0
181 203 0
181 203 0
179 201 0
178 200 0
180 202 0
177 200 0
178 200 0
180 201 0
181 203 0
182 203 0
175 197 0
181 202 0
177 199 0
181 202 0
184 205 0
182 202 0
182 203 0
179 201 0
180 203 0
179 202 0
180 202 0
182 204 0
180 202 0
182 203 0
182 204 0
179 202 0
180 202 0
181 202 0
179 200 38
180 200 0
179 200 0
180 201 0
180 202 69
180 201 56
178 199 38
181 201 75
181 202 69
182 202 56
184 204 69
179 199 0
172 192 38
177 197 69
180 200 56
179 200 0
182 202 80
179 198 63
182 201 97
187 207 104
189 208 124
188 207 118
187 206 97
189 207 80
187 206 134
185 206 97
181 202 38
181 201 38
184 203 89
179 199 56
187 207 69
180 201 56
180 200 0
178 200 0
174 196 0
176 198 0
182 203 38
179 200 0
181 202 0
182 203 0
179 199 0
183 203 0
176 198 0
177 200 0
178 202 0
175 198 0
178 200 0
177 199 0
175 198 0
176 198 0
175 195 0
175 196 0
178 198 0
179 199 0
179 200 0
177 198 0
176 197 0
176 198 0
178 199 0
167 189 0
178 200 0
175 197 0
176 198 0
175 196 0
170 192 0
181 202 0
174 195 0
171 193 0
178 200 0
176 197 0
176 198 0
179 201 0
176 198 0
177 198 0
178 200 0
174 196 0
175 197 0
174 196 0
172 194 0
175 196 0
172 193 0
181 202 0
172 194 0
175 196 0
174 196 0
173 194 0
173 196 0
176 199 0
176 197 0
178 201 0
171 193 0
177 198 0
173 194 0
174 196 0
168 191 0
175 196 0
180 202 0
176 199 0
181 202 0
173 195 0
179 201 0
176 198 0
180 201 0
177 198 0
179 201 0
178 200 0
179 201 0
179 200 0
176 198 0
179 200 0
177 198 0
174 196 0
180 202 0
178 199 0
177 197 0
174 197 0
179 201 0
177 198 0
176 198 0
181 201 0
180 202 0
181 203 0
179 201 0
178 200 0
182 203 0
181 202 0
178 201 0
180 202 0
177 197 0
179 201 0
178 200 0
182 204 0
174 197 0
180 202 0
185 205 0
182 204 0
183 204 0
178 200 0
178 201 0
177 200 0
179 201 0
178 200 0
178 200 0
180 202 0
180 202 0
179 202 0
181 202 0
181 202 0
183 204 0
181 203 0
179 202 0
180 202 0
182 204 0
181 203 0
179 201 0
179 201 0
178 201 0
180 202 0
178 200 0
181 203 0
178 200 0
178 200 0
182 204 0
179 201 0
181 203 0
176 197 0
178 201 0
179 202 0
179 201 0
179 202 0
179 202 0
181 203 0
180 203 0
180 202 0
180 202 0
180 201 0
181 202 0
182 204 0
178 201 0
180 203 0
175 197 0
181 203 0
177 200 0
180 202 0
181 202 0
180 202 0
180 202 0
179 202 0
181 203 0
181 203 0
180 202 0
182 203 0
181 203 0
183 204 0
178 200 0
180 202 0
180 202 0
178 201 0
179 201 0
178 200 0
182 203 0
180 202 0
182 204 0
183 204 0
181 203 0
180 202 0
181 203 0
179 201 0
179 201 0
183 204 0
183 204 0
180 202 0
183 204 0
182 204 0
181 203 0
181 203 0
180 203 0
180 203 0
180 203 0
180 202 0
183 204 0
181 203 0
179 201 0
181 202 0
183 204 0
181 203 0
182 203 0
180 202 0
182 203 0
181 203 0
181 202 0
180 203 0
180 202 0
180 202 0
181 202 0
180 202 0
181 203 0
179 202 0
180 201 0
181 203 0
180 203 0
180 203 0
180 203 0
183 204 0
180 203 0
182 204 0
182 204 0
181 203 0
179 202 0
183 204 0
182 203 0
182 204 0
181 203 0
181 203 0
183 204 0
185 205 0
182 203 0
180 202 0
182 204 0
182 203 0
182 204 0
183 204 0
177 200 0
183 204 0
183 204 0
183 204 0
182 204 0
183 204 0
179 201 0
183 203 0
181 203 0
185 205 0
182 204 0
181 203 0
182 203 0
181 203 0
182 204 0
182 204 0
181 203 0
182 204 0
180 202 0
182 204 0
182 204 0
183 204 0
182 204 0
183 203 0
184 205 0
179 202 0
180 202 0
181 203 0
181 203 0
182 204 0
182 204 0
183 204 0
182 204 0
182 203 0
183 204 0
182 204 0
179 202 0
180 202 0
181 203 0
180 202 0
182 203 0
182 203 0
181 203 0
177 199 0
180 202 0
179 202 0
181 202 0
179 200 0
181 203 0
181 203 0
179 202 0
181 203 0
180 202 0
181 203 0
180 202 0
182 204 0
180 203 0
177 199 0
180 202 0
181 202 0
180 202 0
179 202 0
176 199 0
183 203 0
178 201 0
184 205 0
180 202 0
182 204 0
177 199 0
178 200 0
178 201 0
177 199 0
182 204 0
180 203 0
182 203 0
182 204 0
179 201 0
182 204 0
184 205 0
184 205 0
180 202 0
179 201 0
180 202 0
182 204 0
181 203 0
177 199 0
181 203 0
179 201 0
180 202 0
180 201 0
175 198 0
180 202 0
181 203 0
184 205 0
182 204 0
182 203 0
180 202 0
182 204 0
181 203 0
177 200 0
177 198 0
179 201 0
179 202 0
179 201 0
183 204 0
181 202 0
181 202 0
178 199 0
180 202 0
179 201 0
180 203 0
181 202 0
181 203 0
181 203 0
178 200 0
181 202 0
179 201 0
176 198 0
179 200 0
181 201 0
180 202 0
179 201 0
176 197 0
177 199 0
181 202 0
181 203 0
179 201 0
178 200 0
180 202 0
179 201 0
179 201 0
182 203 0
180 202 0
180 203 0
180 201 0
183 203 0
181 203 0
177 199 0
179 200 0
180 201 0
180 201 0
178 199 0
173 195 25
179 201 0
175 196 0
177 198 38
185 205 56
172 192 69
183 204 38
171 192 0
181 203 69
183 204 38
180 200 69
179 199 56
180 200 89
178 199 63
184 204 69
184 203 56
183 203 69
178 198 38
184 203 97
180 200 69
183 202 69
187 206 80
181 201 56
189 207 69
186 206 80
180 200 56
179 199 0
176 197 38
174 195 0
177 198 0
182 203 0
181 202 56
180 200 38
177 199 0
180 201 0
179 201 0
177 198 56
178 199 0
177 199 0
180 202 0
178 198 0
179 200 0
180 202 0
176 198 0
180 201 0
177 199 0
178 200 0
178 198 0
171 193 0
176 197 0
173 194 0
178 200 0
177 197 0
181 202 0
173 194 0
172 193 0
175 196 0
174 195 0
175 197 0
178 199 0
177 198 0
173 194 0
167 189 0
172 194 0
173 195 0
176 198 0
180 200 0
180 201 0
176 198 0
173 194 0
178 199 0
176 197 0
179 200 0
175 197 0
170 192 0
179 201 0
174 196 0
178 201 0
174 196 0
169 192 0
181 202 0
175 197 0
174 197 0
176 198 0
176 198 0
175 196 0
174 197 0
174 196 0
169 192 0
178 200 0
177 200 0
179 200 0
177 200 0
172 194 0
174 196 0
179 201 0
177 199 0
182 203 0
180 202 0
178 200 0
174 196 0
175 197 0
176 199 0
174 196 0
172 194 0
172 195 0
176 198 0
174 196 0
175 198 0
174 196 0
179 201 0
174 196 0
179 200 0
180 202 0
182 204 0
177 199 0
182 203 0
176 199 0
175 197 0
175 197 0
181 202 0
176 198 0
177 199 0
179 202 0
179 201 0
179 201 0
182 203 0
180 201 0
177 199 0
176 197 0
177 200 0
176 199 0
179 202 0
179 201 0
181 202 0
182 203 0
183 204 0
172 196 0
177 200 0
181 203 0
180 201 0
179 201 0
181 202 0
181 203 0
182 203 0
177 200 0
179 201 0
180 202 0
177 201 0
176 197 0
181 202 0
180 202 0
181 202 0
182 204 0
184 205 0
181 203 0
183 203 0
181 202 0
179 201 0
181 203 0
180 202 0
180 202 0
179 202 0
183 203 0
181 203 0
179 202 0
179 202 0
182 204 0
182 204 0
179 202 0
180 201 0
183 204 0
182 204 0
182 204 0
180 202 0
181 203 0
178 201 0
179 201 0
181 203 0
181 202 0
180 202 0
181 203 0
179 202 0
183 204 0
182 204 0
183 204 0
181 202 0
181 203 0
181 203 0
182 203 0
180 201 0
178 200 0
182 204 0
178 202 0
180 202 0
179 201 0
182 204 0
181 203 0
182 203 0
182 204 0
181 203 0
181 202 0
182 204 0
182 203 0
182 204 0
182 204 0
183 204 0
183 204 0
181 203 0
184 205 0
181 203 0
182 204 0
180 202 0
182 203 0
182 204 0
182 204 0
182 203 0
181 203 0
182 203 0
182 203 0
184 205 0
183 204 0
184 205 0
184 205 0
181 203 0
182 203 0
179 201 0
181 203 0
182 203 0
179 201 0
182 203 0
180 202 0
179 202 0
181 203 0
182 204 0
181 203 0
181 203 0
180 202 0
179 200 0
179 202 0
182 204 0
182 203 0
182 204 0
181 203 0
182 203 0
181 202 0
182 203 0
180 202 0
183 204 0
183 204 0
181 203 0
181 203 0
181 203 0
181 203 0
181 203 0
182 204 0
180 203 0
179 202 0
183 204 0
182 204 0
183 204 0
181 202 0
183 204 0
183 204 0
183 204 0
182 204 0
181 203 0
181 202 0
182 204 0
184 205 0
182 204 0
182 204 0
184 205 0
184 205 0
181 203 0
182 204 0
179 201 0
181 203 0
182 204 0
181 203 0
183 204 0
181 203 0
180 202 0
181 202 0
180 203 0
183 204 0
184 205 0
178 200 0
181 203 0
179 202 0
178 200 0
180 201 0
180 203 0
182 204 0
183 204 0
182 204 0
183 204 0
184 205 0
181 203 0
182 204 0
181 203 0
182 204 0
180 203 0
180 203 0
178 201 0
179 201 0
182 204 0
183 204 0
180 202 0
178 201 0
182 203 0
182 203 0
179 202 0
182 204 0
183 204 0
180 203 0
181 202 0
181 203 0
182 204 0
182 204 0
183 204 0
183 204 0
177 201 0
182 204 0
182 204 0
182 203 0
179 201 0
183 204 0
181 203 0
182 204 0
180 202 0
182 204 0
181 203 0
180 201 0
182 203 0
180 202 0
183 204 0
181 203 0
182 204 0
180 203 0
183 204 0
181 202 0
181 203 0
180 202 0
178 200 0
182 204 0
182 204 0
180 201 0
178 200 0
182 204 0
178 200 0
178 200 0
181 203 0
180 202 0
179 202 0
181 203 0
181 203 0
183 203 0
179 200 0
179 201 0
181 203 0
179 201 0
178 200 0
178 199 0
181 203 0
182 204 0
178 200 0
179 202 0
179 201 0
180 202 0
180 201 0
176 199 0
182 203 0
178 199 0
179 201 0
181 202 0
180 201 0
181 202 0
181 202 0
179 201 0
181 202 0
180 202 0
181 202 0
181 202 0
180 201 0
180 202 0
181 203 0
181 201 0
180 202 0
180 202 0
181 203 0
183 204 0
181 203 0
181 202 0
182 204 0
181 203 0
179 201 0
182 203 0
180 201 0
179 200 25
178 200 0
177 198 0
177 199 25
183 204 0
181 202 0
182 203 25
183 204 0
180 200 56
183 204 56
180 200 56
178 198 56
182 203 56
185 205 80
184 204 38
183 203 69
179 198 38
185 203 80
180 201 80
177 196 80
183 204 38
185 204 69
179 199 0
181 201 0
183 203 38
182 203 0
182 203 0
182 202 0
180 201 38
182 203 0
181 201 0
181 202 38
180 200 0
179 200 38
180 201 0
182 203 38
180 201 38
180 202 0
182 204 0
183 204 0
180 202 0
179 200 0
173 196 0
179 200 0
170 191 0
177 199 0
175 197 0
179 200 0
181 202 0
176 197 0
180 200 0
180 201 0
171 193 0
173 195 0
176 197 0
174 196 0
170 192 0
175 196 0
177 199 0
179 200 0
178 199 0
175 196 0
176 198 0
175 197 0
172 195 0
174 195 0
169 191 0
174 196 0
173 195 0
176 197 0
168 189 0
178 199 0
173 195 0
178 201 0
174 195 0
175 197 0
173 195 0
179 201 0
172 194 0
177 199 0
178 200 0
178 200 0
172 194 0
179 200 0
174 196 0
170 192 0
176 198 0
172 194 0
175 197 0
181 203 0
175 197 0
180 202 0
178 200 0
179 202 0
177 199 0
177 199 0
177 198 0
177 198 0
177 198 0
175 197 0
180 202 0
178 199 0
176 199 0
178 200 0
176 198 0
171 194 0
174 196 0
182 204 0
177 199 0
178 200 0
178 200 0
180 202 0
180 202 0
173 196 0
176 197 0
178 200 0
180 202 0
182 203 0
177 199 0
176 198 0
178 200 0
178 200 0
175 197 0
179 202 0
179 201 0
179 201 0
181 202 0
179 202 0
179 202 0
176 198 0
177 199 0
181 203 0
178 200 0
182 204 0
179 200 0
174 196 0
179 200 0
176 198 0
178 201 0
184 205 0
180 203 0
181 203 0
181 202 0
180 202 0
180 201 0
178 200 0
180 203 0
181 203 0
178 200 0
181 203 0
178 201 0
181 202 0
181 203 0
180 202 0
182 204 0
181 203 0
179 201 0
177 199 0
181 203 0
177 200 0
181 203 0
180 201 0
178 199 0
181 203 0
182 204 0
180 202 0
175 198 0
182 203 0
181 202 0
182 204 0
182 204 0
183 204 0
180 202 0
181 202 0
181 202 0
182 204 0
180 203 0
178 200 0
178 201 0
184 205 0
181 202 0
180 203 0
180 203 0
182 204 0
181 203 0
181 202 0
182 204 0
183 203 0
181 203 0
181 203 0
182 204 0
181 203 0
180 202 0
184 205 0
182 203 0
177 199 0
182 204 0
180 203 0
179 201 0
182 203 0
183 204 0
181 203 0
183 203 0
179 201 0
183 204 0
181 202 0
178 200 0
182 204 0
183 204 0
179 202 0
180 202 0
183 203 0
183 204 0
183 204 0
182 204 0
180 201 0
182 204 0
179 201 0
181 202 0
181 203 0
181 203 0
180 202 0
179 201 0
181 203 0
182 204 0
181 203 0
183 204 0
181 203 0
178 201 0
183 204 0
182 204 0
180 202 0
182 204 0
182 204 0
183 204 0
181 203 0
178 201 0
180 202 0
181 202 0
182 204 0
184 205 0
177 199 0
181 202 0
182 203 0
183 204 0
182 203 0
181 203 0
181 203 0
180 202 0
184 205 0
179 201 0
182 204 0
184 205 0
182 204 0
182 203 0
181 203 0
183 204 0
182 204 0
183 204 0
181 203 0
179 202 0
182 204 0
181 203 0
181 203 0
180 202 0
182 204 0
182 203 0
180 202 0
183 204 0
183 204 0
180 202 0
184 205 0
182 204 0
181 203 0
180 203 0
184 205 0
182 204 0
182 204 0
181 202 0
179 201 0
183 204 0
183 204 0
182 204 0
182 203 0
182 204 0
181 203 0
178 201 0
182 204 0
181 203 0
184 205 0
182 204 0
181 203 0
183 204 0
180 202 0
182 203 0
183 204 0
178 200 0
183 204 0
179 201 0
180 202 0
181 202 0
181 202 0
181 203 0
182 204 0
178 201 0
182 203 0
183 204 0
181 203 0
183 204 0
184 205 0
180 203 0
181 203 0
178 200 0
182 203 0
181 203 0
180 203 0
180 203 0
177 200 0
179 202 0
180 202 0
184 205 0
182 204 0
183 204 0
180 203 0
183 204 0
183 204 0
180 202 0
178 200 0
182 204 0
180 202 0
182 204 0
178 201 0
179 202 0
181 203 0
183 204 0
181 203 0
181 203 0
178 200 0
180 202 0
180 201 0
182 203 0
182 203 0
181 203 0
180 202 0
180 202 0
181 203 0
179 200 0
179 201 0
181 202 0
181 202 0
183 204 0
179 202 0
171 193 0
182 203 0
181 202 0
180 202 0
179 202 0
180 201 0
178 202 0
180 203 0
181 203 0
180 203 0
181 202 0
178 200 0
181 203 0
182 204 0
179 200 0
177 199 0
180 203 0
183 204 0
180 201 0
182 204 0
178 199 0
181 202 0
180 202 0
182 203 0
180 201 0
180 202 0
177 198 0
177 198 0
182 204 0
179 200 0
180 201 0
176 197 0
180 202 0
179 201 0
179 201 0
184 205 0
179 201 0
180 203 0
178 201 0
177 201 0
182 203 0
181 203 0
181 202 0
180 202 0
180 202 0
182 204 0
184 205 0
183 204 0
180 201 25
177 199 0
181 202 0
176 197 0
178 200 25
178 200 0
179 201 0
177 198 25
173 195 0
177 200 38
180 201 0
182 204 0
179 199 0
178 199 38
176 197 0
178 199 0
179 199 0
180 201 0
181 201 0
175 196 0
182 203 0
185 204 0
179 199 0
180 201 0
177 198 0
179 199 0
185 205 0
179 199 38
184 204 38
184 204 56
184 204 56
178 198 38
176 198 38
174 195 0
179 200 56
176 197 0
176 198 0
176 199 0
178 200 0
179 199 0
177 200 0
166 188 0
177 200 0
173 195 0
177 199 0
179 200 0
180 202 0
174 195 0
177 199 0
175 196 0
176 197 0
176 198 0
181 202 0
179 199 0
178 200 0
174 196 0
178 200 0
172 193 0
175 196 0
183 203 0
176 199 0
172 194 0
178 199 0
179 201 0
173 194 0
175 197 0
177 199 0
173 195 0
173 195 0
177 199 0
175 196 0
178 200 0
173 195 0
180 202 0
177 199 0
178 199 0
172 194 0
175 197 0
172 195 0
181 202 0
174 196 0
179 200 0
179 202 0
179 201 0
176 199 0
176 197 0
182 204 0
178 200 0
177 199 0
177 198 0
174 196 0
177 200 0
175 198 0
177 199 0
175 196 0
182 204 0
178 200 0
176 197 0
177 199 0
178 200 0
172 193 0
174 195 0
171 193 0
178 200 0
181 203 0
179 200 0
177 199 0
179 202 0
181 202 0
175 198 0
178 200 0
181 202 0
179 201 0
176 198 0
177 198 0
179 201 0
176 198 0
179 201 0
174 195 0
180 201 0
184 205 0
180 201 0
179 202 0
181 203 0
179 200 0
182 202 0
174 196 0
179 201 0
178 201 0
181 202 0
181 202 0
179 201 0
182 204 0
180 202 0
177 199 0
181 203 0
180 201 0
181 203 0
175 197 0
181 203 0
181 203 0
178 200 0
178 200 0
181 202 0
178 200 0
178 200 0
180 203 0
179 201 0
182 204 0
182 204 0
183 204 0
184 205 0
183 204 0
176 198 0
179 201 0
180 202 0
180 203 0
180 202 0
178 200 0
183 204 0
181 203 0
179 201 0
183 204 0
181 203 0
183 204 0
181 203 0
178 201 0
181 203 0
183 204 0
182 204 0
180 201 0
180 203 0
180 202 0
181 203 0
174 196 0
180 201 0
183 204 0
182 204 0
178 200 0
180 201 0
180 202 0
177 199 0
182 204 0
182 203 0
183 204 0
182 203 0
182 204 0
182 204 0
182 204 0
182 204 0
178 200 0
178 202 0
180 202 0
179 202 0
179 202 0
182 204 0
181 203 0
183 204 0
180 203 0
179 201 0
178 200 0
179 201 0
181 202 0
181 203 0
181 203 0
182 204 0
183 204 0
183 204 0
185 205 0
182 204 0
182 204 0
180 203 0
181 201 0
178 201 0
182 204 0
181 203 0
180 203 0
181 202 0
181 203 0
184 205 0
182 203 0
181 203 0
181 202 0
181 203 0
181 203 0
182 204 0
183 204 0
181 203 0
181 203 0
183 204 0
179 200 0
183 204 0
182 204 0
182 204 0
182 204 0
181 203 0
185 205 0
183 204 0
180 201 0
184 205 0
179 202 0
182 204 0
180 203 0
184 205 0
180 202 0
185 205 0
182 203 0
184 205 0
180 202 0
179 201 0
182 204 0
182 204 0
180 203 0
181 203 0
181 202 0
185 205 0
183 204 0
182 204 0
183 204 0
182 204 0
182 204 0
184 205 0
183 204 0
182 204 0
183 204 0
180 203 0
182 204 0
180 203 0
184 205 0
183 204 0
181 203 0
181 203 0
180 202 0
182 203 0
182 204 0
180 203 0
182 204 0
181 202 0
180 203 0
182 204 0
181 203 0
180 202 0
182 203 0
180 203 0
182 203 0
180 203 0
182 203 0
178 201 0
182 203 0
182 204 0
181 203 0
183 204 0
180 203 0
183 204 0
182 204 0
182 204 0
180 202 0
178 200 0
183 204 0
183 204 0
183 204 0
182 204 0
178 201 0
182 202 0
181 203 0
179 202 0
180 202 0
180 202 0
182 204 0
181 203 0
180 203 0
183 204 0
181 202 0
181 203 0
183 204 0
183 204 0
182 204 0
181 202 0
181 203 0
180 202 0
181 203 0
181 202 0
181 203 0
181 203 0
182 204 0
182 203 0
180 202 0
179 202 0
180 201 0
181 203 0
181 203 0
180 201 0
180 203 0
183 204 0
182 203 0
181 203 0
183 204 0
179 200 0
182 204 0
178 201 0
180 202 0
180 202 0
181 203 0
182 204 0
180 201 0
180 202 0
182 203 0
181 203 0
182 204 0
181 202 0
181 203 0
179 201 0
178 201 0
184 205 0
181 203 0
181 203 0
180 203 0
183 204 0
181 203 0
177 200 0
182 203 0
180 202 0
179 202 0
181 203 0
181 202 0
180 202 0
183 204 0
181 202 0
182 203 0
181 203 0
182 204 0
178 200 0
178 200 0
178 200 0
180 203 0
179 201 0
180 203 0
178 201 0
183 204 0
179 200 0
180 202 0
184 205 0
180 202 0
178 199 0
180 201 0
177 200 0
184 204 0
182 204 0
180 202 0
182 202 0
179 202 0
182 203 0
182 203 0
184 205 0
181 203 0
180 203 0
180 201 0
183 204 0
181 203 0
180 202 0
179 201 0
181 202 0
184 205 0
179 201 0
179 200 0
183 204 0
178 200 25
180 201 0
180 202 0
175 197 25
179 200 0
178 199 25
182 203 0
181 202 25
185 204 0
180 200 0
174 195 0
179 201 0
179 200 38
179 200 38
181 202 38
178 200 0
180 201 56
181 201 38
182 203 69
178 199 56
180 201 0
181 202 0
183 203 56
176 197 0
177 199 69
181 202 38
175 196 0
179 200 0
179 200 0
181 203 0
181 202 0
174 196 0
179 201 0
172 193 0
179 201 0
180 201 0
181 202 0
178 200 0
178 199 0
173 194 0
174 196 0
178 199 0
173 194 0
173 194 0
179 200 0
176 197 0
171 193 0
176 197 0
180 200 0
167 189 0
179 198 0
179 201 0
172 194 0
180 201 0
174 195 0
180 201 0
173 196 0
176 198 0
177 198 0
174 196 0
176 198 0
176 197 0
175 197 0
173 195 0
175 198 0
176 198 0
176 198 0
175 197 0
179 201 0
175 198 0
174 196 0
172 194 0
175 196 0
175 197 0
176 199 0
178 199 0
177 198 0
176 198 0
172 194 0
178 199 0
175 198 0
171 194 0
171 193 0
171 194 0
181 203 0
175 198 0
181 201 0
179 201 0
178 199 0
175 196 0
178 200 0
180 202 0
180 202 0
181 202 0
179 201 0
173 195 0
177 200 0
176 197 0
179 200 0
176 198 0
177 198 0
178 200 0
176 197 0
179 200 0
175 197 0
181 203 0
181 202 0
176 198 0
180 202 0
180 202 0
176 197 0
179 201 0
182 203 0
179 200 0
176 198 0
183 204 0
180 201 0
182 203 0
179 201 0
177 199 0
182 204 0
179 202 0
181 203 0
178 200 0
176 199 0
175 196 0
179 201 0
180 202 0
179 200 0
179 201 0
177 199 0
175 197 0
182 204 0
178 200 0
176 199 0
180 202 0
179 201 0
181 203 0
181 203 0
181 203 0
181 202 0
177 200 0
179 201 0
184 205 0
181 203 0
182 204 0
178 200 0
179 202 0
179 201 0
180 202 0
178 200 0
178 200 0
179 201 0
181 202 0
180 202 0
182 203 0
182 204 0
178 200 0
182 203 0
179 202 0
181 203 0
182 204 0
179 202 0
180 203 0
179 200 0
179 201 0
181 202 0
183 204 0
179 202 0
183 204 0
181 203 0
182 203 0
179 201 0
179 202 0
180 202 0
179 201 0
181 203 0
181 203 0
180 203 0
183 204 0
179 200 0
181 203 0
180 202 0
180 202 0
180 202 0
179 202 0
182 204 0
182 204 0
180 202 0
181 202 0
181 202 0
181 202 0
180 202 0
178 200 0
181 203 0
181 202 0
181 203 0
182 203 0
180 202 0
179 202 0
181 203 0
181 202 0
180 202 0
180 203 0
181 203 0
181 203 0
181 202 0
183 204 0
180 203 0
180 203 0
180 203 0
182 204 0
183 204 0
178 201 0
182 203 0
184 205 0
182 203 0
180 203 0
181 203 0
184 205 0
181 203 0
178 201 0
180 201 0
181 203 0
183 204 0
181 202 0
181 203 0
179 202 0
179 202 0
182 204 0
180 202 0
181 203 0
183 204 0
183 204 0
182 203 0
183 203 0
181 203 0
185 205 0
180 203 0
181 203 0
183 203 0
182 204 0
181 203 0
180 202 0
182 204 0
182 204 0
182 204 0
184 205 0
182 204 0
182 204 0
181 203 0
185 205 0
179 202 0
182 204 0
181 203 0
181 203 0
183 204 0
181 202 0
182 204 0
182 204 0
183 204 0
180 203 0
182 203 0
183 204 0
180 203 0
182 204 0
182 204 0
183 204 0
183 204 0
181 203 0
182 204 0
180 202 0
182 204 0
182 204 0
182 204 0
179 202 0
183 204 0
180 203 0
181 203 0
183 204 0
181 203 0
179 202 0
180 203 0
183 204 0
185 205 0
180 202 0
182 203 0
179 201 0
180 202 0
183 204 0
179 202 0
184 205 0
181 203 0
179 202 0
183 204 0
180 202 0
179 201 0
182 204 0
183 204 0
180 202 0
179 202 0
181 203 0
179 202 0
179 201 0
181 203 0
182 203 0
181 202 0
179 201 0
180 202 0
182 204 0
181 203 0
181 203 0
182 204 0
181 203 0
181 203 0
182 204 0
182 204 0
177 200 0
181 203 0
180 202 0
176 199 0
181 203 0
181 202 0
183 204 0
177 199 0
182 204 0
182 204 0
179 201 0
181 202 0
181 203 0
180 202 0
179 201 0
182 204 0
181 203 0
181 202 0
180 203 0
184 204 0
177 199 0
182 203 0
183 204 0
181 203 0
179 201 0
179 202 0
178 200 0
180 202 0
180 201 0
180 202 0
180 202 0
184 205 0
179 202 0
180 203 0
178 199 0
181 202 0
182 203 0
181 202 0
181 203 0
178 199 0
178 200 0
182 203 0
177 200 0
176 199 0
180 202 0
179 201 0
179 201 0
180 202 0
179 201 0
180 202 0
178 200 0
180 202 0
176 198 0
181 202 0
182 203 0
180 202 0
183 203 0
180 202 0
181 202 0
178 200 0
182 203 0
180 201 0
181 202 0
181 202 0
179 201 0
181 202 0
179 202 0
179 202 0
185 205 0
179 201 0
181 203 0
183 204 0
179 201 0
182 203 0
183 204 0
181 203 0
181 203 0
181 203 0
179 201 0
180 200 0
178 199 15
182 204 0
180 200 38
183 203 0
179 200 0
178 199 0
175 197 25
180 202 0
179 200 0
181 202 38
182 202 38
183 204 38
176 196 25
181 203 0
180 200 0
181 202 0
179 199 56
180 201 0
179 199 0
180 201 0
177 198 0
183 204 38
185 205 56
181 203 80
180 201 0
179 201 0
180 201 38
179 200 38
178 199 0
179 200 38
176 199 0
181 202 0
180 203 0
176 199 0
181 203 0
178 200 0
182 203 0
181 202 0
178 200 0
176 196 0
173 193 0
176 197 0
181 202 0
180 200 0
180 200 0
177 198 0
181 202 0
179 199 0
178 200 0
175 196 0
170 192 0
172 194 0
172 194 0
181 203 0
171 192 0
174 197 0
176 198 0
174 196 0
174 197 0
175 196 0
174 195 0
180 201 0
173 195 0
177 199 0
177 199 0
178 200 0
176 197 0
174 196 0
173 194 0
179 200 0
170 192 0
177 199 0
175 198 0
176 199 0
178 200 0
179 201 0
176 198 0
174 195 0
178 200 0
179 201 0
178 200 0
175 197 0
179 201 0
179 200 0
175 197 0
178 201 0
175 197 0
182 203 0
172 196 0
179 201 0
179 201 0
176 197 0
175 197 0
178 199 0
178 201 0
177 199 0
171 193 0
176 198 0
176 198 0
174 197 0
175 197 0
178 201 0
180 202 0
179 201 0
176 198 0
177 199 0
175 198 0
177 199 0
175 198 0
178 200 0
177 199 0
177 199 0
183 203 0
178 200 0
179 200 0
180 202 0
178 199 0
179 202 0
176 197 0
178 199 0
179 201 0
175 197 0
183 204 0
180 202 0
179 201 0
182 204 0
176 199 0
180 201 0
177 199 0
184 205 0
183 204 0
177 199 0
180 201 0
183 203 0
178 200 0
178 200 0
176 198 0
182 203 0
180 202 0
182 203 0
177 200 0
181 202 0
180 203 0
177 199 0
183 204 0
180 203 0
178 201 0
178 200 0
182 204 0
182 203 0
181 202 0
180 202 0
181 203 0
178 200 0
182 203 0
179 201 0
178 200 0
180 202 0
182 204 0
181 203 0
181 203 0
181 203 0
184 205 0
180 202 0
181 202 0
183 204 0
176 199 0
182 204 0
179 201 0
180 201 0
180 202 0
179 202 0
182 204 0
183 204 0
181 203 0
182 203 0
181 203 0
179 200 0
180 202 0
182 204 0
179 201 0
185 206 0
183 204 0
181 203 0
180 202 0
183 204 0
178 200 0
179 201 0
180 202 0
183 204 0
181 203 0
178 201 0
183 204 0
181 202 0
182 204 0
179 200 0
179 201 0
181 203 0
178 199 0
182 204 0
180 202 0
182 204 0
181 203 0
181 203 0
182 203 0
183 204 0
184 205 0
181 203 0
182 204 0
183 204 0
180 202 0
181 203 0
183 204 0
183 204 0
182 204 0
179 201 0
182 204 0
180 202 0
178 201 0
182 204 0
182 203 0
179 202 0
180 202 0
181 202 0
181 203 0
182 204 0
184 205 0
179 201 0
181 203 0
182 204 0
181 203 0
182 203 0
181 203 0
181 203 0
182 204 0
183 204 0
182 204 0
182 204 0
180 203 0
183 204 0
184 205 0
182 204 0
182 203 0
183 203 0
181 203 0
184 205 0
181 203 0
182 204 0
183 204 0
181 203 0
182 204 0
183 204 0
179 202 0
182 203 0
183 204 0
180 202 0
182 204 0
181 203 0
181 203 0
183 204 0
180 203 0
183 204 0
181 203 0
181 203 0
181 203 0
182 204 0
181 203 0
181 203 0
183 204 0
184 205 0
181 203 0
180 202 0
181 203 0
182 204 0
183 204 0
182 204 0
181 203 0
183 204 0
181 203 0
182 204 0
182 204 0
181 203 0
183 204 0
181 203 0
181 203 0
182 202 0
183 204 0
181 203 0
181 203 0
183 204 0
181 203 0
178 200 0
182 204 0
180 202 0
181 202 0
182 204 0
185 205 0
182 203 0
180 202 0
183 204 0
181 203 0
182 204 0
182 204 0
180 202 0
182 204 0
180 202 0
181 203 0
180 202 0
181 203 0
183 204 0
182 203 0
181 203 0
181 202 0
179 202 0
182 203 0
180 203 0
181 202 0
181 202 0
181 203 0
180 202 0
181 203 0
182 204 0
180 202 0
181 202 0
181 203 0
181 202 0
178 200 0
181 202 0
182 204 0
181 203 0
183 204 0
178 200 0
181 202 0
179 201 0
182 204 0
183 204 0
180 202 0
183 204 0
182 204 0
177 200 0
179 201 0
179 201 0
178 200 0
180 202 0
180 202 0
183 204 0
180 202 0
177 200 0
181 203 0
179 201 0
182 203 0
182 203 0
179 200 0
177 200 0
178 200 0
179 200 0
180 203 0
179 200 0
181 202 0
180 202 0
180 201 0
180 202 0
179 201 0
179 200 0
181 203 0
183 204 0
180 202 0
182 203 0
181 202 0
181 203 0
181 202 0
182 204 0
178 200 0
179 202 0
181 203 0
182 203 0
178 199 0
184 204 0
180 203 0
178 200 0
181 202 0
180 202 0
182 204 0
182 202 0
176 197 0
183 204 0
182 203 0
182 203 0
180 201 0
177 199 0
181 203 0
181 203 0
184 205 0
182 204 0
181 203 0
180 202 0
182 203 0
177 200 0
178 199 0
181 203 0
183 204 0
181 202 0
179 200 0
180 202 0
184 204 0
180 200 0
179 201 0
179 200 0
181 201 0
182 202 0
176 197 0
182 203 56
181 201 0
177 199 0
182 203 38
174 195 0
180 201 38
178 200 0
181 202 0
179 199 38
180 201 0
182 203 0
181 202 56
180 202 0
179 200 0
182 204 0
175 197 0
181 203 38
182 203 0
182 204 0
179 200 0
184 205 0
176 198 0
180 201 0
177 199 0
177 199 0
181 202 0
182 203 0
181 202 0
173 196 0
177 200 0
177 198 0
179 201 0
173 194 0
178 199 0
177 199 0
182 202 0
172 194 0
173 194 0
180 200 0
170 193 0
180 201 0
177 199 0
175 197 0
168 190 0
177 198 0
179 200 0
170 193 0
173 194 0
176 198 0
176 198 0
176 198 0
178 201 0
178 199 0
178 200 0
179 201 0
176 198 0
178 200 0
177 198 0
178 199 0
174 195 0
178 199 0
177 199 0
172 194 0
179 200 0
176 198 0
179 201 0
175 198 0
173 196 0
175 198 0
177 199 0
177 198 0
179 200 0
175 197 0
174 195 0
174 197 0
176 198 0
177 198 0
176 198 0
176 198 0
178 200 0
176 198 0
175 198 0
168 191 0
177 197 0
179 201 0
179 201 0
180 203 0
173 195 0
175 197 0
176 198 0
183 204 0
179 201 0
176 198 0
176 198 0
179 200 0
181 203 0
180 201 0
179 201 0
178 200 0
177 198 0
175 198 0
180 202 0
176 198 0
179 200 0
179 201 0
181 202 0
176 198 0
180 203 0
183 204 0
181 203 0
177 199 0
180 201 0
180 203 0
179 202 0
178 201 0
180 202 0
176 198 0
172 194 0
180 202 0
181 203 0
183 204 0
181 203 0
181 203 0
180 203 0
183 204 0
182 203 0
179 201 0
181 203 0
179 201 0
182 204 0
182 203 0
181 203 0
181 203 0
178 200 0
179 201 0
177 199 0
178 199 0
180 202 0
182 204 0
179 200 0
181 203 0
180 202 0
179 201 0
175 197 0
181 203 0
178 200 0
181 203 0
178 201 0
177 200 0
184 205 0
180 202 0
182 204 0
179 200 0
181 202 0
179 201 0
182 203 0
179 201 0
180 201 0
182 204 0
182 204 0
182 204 0
181 202 0
183 204 0
177 200 0
180 202 0
178 201 0
181 203 0
184 205 0
183 204 0
179 201 0
181 203 0
180 202 0
177 200 0
181 202 0
181 203 0
178 200 0
181 203 0
181 203 0
181 203 0
181 203 0
186 206 0
183 204 0
180 203 0
183 204 0
183 204 0
183 204 0
182 203 0
183 204 0
182 204 0
182 204 0
181 202 0
180 203 0
184 205 0
179 200 0
179 202 0
181 203 0
182 204 0
180 203 0
181 203 0
181 203 0
182 204 0
179 201 0
178 201 0
182 204 0
182 203 0
178 202 0
179 202 0
183 204 0
181 203 0
183 203 0
181 203 0
180 202 0
185 205 0
183 204 0
181 203 0
183 204 0
182 204 0
181 203 0
182 204 0
181 203 0
183 204 0
182 204 0
181 203 0
182 204 0
179 201 0
183 204 0
183 204 0
181 203 0
182 204 0
182 204 0
181 203 0
181 202 0
180 202 0
183 204 0
182 203 0
182 204 0
179 202 0
183 204 0
180 203 0
183 204 0
180 202 0
180 203 0
180 203 0
183 204 0
181 203 0
182 204 0
181 203 0
180 203 0
180 202 0
182 204 0
179 201 0
182 203 0
182 204 0
178 202 0
180 202 0
180 203 0
180 203 0
176 198 0
182 204 0
182 204 0
183 204 0
183 204 0
183 204 0
180 203 0
180 203 0
183 204 0
180 203 0
182 204 0
181 203 0
180 203 0
183 204 0
180 203 0
179 202 0
182 204 0
182 204 0
183 204 0
183 204 0
182 204 0
182 203 0
181 202 0
181 203 0
183 204 0
180 202 0
183 204 0
180 202 0
183 204 0
180 203 0
181 203 0
182 203 0
181 203 0
180 202 0
181 203 0
182 204 0
182 204 0
182 204 0
182 203 0
183 204 0
180 203 0
180 203 0
181 202 0
180 202 0
181 203 0
182 202 0
181 203 0
182 204 0
181 203 0
182 204 0
181 202 0
183 204 0
179 201 0
179 201 0
181 202 0
179 201 0
182 204 0
181 203 0
182 204 0
180 203 0
181 203 0
181 202 0
178 200 0
182 203 0
182 203 0
182 204 0
179 201 0
181 203 0
177 200 0
181 203 0
182 204 0
178 200 0
181 203 0
180 201 0
181 203 0
183 204 0
180 202 0
182 203 0
179 202 0
181 203 0
180 202 0
178 200 0
182 204 0
181 203 0
180 203 0
182 203 0
180 203 0
178 200 0
180 202 0
182 203 0
176 198 0
179 201 0
182 204 0
181 202 0
175 198 0
180 203 0
181 202 0
181 202 0
182 203 0
177 198 0
179 201 0
178 201 0
181 202 0
176 198 0
175 198 0
179 201 0
178 200 0
180 202 0
181 202 0
177 198 0
177 199 0
181 202 0
180 202 0
177 200 0
181 202 0
182 204 0
180 202 0
179 201 0
179 201 0
184 205 0
184 204 0
181 203 0
181 202 0
182 203 0
182 203 0
180 203 0
182 203 0
179 201 0
183 204 0
182 204 0
179 201 0
180 203 0
182 204 0
180 202 0
184 204 0
180 202 0
183 204 0
178 201 0
177 199 0
181 202 0
183 204 0
182 202 25
178 200 0
179 200 0
177 198 25
178 199 0
181 202 0
182 202 38
179 201 0
178 198 0
181 201 38
180 200 0
179 200 0
179 200 38
175 196 0
177 198 38
182 203 38
179 201 0
178 201 0
176 197 0
179 201 0
180 202 0
180 201 0
180 202 0
178 201 0
182 204 0
181 203 0
177 200 0
180 200 0
179 200 0
180 201 0
180 201 0
178 198 0
178 200 0
177 198 0
177 197 0
176 197 0
176 198 0
177 197 0
179 200 0
179 200 0
177 199 0
177 198 0
176 197 0
177 199 0
182 202 0
180 202 0
179 200 0
175 196 0
178 200 0
174 196 0
176 198 0
172 194 0
175 197 0
177 199 0
173 195 0
177 199 0
173 196 0
173 195 0
180 201 0
176 198 0
175 198 0
179 200 0
174 196 0
171 192 0
176 198 0
177 198 0
178 199 0
179 201 0
176 198 0
181 202 0
176 198 0
173 195 0
178 201 0
174 198 0
179 201 0
177 199 0
172 195 0
175 197 0
173 196 0
176 198 0
176 199 0
179 200 0
178 199 0
179 201 0
176 199 0
172 194 0
175 198 0
178 200 0
179 201 0
175 197 0
181 202 0
177 199 0
179 202 0
176 198 0
179 201 0
178 200 0
182 203 0
176 198 0
180 202 0
180 203 0
178 200 0
176 198 0
179 202 0
176 198 0
183 204 0
175 197 0
178 200 0
179 200 0
175 199 0
173 194 0
174 196 0
176 199 0
179 200 0
179 201 0
181 202 0
177 200 0
179 201 0
179 201 0
179 202 0
183 204 0
177 199 0
183 204 0
179 201 0
182 204 0
178 200 0
180 201 0
178 200 0
181 202 0
181 202 0
179 201 0
180 201 0
176 199 0
179 202 0
176 198 0
183 204 0
179 200 0
176 198 0
182 204 0
181 203 0
180 202 0
180 202 0
178 200 0
182 203 0
180 203 0
179 201 0
180 203 0
178 200 0
179 201 0
183 204 0
181 203 0
181 203 0
183 204 0
179 201 0
179 200 0
178 200 0
180 202 0
182 203 0
180 201 0
178 201 0
180 202 0
184 205 0
183 204 0
180 201 0
179 201 0
182 204 0
180 202 0
178 201 0
180 200 0
176 199 0
180 202 0
180 203 0
182 204 0
182 203 0
182 203 0
181 203 0
179 200 0
178 201 0
180 201 0
180 202 0
180 201 0
181 203 0
182 204 0
182 204 0
181 202 0
180 202 0
181 203 0
182 204 0
180 203 0
181 202 0
182 204 0
181 202 0
182 204 0
180 202 0
183 204 0
183 204 0
182 204 0
182 204 0
179 201 0
180 202 0
181 203 0
181 203 0
184 204 0
181 203 0
182 204 0
180 203 0
182 204 0
182 204 0
179 202 0
180 203 0
182 204 0
182 204 0
182 204 0
183 204 0
182 203 0
185 205 0
181 203 0
181 203 0
182 203 0
181 203 0
181 203 0
182 204 0
181 203 0
178 200 0
182 204 0
182 204 0
184 205 0
181 203 0
181 203 0
179 202 0
177 200 0
182 204 0
181 203 0
182 204 0
183 204 0
183 204 0
183 204 0
180 203 0
184 205 0
182 204 0
183 204 0
180 203 0
180 203 0
182 204 0
183 204 0
180 203 0
180 202 0
181 203 0
179 201 0
183 204 0
183 204 0
182 204 0
182 204 0
181 203 0
181 203 0
183 204 0
183 204 0
179 202 0
181 203 0
182 204 0
179 202 0
182 203 0
181 203 0
182 204 0
181 203 0
183 204 0
182 204 0
181 203 0
182 203 0
180 202 0
183 204 0
183 204 0
182 204 0
181 203 0
183 204 0
182 204 0
181 203 0
179 201 0
183 204 0
182 204 0
181 203 0
182 204 0
183 204 0
183 204 0
183 204 0
182 204 0
179 201 0
180 202 0
183 204 0
181 203 0
182 204 0
178 200 0
184 205 0
181 203 0
179 201 0
178 201 0
180 203 0
182 202 0
182 204 0
181 203 0
181 203 0
179 202 0
181 203 0
182 204 0
179 201 0
179 201 0
181 202 0
182 204 0
180 203 0
180 203 0
181 203 0
182 204 0
182 204 0
180 203 0
182 204 0
182 202 0
183 204 0
180 201 0
183 204 0
179 202 0
179 201 0
182 204 0
180 202 0
179 202 0
179 202 0
181 202 0
181 202 0
182 204 0
180 203 0
182 203 0
183 204 0
181 203 0
182 204 0
176 198 0
178 202 0
179 200 0
183 204 0
181 202 0
183 204 0
177 201 0
179 201 0
180 202 0
176 199 0
178 200 0
181 203 0
181 202 0
183 204 0
181 202 0
183 204 0
179 201 0
182 203 0
182 203 0
182 203 0
181 203 0
184 204 0
182 204 0
176 199 0
181 201 0
182 203 0
182 203 0
178 201 0
180 201 0
178 200 0
182 203 0
182 203 0
182 203 0
179 201 0
183 204 0
183 203 0
184 204 0
182 203 0
181 201 0
178 199 0
179 200 0
176 198 0
182 204 0
180 202 0
181 201 0
176 197 0
181 203 0
183 204 0
181 203 0
181 202 0
182 203 0
181 203 0
180 201 0
180 202 0
181 203 0
182 203 0
180 201 0
183 204 0
180 202 0
180 202 0
182 204 0
180 202 0
183 204 0
183 204 0
182 203 0
179 201 0
180 201 0
180 201 25
178 200 0
179 201 0
175 197 0
179 201 0
177 198 0
181 203 0
184 205 38
183 204 56
180 202 38
179 201 0
176 198 0
177 199 38
183 204 0
176 198 0
181 203 0
181 203 0
180 202 0
179 201 0
183 204 0
176 198 0
179 201 0
180 202 0
180 201 0
179 200 0
180 202 0
179 201 0
177 198 0
178 199 0
178 199 0
174 196 0
181 202 0
180 200 0
176 197 0
177 198 0
178 199 0
179 200 0
175 196 0
181 202 0
178 199 0
174 194 0
183 203 0
175 196 0
173 195 0
180 202 0
179 201 0
178 199 0
180 201 0
178 201 0
179 200 0
176 198 0
175 197 0
177 199 0
174 195 0
177 199 0
176 198 0
180 201 0
179 202 0
172 195 0
177 199 0
177 198 0
170 193 0
178 200 0
177 199 0
173 196 0
176 198 0
176 198 0
176 198 0
177 199 0
182 204 0
173 195 0
175 196 0
179 201 0
173 196 0
177 198 0
180 203 0
178 200 0
180 202 0
183 204 0
178 201 0
181 202 0
181 202 0
180 202 0
178 200 0
177 198 0
175 198 0
183 204 0
174 196 0
176 198 0
179 201 0
179 200 0
170 192 0
181 202 0
178 201 0
178 199 0
176 198 0
179 201 0
181 202 0
174 196 0
181 202 0
179 200 0
177 198 0
180 203 0
175 197 0
179 201 0
180 202 0
181 202 0
181 203 0
171 194 0
181 202 0
182 204 0
178 200 0
180 202 0
173 196 0
179 201 0
184 205 0
177 200 0
180 202 0
181 202 0
175 196 0
183 204 0
180 201 0
179 200 0
178 201 0
177 199 0
183 204 0
182 203 0
180 201 0
180 202 0
181 203 0
180 203 0
175 197 0
178 200 0
180 203 0
180 203 0
178 200 0
179 202 0
178 200 0
178 200 0
175 198 0
181 202 0
180 202 0
178 200 0
181 202 0
181 203 0
180 201 0
180 202 0
181 202 0
182 203 0
182 204 0
180 202 0
182 203 0
179 201 0
177 198 0
180 203 0
181 203 0
180 202 0
181 203 0
183 203 0
179 202 0
181 203 0
182 204 0
180 203 0
182 204 0
181 203 0
182 204 0
181 203 0
178 200 0
176 198 0
181 203 0
180 202 0
180 202 0
180 203 0
181 203 0
182 203 0
180 201 0
181 203 0
181 203 0
182 203 0
181 203 0
183 204 0
182 204 0
182 203 0
182 204 0
182 204 0
182 204 0
182 203 0
180 203 0
180 201 0
180 203 0
183 204 0
182 204 0
179 201 0
182 204 0
182 204 0
178 200 0
183 203 0
181 203 0
183 204 0
181 203 0
181 203 0
182 204 0
180 202 0
181 203 0
182 204 0
181 202 0
183 204 0
182 204 0
182 204 0
182 204 0
181 202 0
182 203 0
182 204 0
180 203 0
182 204 0
182 204 0
180 202 0
183 204 0
182 204 0
183 204 0
182 204 0
184 205 0
181 202 0
184 205 0
182 204 0
180 203 0
181 202 0
180 202 0
183 204 0
181 203 0
181 202 0
180 202 0
181 203 0
181 203 0
181 202 0
182 204 0
181 203 0
182 203 0
180 203 0
181 203 0
182 204 0
181 203 0
183 204 0
180 203 0
183 204 0
182 203 0
182 204 0
180 203 0
183 204 0
181 203 0
180 203 0
181 202 0
183 204 0
183 204 0
185 205 0
179 202 0
181 203 0
180 202 0
180 202 0
180 203 0
181 203 0
182 203 0
181 203 0
183 204 0
180 203 0
180 202 0
181 202 0
180 202 0
183 204 0
181 203 0
182 204 0
181 203 0
182 204 0
184 205 0
182 204 0
182 204 0
181 203 0
178 200 0
182 204 0
180 202 0
180 202 0
181 203 0
183 204 0
181 203 0
181 203 0
182 204 0
178 201 0
178 201 0
180 202 0
182 204 0
182 204 0
179 201 0
179 201 0
180 202 0
177 200 0
180 202 0
181 202 0
181 203 0
180 202 0
179 201 0
183 204 0
181 203 0
180 202 0
183 204 0
181 202 0
181 203 0
182 204 0
181 203 0
180 203 0
182 203 0
184 205 0
178 200 0
181 202 0
180 202 0
178 200 0
180 202 0
182 203 0
179 202 0
183 204 0
178 200 0
182 204 0
181 203 0
182 204 0
182 203 0
183 204 0
182 203 0
179 202 0
181 203 0
182 203 0
183 204 0
182 204 0
179 201 0
179 202 0
181 203 0
177 199 0
181 203 0
181 203 0
179 201 0
181 203 0
183 204 0
184 205 0
182 204 0
180 202 0
181 202 0
182 203 0
181 203 0
181 202 0
179 202 0
179 201 0
175 199 0
180 202 0
176 198 0
176 198 0
180 202 0
180 202 0
181 203 0
182 204 0
182 202 0
181 203 0
182 204 0
178 200 0
177 200 0
179 201 0
181 203 0
180 203 0
179 201 0
183 204 0
178 200 0
181 203 0
177 200 0
180 201 0
177 200 0
181 202 0
183 204 0
182 203 0
183 204 0
177 198 0
181 203 0
177 199 0
179 201 0
182 203 0
184 205 0
178 200 0
183 204 0
182 203 0
180 202 0
179 201 0
179 201 0
182 204 0
182 203 0
180 203 0
183 204 0
180 202 0
178 200 0
182 204 0
182 203 0
180 202 0
179 201 0
183 204 0
181 203 0
180 201 0
182 204 0
181 202 0
182 203 0
178 200 0
182 203 0
181 203 0
180 202 0
181 203 0
180 202 0
180 202 0
181 202 0
176 197 0
180 202 0
180 202 0
182 203 0
181 203 0
179 201 0
179 201 0
182 204 0
179 201 0
182 204 0
180 202 0
178 200 0
178 200 0
179 200 0
179 200 0
181 201 0
177 198 0
176 197 0
178 199 0
178 199 0
181 201 0
177 198 0
182 203 0
181 202 0
177 199 0
179 199 0
178 199 0
181 202 0
178 200 0
173 194 0
177 199 0
183 204 0
177 198 0
172 194 0
177 199 0
172 192 0
174 196 0
180 200 0
175 196 0
176 197 0
175 197 0
175 197 0
173 196 0
172 195 0
177 199 0
171 192 0
173 195 0
173 194 0
179 202 0
177 198 0
177 199 0
179 202 0
177 200 0
176 198 0
175 197 0
179 201 0
175 197 0
176 198 0
177 199 0
179 200 0
174 195 0
176 197 0
179 200 0
176 199 0
180 202 0
178 200 0
178 200 0
177 199 0
172 194 0
176 199 0
173 195 0
173 195 0
180 202 0
181 202 0
179 201 0
178 199 0
182 203 0
183 204 0
177 198 0
175 198 0
176 199 0
174 196 0
172 194 0
175 197 0
178 200 0
169 191 0
175 197 0
181 203 0
177 199 0
181 203 0
182 204 0
179 201 0
180 202 0
183 204 0
181 203 0
178 199 0
181 203 0
179 202 0
183 204 0
176 198 0
181 202 0
178 200 0
180 201 0
179 201 0
182 204 0
180 202 0
179 201 0
179 201 0
177 201 0
174 198 0
179 200 0
182 203 0
177 200 0
181 203 0
180 202 0
179 201 0
177 199 0
178 200 0
180 203 0
183 204 0
179 202 0
181 202 0
179 201 0
181 203 0
182 203 0
179 201 0
177 200 0
182 204 0
181 203 0
182 204 0
180 202 0
180 201 0
182 203 0
181 202 0
181 203 0
178 200 0
182 203 0
175 199 0
181 203 0
183 204 0
181 203 0
180 202 0
180 203 0
181 203 0
179 201 0
179 201 0
178 200 0
181 203 0
181 203 0
182 204 0
180 202 0
182 204 0
182 204 0
182 204 0
179 201 0
181 203 0
177 200 0
181 202 0
180 202 0
181 203 0
182 204 0
183 204 0
181 203 0
178 200 0
179 202 0
178 200 0
183 204 0
180 202 0
180 202 0
182 204 0
180 202 0
181 203 0
180 202 0
181 203 0
179 201 0
181 203 0
180 202 0
181 202 0
181 202 0
180 201 0
180 203 0
182 203 0
180 202 0
183 204 0
181 202 0
181 203 0
176 199 0
179 201 0
183 204 0
179 201 0
182 204 0
180 202 0
181 203 0
182 204 0
184 205 0
183 204 0
179 201 0
183 204 0
181 203 0
183 204 0
178 201 0
180 201 0
181 203 0
181 202 0
182 204 0
182 204 0
180 203 0
183 204 0
180 203 0
183 204 0
181 203 0
178 200 0
183 204 0
181 202 0
182 204 0
181 203 0
181 203 0
181 203 0
181 203 0
182 203 0
177 200 0
181 203 0
182 204 0
185 205 0
183 203 0
182 204 0
179 202 0
184 205 0
182 204 0
181 203 0
183 204 0
181 203 0
181 203 0
183 204 0
183 204 0
181 203 0
182 204 0
182 204 0
182 204 0
183 204 0
182 204 0
182 203 0
180 203 0
182 203 0
182 204 0
180 203 0
183 204 0
181 203 0
178 201 0
181 202 0
182 204 0
182 204 0
182 204 0
182 203 0
180 202 0
179 202 0
179 201 0
179 201 0
182 204 0
182 204 0
183 204 0
182 204 0
181 202 0
181 202 0
182 204 0
182 204 0
182 203 0
182 204 0
180 203 0
182 204 0
182 204 0
182 204 0
183 204 0
179 201 0
180 203 0
181 203 0
182 204 0
181 203 0
181 203 0
182 203 0
182 203 0
179 202 0
183 204 0
182 204 0
181 202 0
178 201 0
181 203 0
178 200 0
180 202 0
180 202 0
180 203 0
183 204 0
181 202 0
181 202 0
183 204 0
183 204 0
178 200 0
182 204 0
183 204 0
184 205 0
183 204 0
181 202 0
179 202 0
183 204 0
180 202 0
181 203 0
180 202 0
182 203 0
180 201 0
181 203 0
181 203 0
183 204 0
182 204 0
180 202 0
182 203 0
179 202 0
181 203 0
181 203 0
179 202 0
179 200 0
182 204 0
181 202 0
179 202 0
180 202 0
181 203 0
182 203 0
182 204 0
181 202 0
183 204 0
178 201 0
180 202 0
178 200 0
179 201 0
181 202 0
179 202 0
179 201 0
181 203 0
181 203 0
178 200 0
180 203 0
180 202 0
181 203 0
180 203 0
180 202 0
179 200 0
181 203 0
177 200 0
180 202 0
181 202 0
181 203 0
182 204 0
180 203 0
182 204 0
183 204 0
180 202 0
181 203 0
180 201 0
179 201 0
178 200 0
177 200 0
181 201 0
180 202 0
182 203 0
180 201 0
182 204 0
180 202 0
179 201 0
180 202 0
182 203 0
181 202 0
179 200 0
181 203 0
180 202 0
183 204 0
180 202 0
182 203 0
180 201 0
179 200 0
182 203 0
180 203 0
178 200 0
180 201 0
181 203 0
181 203 0
182 204 0
181 203 0
181 203 0
181 203 0
183 204 0
182 204 0
181 203 0
179 200 0
180 202 0
182 203 0
182 204 0
182 203 0
180 202 0
180 203 0
180 202 0
179 201 0
179 201 0
181 203 0
180 202 0
179 200 0
180 202 0
182 204 0
177 200 0
176 199 0
179 200 0
181 203 0
178 200 0
179 200 0
176 198 0
179 201 0
180 201 0
183 202 0
183 204 0
178 199 0
180 200 0
176 198 0
182 202 0
177 199 0
178 199 0
178 199 0
178 199 0
178 199 0
179 201 0
174 195 0
182 202 0
181 203 0
169 191 0
181 203 0
175 196 0
181 203 0
178 200 0
177 199 0
177 199 0
179 200 0
173 194 0
178 200 0
172 195 0
175 197 0
177 199 0
175 196 0
178 199 0
175 196 0
181 203 0
173 196 0
181 202 0
178 200 0
173 196 0
177 198 0
178 199 0
179 201 0
177 200 0
173 195 0
172 195 0
181 202 0
177 198 0
179 202 0
174 196 0
174 197 0
177 199 0
177 200 0
180 202 0
172 194 0
179 201 0
176 198 0
175 198 0
176 198 0
178 199 0
176 198 0
176 200 0
180 203 0
181 203 0
178 201 0
178 201 0
180 202 0
181 203 0
178 199 0
173 196 0
180 201 0
179 201 0
174 196 0
178 200 0
179 201 0
172 194 0
179 201 0
183 204 0
175 197 0
181 202 0
179 201 0
176 199 0
181 202 0
177 200 0
182 204 0
178 200 0
180 202 0
180 201 0
181 203 0
180 201 0
179 201 0
180 202 0
177 199 0
176 198 0
180 201 0
175 198 0
178 200 0
181 203 0
179 201 0
178 201 0
181 203 0
179 202 0
182 204 0
181 203 0
180 202 0
179 200 0
179 201 0
181 202 0
182 203 0
180 202 0
179 201 0
180 202 0
181 203 0
179 201 0
180 202 0
181 202 0
180 202 0
180 202 0
182 203 0
181 203 0
181 203 0
179 201 0
178 200 0
179 200 0
177 200 0
181 203 0
182 202 0
182 203 0
179 200 0
184 205 0
180 202 0
180 202 0
181 202 0
181 203 0
181 203 0
180 202 0
179 201 0
181 201 0
182 204 0
182 204 0
177 200 0
182 203 0
180 202 0
182 204 0
180 202 0
179 201 0
182 204 0
180 203 0
181 202 0
184 205 0
182 204 0
180 202 0
179 201 0
181 202 0
183 204 0
183 204 0
182 204 0
177 200 0
179 202 0
181 203 0
183 204 0
180 203 0
181 202 0
179 201 0
181 203 0
183 204 0
182 204 0
183 204 0
179 202 0
181 203 0
184 205 0
181 203 0
183 204 0
177 200 0
179 201 0
181 203 0
181 202 0
183 204 0
179 200 0
182 203 0
182 204 0
178 200 0
183 204 0
182 204 0
181 203 0
182 204 0
179 201 0
181 203 0
180 202 0
180 203 0
181 203 0
182 203 0
178 201 0
182 204 0
180 203 0
178 201 0
183 203 0
180 203 0
182 204 0
182 204 0
183 204 0
183 204 0
181 203 0
181 203 0
180 203 0
182 204 0
182 204 0
181 203 0
182 204 0
181 203 0
182 204 0
180 202 0
182 204 0
183 204 0
180 202 0
181 203 0
183 204 0
181 203 0
181 202 0
177 200 0
183 204 0
181 203 0
182 204 0
182 204 0
181 203 0
178 201 0
179 202 0
180 202 0
183 204 0
178 201 0
182 204 0
183 204 0
181 203 0
181 202 0
181 203 0
183 204 0
182 204 0
181 203 0
183 204 0
181 203 0
180 203 0
182 204 0
181 202 0
182 204 0
183 204 0
179 202 0
180 202 0
178 202 0
182 204 0
183 204 0
181 203 0
180 201 0
180 202 0
184 205 0
182 204 0
181 203 0
181 203 0
182 204 0
184 205 0
179 201 0
180 203 0
181 203 0
182 204 0
180 201 0
181 203 0
181 203 0
182 203 0
181 202 0
178 200 0
184 205 0
183 204 0
183 204 0
181 202 0
179 202 0
181 203 0
181 203 0
181 203 0
182 203 0
178 202 0
183 204 0
180 203 0
177 199 0
180 203 0
180 202 0
182 204 0
184 205 0
181 203 0
181 203 0
179 202 0
182 204 0
180 202 0
180 203 0
182 203 0
179 200 0
181 203 0
182 204 0
180 202 0
180 203 0
180 202 0
180 202 0
178 199 0
178 200 0
181 203 0
181 203 0
180 202 0
181 202 0
182 204 0
180 202 0
180 202 0
182 203 0
181 202 0
179 202 0
181 202 0
181 203 0
181 203 0
182 203 0
176 198 0
184 204 0
179 202 0
182 203 0
179 201 0
180 203 0
180 203 0
178 201 0
180 202 0
180 202 0
179 202 0
181 203 0
183 204 0
178 201 0
180 202 0
182 204 0
180 201 0
181 202 0
181 203 0
182 204 0
184 204 0
180 203 0
180 203 0
179 201 0
180 202 0
180 203 0
178 200 0
181 203 0
178 200 0
182 203 0
182 204 0
181 202 0
181 203 0
180 202 0
182 204 0
178 199 0
181 203 0
176 198 0
180 202 0
178 200 0
179 201 0
179 200 0
182 203 0
179 199 0
181 203 0
183 204 0
177 200 0
180 201 0
177 199 0
178 201 0
182 204 0
181 202 0
177 199 0
182 203 0
182 203 0
185 205 0
182 203 0
181 203 0
183 204 0
181 202 0
180 202 0
181 203 0
178 201 0
182 203 0
181 203 0
179 201 0
181 203 0
182 204 0
181 203 0
182 204 0
180 202 0
183 204 0
181 203 0
177 199 0
181 203 0
178 199 0
180 202 0
180 203 0
179 201 0
182 204 0
179 201 0
179 200 0
181 201 0
182 203 0
181 201 0
177 198 0
182 203 0
179 199 0
180 201 0
178 198 0
181 201 0
176 197 0
176 196 0
175 196 0
174 195 0
176 197 0
178 200 0
181 203 0
183 204 0
176 198 0
181 202 0
177 199 0
173 194 0
170 191 0
179 200 0
174 196 0
180 202 0
174 196 0
177 199 0
179 200 0
182 203 0
181 202 0
175 196 0
181 203 0
179 200 0
181 202 0
178 199 0
173 195 0
173 194 0
179 200 0
176 198 0
176 198 0
174 196 0
181 202 0
175 198 0
178 200 0
182 204 0
180 201 0
177 199 0
178 200 0
176 198 0
179 201 0
175 197 0
175 198 0
181 201 0
177 199 0
179 200 0
176 198 0
174 196 0
173 195 0
179 201 0
177 199 0
176 198 0
175 198 0
183 204 0
180 201 0
175 197 0
179 200 0
182 203 0
181 203 0
179 202 0
177 201 0
177 199 0
179 201 0
178 199 0
178 200 0
175 198 0
179 201 0
179 201 0
180 201 0
182 204 0
181 202 0
176 199 0
180 202 0
182 203 0
176 198 0
179 201 0
177 199 0
181 202 0
180 203 0
179 200 0
181 203 0
182 203 0
177 199 0
182 204 0
180 201 0
176 199 0
179 201 0
183 203 0
180 202 0
180 201 0
182 203 0
179 201 0
178 200 0
180 201 0
174 197 0
183 203 0
177 200 0
182 203 0
183 204 0
175 198 0
181 202 0
181 202 0
179 202 0
179 201 0
178 200 0
177 199 0
179 201 0
177 199 0
179 201 0
176 200 0
176 199 0
182 204 0
181 203 0
181 203 0
179 201 0
181 202 0
180 202 0
181 202 0
179 201 0
181 203 0
180 202 0
181 203 0
179 201 0
182 204 0
178 200 0
182 204 0
180 202 0
181 202 0
180 203 0
182 203 0
181 202 0
184 205 0
181 203 0
181 202 0
182 203 0
178 200 0
180 202 0
182 204 0
181 202 0
183 204 0
182 203 0
180 202 0
180 202 0
182 203 0
181 203 0
179 200 0
182 203 0
180 202 0
181 203 0
179 202 0
183 204 0
184 205 0
180 201 0
179 202 0
183 204 0
180 202 0
181 202 0
183 204 0
183 204 0
181 202 0
179 201 0
179 202 0
182 204 0
182 203 0
181 203 0
182 203 0
181 203 0
181 203 0
179 201 0
181 202 0
181 203 0
179 200 0
182 204 0
181 202 0
182 204 0
178 201 0
180 202 0
182 204 0
180 203 0
179 201 0
181 202 0
181 202 0
181 203 0
182 204 0
182 204 0
181 203 0
180 202 0
182 204 0
182 203 0
180 203 0
182 204 0
181 203 0
181 202 0
178 200 0
181 203 0
183 204 0
181 203 0
182 203 0
185 205 0
180 203 0
181 203 0
183 204 0
182 204 0
184 205 0
180 203 0
185 205 0
182 204 0
184 205 0
182 204 0
182 204 0
181 202 0
182 204 0
182 204 0
182 204 0
180 202 0
186 206 0
183 204 0
180 203 0
182 204 0
183 204 0
182 203 0
180 201 0
184 205 0
182 204 0
183 204 0
179 201 0
181 203 0
180 202 0
179 202 0
179 202 0
182 203 0
183 204 0
181 203 0
180 203 0
181 203 0
180 202 0
182 203 0
182 204 0
180 202 0
181 202 0
182 204 0
181 203 0
181 203 0
181 203 0
181 203 0
182 204 0
181 203 0
181 203 0
183 204 0
182 204 0
180 202 0
181 202 0
183 204 0
181 203 0
180 202 0
182 203 0
182 203 0
180 203 0
180 201 0
186 206 0
179 201 0
184 205 0
179 201 0
181 203 0
182 204 0
181 203 0
181 203 0
180 202 0
182 203 0
181 203 0
183 204 0
183 204 0
177 200 0
182 204 0
180 202 0
182 204 0
182 203 0
182 204 0
182 203 0
180 202 0
184 205 0
182 203 0
181 203 0
181 203 0
181 203 0
181 203 0
181 203 0
180 202 0
181 203 0
179 201 0
180 201 0
181 203 0
180 202 0
181 203 0
180 202 0
178 200 0
182 204 0
179 201 0
180 202 0
180 202 0
183 204 0
181 203 0
180 201 0
182 203 0
180 201 0
180 202 0
179 202 0
183 204 0
183 204 0
179 202 0
183 204 0
182 204 0
178 200 0
181 203 0
178 201 0
180 202 0
181 203 0
183 204 0
180 203 0
181 203 0
181 203 0
180 202 0
184 205 0
179 201 0
182 203 0
179 200 0
180 203 0
179 201 0
181 203 0
180 202 0
181 202 0
179 201 0
183 204 0
182 204 0
181 203 0
181 203 0
180 202 0
182 204 0
182 204 0
182 203 0
182 204 0
182 203 0
180 200 0
184 205 0
181 203 0
182 203 0
179 202 0
182 204 0
182 203 0
177 199 0
179 201 0
182 203 0
181 203 0
182 203 0
181 201 0
181 202 0
183 204 0
182 203 0
184 204 0
183 204 0
180 201 0
184 205 0
181 201 0
183 204 0
183 204 0
182 204 0
179 200 0
182 204 0
178 201 0
182 203 0
180 201 0
179 201 0
176 199 0
184 205 0
181 203 0
178 201 0
181 202 0
180 203 0
179 202 0
182 203 0
180 202 0
182 204 0
183 204 0
179 201 0
182 204 0
182 202 0
182 203 0
180 201 0
180 202 0
179 201 0
178 199 0
179 201 0
181 203 0
181 202 0
177 198 0
181 203 0
176 197 0
174 194 0
178 199 0
180 200 0
180 201 0
182 202 0
176 198 0
178 199 0
182 203 0
181 202 0
175 195 0
178 200 0
180 202 0
173 194 0
176 198 0
180 201 0
176 198 0
171 193 0
177 199 0
175 197 0
179 201 0
177 198 0
176 198 0
179 202 0
182 203 0
172 193 0
184 204 0
175 198 0
172 193 0
183 204 0
181 202 0
172 194 0
172 194 0
168 190 0
175 196 0
176 198 0
175 197 0
175 197 0
176 198 0
181 202 0
173 195 0
176 198 0
178 199 0
171 193 0
176 199 0
170 192 0
181 203 0
178 199 0
178 199 0
182 204 0
180 202 0
177 200 0
172 194 0
177 199 0
176 199 0
179 201 0
178 201 0
175 197 0
173 197 0
177 200 0
181 203 0
176 198 0
179 201 0
176 198 0
179 200 0
179 201 0
181 202 0
179 201 0
176 199 0
172 195 0
180 202 0
178 200 0
175 198 0
177 199 0
181 203 0
177 199 0
180 203 0
177 199 0
179 201 0
178 200 0
179 200 0
179 202 0
179 200 0
182 203 0
180 202 0
182 204 0
176 198 0
180 200 0
178 201 0
178 200 0
179 200 0
175 198 0
182 204 0
178 200 0
178 199 0
179 200 0
183 203 0
179 202 0
181 202 0
178 200 0
179 202 0
180 202 0
181 203 0
179 202 0
185 205 0
179 201 0
181 203 0
178 200 0
177 200 0
179 201 0
183 204 0
179 202 0
181 203 0
176 198 0
180 202 0
184 205 0
178 200 0
178 201 0
179 202 0
183 204 0
182 203 0
181 202 0
179 201 0
181 202 0
179 201 0
179 201 0
177 199 0
179 201 0
179 201 0
182 204 0
184 205 0
177 200 0
180 202 0
180 202 0
179 201 0
181 203 0
181 203 0
180 202 0
179 201 0
181 203 0
178 200 0
180 203 0
181 203 0
180 203 0
183 204 0
181 203 0
183 204 0
181 203 0
180 202 0
183 204 0
179 201 0
175 198 0
182 204 0
181 203 0
177 200 0
182 204 0
182 203 0
181 203 0
181 203 0
183 204 0
181 203 0
180 202 0
180 201 0
181 203 0
181 203 0
180 203 0
181 203 0
180 202 0
181 203 0
179 201 0
183 204 0
180 201 0
180 203 0
181 203 0
182 204 0
182 204 0
184 205 0
180 202 0
183 204 0
182 203 0
182 203 0
180 202 0
180 202 0
180 203 0
183 204 0
180 202 0
182 204 0
183 204 0
182 204 0
182 204 0
183 204 0
181 203 0
181 203 0
179 202 0
181 203 0
183 204 0
180 203 0
179 202 0
180 202 0
180 202 0
181 203 0
181 203 0
181 203 0
182 204 0
185 205 0
180 203 0
181 203 0
180 203 0
180 202 0
180 203 0
182 204 0
182 204 0
183 204 0
182 204 0
179 202 0
180 203 0
184 205 0
181 202 0
181 203 0
182 204 0
182 204 0
182 204 0
180 202 0
181 202 0
184 205 0
175 198 0
181 203 0
181 202 0
183 204 0
182 203 0
182 204 0
184 205 0
183 204 0
179 202 0
180 202 0
181 203 0
182 204 0
182 203 0
181 203 0
183 204 0
183 204 0
177 200 0
183 204 0
181 203 0
181 203 0
177 200 0
182 204 0
180 203 0
182 204 0
183 204 0
182 204 0
182 204 0
180 203 0
182 203 0
181 203 0
181 203 0
185 205 0
182 203 0
183 204 0
181 203 0
182 203 0
180 203 0
180 203 0
182 204 0
182 204 0
181 202 0
181 203 0
182 204 0
181 203 0
179 201 0
181 203 0
181 203 0
180 202 0
180 203 0
184 204 0
180 202 0
182 204 0
182 204 0
182 204 0
182 204 0
181 203 0
181 203 0
181 203 0
183 204 0
182 203 0
181 203 0
183 204 0
183 204 0
181 202 0
180 203 0
183 204 0
180 203 0
182 204 0
181 203 0
182 203 0
180 202 0
181 203 0
182 204 0
179 201 0
181 203 0
181 203 0
181 203 0
181 203 0
182 204 0
179 201 0
183 204 0
182 204 0
181 203 0
180 203 0
182 204 0
182 204 0
182 204 0
177 200 0
181 203 0
185 205 0
180 203 0
178 200 0
181 203 0
182 203 0
183 204 0
179 201 0
184 204 0
183 204 0
179 201 0
181 203 0
181 203 0
178 201 0
180 202 0
180 201 0
182 204 0
178 200 0
178 201 0
181 203 0
180 202 0
182 203 0
179 200 0
179 201 0
182 204 0
181 203 0
182 203 0
183 204 0
181 203 0
181 203 0
181 203 0
181 202 0
178 200 0
182 204 0
178 200 0
182 204 0
180 201 0
181 202 0
180 202 0
180 201 0
181 202 0
181 203 0
182 203 0
181 202 0
181 202 0
179 201 0
181 202 0
178 200 0
178 199 0
181 203 0
181 203 0
180 201 0
182 203 0
183 204 0
179 200 0
180 202 0
180 202 0
181 202 0
180 202 0
180 202 0
180 201 0
181 202 0
182 203 0
177 198 0
178 200 0
181 202 0
180 201 0
183 204 0
182 203 0
182 203 0
182 203 0
180 202 0
182 204 0
178 200 0
182 203 0
180 202 0
181 203 0
183 204 0
179 200 0
178 200 0
184 204 0
182 203 0
180 201 0
179 200 0
177 198 0
181 201 0
178 199 0
178 200 0
182 202 0
180 200 0
176 198 0
181 202 0
176 197 0
176 198 0
176 197 0
179 200 0
182 203 0
175 197 0
174 196 0
179 200 0
180 201 0
177 199 0
178 199 0
181 203 0
179 200 0
178 200 0
177 200 0
177 198 0
173 195 0
180 201 0
177 200 0
178 200 0
180 201 0
181 202 0
173 196 0
175 197 0
175 197 0
180 202 0
178 200 0
175 196 0
178 199 0
174 196 0
174 196 0
178 200 0
177 200 0
179 200 0
180 202 0
173 196 0
173 195 0
181 203 0
179 201 0
176 198 0
181 203 0
179 201 0
177 200 0
181 203 0
180 202 0
178 200 0
177 200 0
178 201 0
178 201 0
174 196 0
179 201 0
179 201 0
169 192 0
175 197 0
182 203 0
180 202 0
179 201 0
179 201 0
178 200 0
178 200 0
175 197 0
180 202 0
179 201 0
183 204 0
173 195 0
176 198 0
177 200 0
178 200 0
176 199 0
181 203 0
174 195 0
178 199 0
179 201 0
178 201 0
178 200 0
181 202 0
181 203 0
176 198 0
182 203 0
180 201 0
179 201 0
175 199 0
175 198 0
178 200 0
179 201 0
176 198 0
179 201 0
182 203 0
180 202 0
180 202 0
179 201 0
184 205 0
180 203 0
178 200 0
180 203 0
179 201 0
176 199 0
177 200 0
177 200 0
179 202 0
181 203 0
181 203 0
180 202 0
180 201 0
180 202 0
182 204 0
179 200 0
178 200 0
181 203 0
179 201 0
179 200 0
181 203 0
178 201 0
178 201 0
180 202 0
181 202 0
183 204 0
181 203 0
178 200 0
181 202 0
181 202 0
179 201 0
178 200 0
179 201 0
180 202 0
177 199 0
181 202 0
182 204 0
182 203 0
181 203 0
181 202 0
182 204 0
181 203 0
181 203 0
180 202 0
181 203 0
179 202 0
181 203 0
179 202 0
181 202 0
182 204 0
183 204 0
180 201 0
179 202 0
183 204 0
180 203 0
183 204 0
182 203 0
181 203 0
179 201 0
181 203 0
180 203 0
179 202 0
180 203 0
183 204 0
181 202 0
182 204 0
184 205 0
181 203 0
183 204 0
181 202 0
181 203 0
180 203 0
180 203 0
180 203 0
181 202 0
181 202 0
179 201 0
181 203 0
184 205 0
182 204 0
180 203 0
180 202 0
182 204 0
177 199 0
179 202 0
180 202 0
181 203 0
182 204 0
181 203 0
180 202 0
181 203 0
182 203 0
178 202 0
183 204 0
180 203 0
181 202 0
181 203 0
180 203 0
181 203 0
182 204 0
181 202 0
183 204 0
182 204 0
182 204 0
181 203 0
179 202 0
184 205 0
181 203 0
183 204 0
182 204 0
181 203 0
182 204 0
182 204 0
182 204 0
181 203 0
181 203 0
183 204 0
179 201 0
181 202 0
180 202 0
181 203 0
181 203 0
183 204 0
184 204 0
181 202 0
182 204 0
182 204 0
181 203 0
181 203 0
180 203 0
180 203 0
182 204 0
181 203 0
181 202 0
183 204 0
181 203 0
183 204 0
181 203 0
181 203 0
181 203 0
182 204 0
183 203 0
184 205 0
178 202 0
182 204 0
181 203 0
178 199 0
179 201 0
181 203 0
182 204 0
181 203 0
184 205 0
181 203 0
181 203 0
180 202 0
182 204 0
182 204 0
181 202 0
180 202 0
181 203 0
182 204 0
181 203 0
181 203 0
182 204 0
180 202 0
182 203 0
180 203 0
181 203 0
181 203 0
182 204 0
183 204 0
179 201 0
182 204 0
180 202 0
182 204 0
180 202 0
182 204 0
182 204 0
182 204 0
180 203 0
182 204 0
181 203 0
181 202 0
180 203 0
178 200 0
178 200 0
182 203 0
180 202 0
178 201 0
181 202 0
183 204 0
183 204 0
184 205 0
181 202 0
182 204 0
182 202 0
180 203 0
182 203 0
183 204 0
179 201 0
180 202 0
181 203 0
182 204 0
180 202 0
182 204 0
183 204 0
180 203 0
179 201 0
180 202 0
182 204 0
184 205 0
179 201 0
180 202 0
182 204 0
181 203 0
178 201 0
182 204 0
178 200 0
182 204 0
181 202 0
179 201 0
181 202 0
178 201 0
181 203 0
180 203 0
179 202 0
178 201 0
179 200 0
180 202 0
180 203 0
181 202 0
179 200 0
177 199 0
182 203 0
179 201 0
177 200 0
177 200 0
181 203 0
179 201 0
180 202 0
180 203 0
181 202 0
180 202 0
182 204 0
179 200 0
183 204 0
179 201 0
178 200 0
182 203 0
177 199 0
179 201 0
178 200 0
178 200 0
179 200 0
180 201 0
180 202 0
183 204 0
182 203 0
183 204 0
181 202 0
183 204 0
178 199 0
178 199 0
181 201 0
180 201 0
177 199 0
180 200 0
180 201 0
179 200 0
174 196 0
182 202 0
182 203 0
175 197 0
182 202 0
181 203 0
182 203 0
181 203 0
180 202 0
179 201 0
179 201 0
179 201 0
181 203 0
181 202 0
181 203 0
182 203 0
179 201 0
179 201 0
182 203 0
178 201 0
179 201 0
185 205 0
179 200 0
176 199 0
179 201 0
181 202 0
175 197 0
179 200 0
180 201 0
181 202 0
178 200 0
180 201 0
178 198 0
182 203 0
183 203 0
180 201 0
177 197 0
179 200 0
177 198 0
178 199 0
178 199 0
178 199 0
181 203 0
180 202 0
181 202 0
180 202 0
176 198 0
176 197 0
177 198 0
177 198 0
173 195 0
175 197 0
181 202 0
176 198 0
180 202 0
173 195 0
174 196 0
179 200 0
177 199 0
179 200 0
179 201 0
176 197 0
178 200 0
181 202 0
176 198 0
178 200 0
173 195 0
178 201 0
174 196 0
182 203 0
174 197 0
177 200 0
177 199 0
172 193 0
179 201 0
176 198 0
178 201 0
175 198 0
177 198 0
178 200 0
179 201 0
175 196 0
181 201 0
176 198 0
173 196 0
178 199 0
180 202 0
175 197 0
177 198 0
181 201 0
178 199 0
175 197 0
182 203 0
180 202 0
178 199 0
176 198 0
173 195 0
178 199 0
179 200 0
179 202 0
177 200 0
177 200 0
185 205 0
179 201 0
181 202 0
178 200 0
181 203 0
175 198 0
182 204 0
177 200 0
178 200 0
181 202 0
181 203 0
178 201 0
180 202 0
178 200 0
177 199 0
180 202 0
177 199 0
179 202 0
177 199 0
182 204 0
179 201 0
179 202 0
181 202 0
178 201 0
177 200 0
182 204 0
175 197 0
177 200 0
181 202 0
177 198 0
183 204 0
176 199 0
179 200 0
182 204 0
179 201 0
181 203 0
179 202 0
178 201 0
180 201 0
182 203 0
184 205 0
180 202 0
183 204 0
183 204 0
181 202 0
180 202 0
176 198 0
181 202 0
182 204 0
179 201 0
180 202 0
180 202 0
182 204 0
180 202 0
178 200 0
181 202 0
179 202 0
177 200 0
180 202 0
180 201 0
179 201 0
181 203 0
181 203 0
181 202 0
181 202 0
181 203 0
182 203 0
181 203 0
181 203 0
183 204 0
182 204 0
178 201 0
183 204 0
182 204 0
181 203 0
185 205 0
181 203 0
177 199 0
180 203 0
178 200 0
180 203 0
179 202 0
182 204 0
182 204 0
182 203 0
178 200 0
184 205 0
184 205 0
178 200 0
180 202 0
183 204 0
181 203 0
180 203 0
180 203 0
182 204 0
181 203 0
180 203 0
180 203 0
183 204 0
180 203 0
183 204 0
180 202 0
183 204 0
181 203 0
181 203 0
183 204 0
181 203 0
181 203 0
182 204 0
183 204 0
182 203 0
182 204 0
182 204 0
180 202 0
183 204 0
183 203 0
181 202 0
182 203 0
182 204 0
181 203 0
182 204 0
181 203 0
180 201 0
183 204 0
182 204 0
182 204 0
182 204 0
183 204 0
179 201 0
184 205 0
182 204 0
182 204 0
182 204 0
181 202 0
182 204 0
180 202 0
181 203 0
182 204 0
179 201 0
181 202 0
182 204 0
182 204 0
181 203 0
182 203 0
182 204 0
181 203 0
182 204 0
181 203 0
181 203 0
181 203 0
184 205 0
182 204 0
182 204 0
185 205 0
180 203 0
182 204 0
181 203 0
181 203 0
182 203 0
179 201 0
178 201 0
182 204 0
178 201 0
183 204 0
182 204 0
181 203 0
183 204 0
181 203 0
180 202 0
181 202 0
179 201 0
181 203 0
182 204 0
181 203 0
180 202 0
181 203 0
182 204 0
181 202 0
181 203 0
183 204 0
182 203 0
182 204 0
183 204 0
179 202 0
185 205 0
181 203 0
181 203 0
181 202 0
182 204 0
179 201 0
180 203 0
183 204 0
181 203 0
183 204 0
182 204 0
181 202 0
179 201 0
181 203 0
179 202 0
181 202 0
180 203 0
184 205 0
180 202 0
181 203 0
178 200 0
181 202 0
182 204 0
179 202 0
182 204 0
181 202 0
181 203 0
182 204 0
180 202 0
181 203 0
178 200 0
183 204 0
180 203 0
182 203 0
181 203 0
182 204 0
183 204 0
185 205 0
183 204 0
183 204 0
183 204 0
179 201 0
181 203 0
177 200 0
181 202 0
181 202 0
180 201 0
181 202 0
180 202 0
183 204 0
180 202 0
181 202 0
182 203 0
179 202 0
180 202 0
180 202 0
182 204 0
182 203 0
180 201 0
183 204 0
182 204 0
180 202 0
177 200 0
182 204 0
181 203 0
184 205 0
180 201 0
181 203 0
180 203 0
179 201 0
181 203 0
181 203 0
182 203 0
181 203 0
179 202 0
182 203 0
181 203 0
181 203 0
178 201 0
183 204 0
185 205 0
178 201 0
179 201 0
181 202 0
183 204 0
180 202 0
181 202 0
184 205 0
181 203 0
178 200 0
181 203 0
184 204 0
178 201 0
176 197 0
184 204 0
181 202 0
177 199 0
183 204 0
181 203 0
182 204 0
183 204 0
181 202 0
177 199 0
179 200 0
176 198 0
180 202 0
178 200 0
179 201 0
179 201 0
178 199 0
179 200 0
180 201 0
179 200 0
178 200 0
181 202 0
184 204 0
181 202 0
178 199 0
178 199 0
178 199 0
182 203 0
181 202 0
180 202 0
182 204 0
179 199 0
183 204 0
178 199 0
183 203 0
181 203 0
181 202 0
181 202 0
183 204 0
182 203 0
181 202 0
181 202 0
183 204 0
180 201 0
176 197 0
181 202 0
182 203 0
178 199 0
181 201 0
179 200 0
182 203 0
181 202 0
182 204 0
183 204 0
179 200 0
182 202 0
182 202 0
179 201 0
175 196 0
178 200 0
180 202 0
183 204 0
177 199 0
174 195 0
178 199 0
173 195 0
179 201 0
180 202 0
178 199 0
177 199 0
179 201 0
173 194 0
179 201 0
176 198 0
177 199 0
179 202 0
174 196 0
180 203 0
174 196 0
176 199 0
177 199 0
179 201 0
178 200 0
179 200 0
183 203 0
179 201 0
178 200 0
177 198 0
179 200 0
176 199 0
171 194 0
176 198 0
177 199 0
177 199 0
180 200 0
176 198 0
179 201 0
179 201 0
178 199 0
175 198 0
178 200 0
174 195 0
177 199 0
179 201 0
176 199 0
183 204 0
177 199 0
173 195 0
169 192 0
176 198 0
179 200 0
174 197 0
178 200 0
177 200 0
181 202 0
176 199 0
177 199 0
177 199 0
177 199 0
177 199 0
178 201 0
180 202 0
179 202 0
180 202 0
177 201 0
179 202 0
176 198 0
177 200 0
178 201 0
178 200 0
175 198 0
177 200 0
180 202 0
181 202 0
180 202 0
183 204 0
180 202 0
177 200 0
180 203 0
180 202 0
179 201 0
180 202 0
177 199 0
178 200 0
180 201 0
180 202 0
176 199 0
178 200 0
181 203 0
175 197 0
180 202 0
171 193 0
178 200 0
177 199 0
178 200 0
175 197 0
178 200 0
181 203 0
180 202 0
176 198 0
180 203 0
181 203 0
180 202 0
183 204 0
180 202 0
179 202 0
178 201 0
180 202 0
178 200 0
178 201 0
179 201 0
182 203 0
182 203 0
181 203 0
181 203 0
182 204 0
180 202 0
182 204 0
183 204 0
175 196 0
182 204 0
179 202 0
183 204 0
183 204 0
178 200 0
183 204 0
181 203 0
178 200 0
182 203 0
180 202 0
180 203 0
180 202 0
181 203 0
181 203 0
180 202 0
182 203 0
181 203 0
183 204 0
179 201 0
180 202 0
181 203 0
181 202 0
180 202 0
181 203 0
182 204 0
184 205 0
183 204 0
183 204 0
177 199 0
180 202 0
183 204 0
181 203 0
183 204 0
182 203 0
180 203 0
181 203 0
179 202 0
181 203 0
183 204 0
181 203 0
182 204 0
180 202 0
181 203 0
181 203 0
182 204 0
179 202 0
182 204 0
181 202 0
184 204 0
182 203 0
181 203 0
183 204 0
182 204 0
180 203 0
183 204 0
179 202 0
181 203 0
181 203 0
181 203 0
178 199 0
182 204 0
181 203 0
180 203 0
182 204 0
180 202 0
185 205 0
181 202 0
182 204 0
180 203 0
182 203 0
181 203 0
180 203 0
179 201 0
181 203 0
180 203 0
184 205 0
182 203 0
183 204 0
180 202 0
179 201 0
180 203 0
182 203 0
179 202 0
182 204 0
181 202 0
181 203 0
181 203 0
182 204 0
183 204 0
183 204 0
184 205 0
179 201 0
182 204 0
178 201 0
182 203 0
180 202 0
184 205 0
182 204 0
178 201 0
182 204 0
182 204 0
180 203 0
180 202 0
181 203 0
183 204 0
181 202 0
182 204 0
181 202 0
181 203 0
183 204 0
182 204 0
181 203 0
181 203 0
183 204 0
179 202 0
178 200 0
181 203 0
182 204 0
182 204 0
178 200 0
181 203 0
179 202 0
179 201 0
181 203 0
182 204 0
180 202 0
183 204 0
179 202 0
183 203 0
183 204 0
184 205 0
180 202 0
181 202 0
179 202 0
182 204 0
181 203 0
183 204 0
181 203 0
179 201 0
181 203 0
181 203 0
183 204 0
182 204 0
184 204 0
182 203 0
182 203 0
179 202 0
183 204 0
183 203 0
182 204 0
180 203 0
182 204 0
181 202 0
179 201 0
182 204 0
181 202 0
182 204 0
185 205 0
182 203 0
183 204 0
183 204 0
182 204 0
181 203 0
182 203 0
178 200 0
184 205 0
181 203 0
183 204 0
180 202 0
178 201 0
183 204 0
182 204 0
180 203 0
178 201 0
181 202 0
180 202 0
179 202 0
181 203 0
178 200 0
182 203 0
182 203 0
181 203 0
182 204 0
180 202 0
181 202 0
182 204 0
182 204 0
182 204 0
182 204 0
182 204 0
177 200 0
181 203 0
181 202 0
182 203 0
182 202 0
181 202 0
180 202 0
180 202 0
185 205 0
179 201 0
179 202 0
182 202 0
180 202 0
181 203 0
179 201 0
181 202 0
182 203 0
179 202 0
182 204 0
179 201 0
174 197 0
181 203 0
182 203 0
180 203 0
181 203 0
181 203 0
181 202 0
177 199 0
178 201 0
180 203 0
179 201 0
180 202 0
180 202 0
180 201 0
180 201 0
178 201 0
178 201 0
181 202 0
180 202 0
181 202 0
182 204 0
179 201 0
182 203 0
179 200 0
184 205 0
178 200 0
183 204 0
178 199 0
182 203 0
181 202 0
178 199 0
182 203 0
183 203 0
174 196 0
176 198 0
181 202 0
177 199 0
181 202 0
180 201 0
182 203 0
181 201 0
182 204 0
180 202 0
182 202 0
181 203 0
177 198 0
181 202 0
178 199 0
185 205 0
182 203 0
184 204 0
182 202 0
178 199 0
182 202 0
181 203 0
182 203 0
181 202 0
178 200 0
177 198 0
178 200 0
178 199 0
179 201 0
179 200 0
182 202 0
181 201 0
176 197 0
179 200 0
180 201 0
178 199 0
177 197 0
180 201 0
179 201 0
177 200 0
182 203 0
176 198 0
180 202 0
179 201 0
178 200 0
180 201 0
176 197 0
175 196 0
176 198 0
181 202 0
173 196 0
179 200 0
178 198 0
178 199 0
177 199 0
174 196 0
178 201 0
177 199 0
179 201 0
179 200 0
176 198 0
175 197 0
180 202 0
180 201 0
174 197 0
181 203 0
180 201 0
180 201 0
174 197 0
179 200 0
181 202 0
177 199 0
168 190 0
177 199 0
177 199 0
180 203 0
180 202 0
178 200 0
173 196 0
177 199 0
174 196 0
175 197 0
181 201 0
180 202 0
177 198 0
179 200 0
176 198 0
177 199 0
177 199 0
179 201 0
176 198 0
178 200 0
178 200 0
177 200 0
173 196 0
180 201 0
179 200 0
174 196 0
179 201 0
179 200 0
180 201 0
178 201 0
184 204 0
179 201 0
180 201 0
178 200 0
179 201 0
180 203 0
179 201 0
179 200 0
176 198 0
180 202 0
182 203 0
183 204 0
178 200 0
178 200 0
174 196 0
178 201 0
176 199 0
178 200 0
182 204 0
177 199 0
180 201 0
184 205 0
182 204 0
179 202 0
176 198 0
181 202 0
174 197 0
178 201 0
179 201 0
179 201 0
177 199 0
178 201 0
181 203 0
179 201 0
179 201 0
180 202 0
179 202 0
182 204 0
177 200 0
181 202 0
179 201 0
179 201 0
184 205 0
180 202 0
179 201 0
180 202 0
175 198 0
179 201 0
182 204 0
180 202 0
180 202 0
180 203 0
184 205 0
182 204 0
178 200 0
177 199 0
181 202 0
176 198 0
181 203 0
174 197 0
180 203 0
181 203 0
182 204 0
181 202 0
180 202 0
179 201 0
183 204 0
182 204 0
181 203 0
182 203 0
181 203 0
183 204 0
185 205 0
177 199 0
180 202 0
180 202 0
182 203 0
183 204 0
182 203 0
181 202 0
181 203 0
180 202 0
182 203 0
181 203 0
181 203 0
183 204 0
183 204 0
179 202 0
180 202 0
180 201 0
180 202 0
182 204 0
178 201 0
179 202 0
179 202 0
181 202 0
180 202 0
182 203 0
184 205 0
181 203 0
182 204 0
179 201 0
182 204 0
182 203 0
182 203 0
182 204 0
181 202 0
180 203 0
182 204 0
181 203 0
181 203 0
181 203 0
178 201 0
182 204 0
180 203 0
181 203 0
183 204 0
181 203 0
179 201 0
182 203 0
181 203 0
181 203 0
180 203 0
181 203 0
185 205 0
182 204 0
179 201 0
183 204 0
181 203 0
181 203 0
185 205 0
180 203 0
180 202 0
181 203 0
183 204 0
183 204 0
180 203 0
181 203 0
181 202 0
182 204 0
182 204 0
181 203 0
182 203 0
179 201 0
181 203 0
180 202 0
182 204 0
182 204 0
180 203 0
182 204 0
183 204 0
181 203 0
183 204 0
183 204 0
181 203 0
180 202 0
181 203 0
180 203 0
181 203 0
181 203 0
180 202 0
184 205 0
181 203 0
182 204 0
182 204 0
182 204 0
181 203 0
179 201 0
180 202 0
183 204 0
181 202 0
180 202 0
180 202 0
181 203 0
179 202 0
180 203 0
182 204 0
182 204 0
182 203 0
181 203 0
183 204 0
179 201 0
185 205 0
180 203 0
181 203 0
184 205 0
181 203 0
180 202 0
183 204 0
183 204 0
184 205 0
180 203 0
183 204 0
180 203 0
180 202 0
181 202 0
178 200 0
178 201 0
182 204 0
178 200 0
182 204 0
182 204 0
181 203 0
181 203 0
176 199 0
183 204 0
182 204 0
181 203 0
181 203 0
182 204 0
182 204 0
181 203 0
180 202 0
181 202 0
180 202 0
178 200 0
182 204 0
183 204 0
180 203 0
183 204 0
181 203 0
181 203 0
182 204 0
179 201 0
182 204 0
181 203 0
181 203 0
182 204 0
180 202 0
179 201 0
182 204 0
181 202 0
182 203 0
180 202 0
180 202 0
176 198 0
180 202 0
179 201 0
182 204 0
180 202 0
180 202 0
182 204 0
184 205 0
181 203 0
180 202 0
180 201 0
181 203 0
181 203 0
177 199 0
181 203 0
179 202 0
180 202 0
181 202 0
182 203 0
177 200 0
178 201 0
181 202 0
178 199 0
179 200 0
180 202 0
181 203 0
181 202 0
182 204 0
180 202 0
181 203 0
177 200 0
181 202 0
180 201 0
178 199 0
180 201 0
180 201 0
182 203 0
182 204 0
177 199 0
180 201 0
181 203 0
183 204 0
177 199 0
179 201 0
179 200 0
176 198 0
178 201 0
181 203 0
179 201 0
182 203 0
180 202 0
180 201 0
179 201 0
180 201 0
182 203 0
180 201 0
178 199 0
176 198 0
181 202 0
183 203 0
183 204 0
177 199 0
182 203 0
180 202 0
182 202 0
175 196 0
181 201 0
181 202 0
175 197 0
179 199 0
180 202 0
183 204 0
183 203 0
180 199 0
180 202 0
182 203 0
181 201 0
182 202 0
182 202 0
184 205 0
178 200 0
179 200 0
179 199 0
176 197 0
182 203 0
182 204 0
182 203 0
182 203 0
181 203 0
183 204 0
177 198 0
180 201 0
182 203 0
181 202 0
182 203 0
180 202 0
177 197 0
180 202 0
180 201 0
184 205 0
183 204 0
181 202 0
178 199 0
176 197 0
175 197 0
175 196 0
181 203 0
181 203 0
174 194 0
181 202 0
177 199 0
179 201 0
176 198 0
179 199 0
177 198 0
176 199 0
177 198 0
175 197 0
179 201 0
177 198 0
176 197 0
173 196 0
175 197 0
179 200 0
180 201 0
176 199 0
175 198 0
177 198 0
178 200 0
174 196 0
176 198 0
180 201 0
181 203 0
179 200 0
178 199 0
178 199 0
180 202 0
174 196 0
178 200 0
177 199 0
179 202 0
181 202 0
179 201 0
180 202 0
183 204 0
179 201 0
174 196 0
179 201 0
177 200 0
176 198 0
179 201 0
177 199 0
180 202 0
176 199 0
180 202 0
180 202 0
179 201 0
177 200 0
179 201 0
177 199 0
177 199 0
177 200 0
182 204 0
176 199 0
179 201 0
178 200 0
176 198 0
176 197 0
178 200 0
180 202 0
175 197 0
179 201 0
182 203 0
182 204 0
174 195 0
178 199 0
177 199 0
181 203 0
179 201 0
182 203 0
179 200 0
184 205 0
181 203 0
180 202 0
179 201 0
175 197 0
182 204 0
182 204 0
179 201 0
181 202 0
182 204 0
181 202 0
178 201 0
179 201 0
179 201 0
179 202 0
180 202 0
179 201 0
181 203 0
179 201 0
180 202 0
182 204 0
180 202 0
180 203 0
179 201 0
181 202 0
177 200 0
183 204 0
181 203 0
181 203 0
181 203 0
181 202 0
180 202 0
182 204 0
180 202 0
177 199 0
184 205 0
179 202 0
181 203 0
180 202 0
182 204 0
179 201 0
183 204 0
180 202 0
181 202 0
182 203 0
181 203 0
181 203 0
181 202 0
181 202 0
184 204 0
178 200 0
178 201 0
180 202 0
180 202 0
182 203 0
179 202 0
178 200 0
179 202 0
179 201 0
181 203 0
182 204 0
180 203 0
183 204 0
182 204 0
180 202 0
179 201 0
182 204 0
180 202 0
181 203 0
179 202 0
184 205 0
182 203 0
182 204 0
177 200 0
183 204 0
183 204 0
182 204 0
181 203 0
181 203 0
181 202 0
182 204 0
181 203 0
182 204 0
180 202 0
180 203 0
180 201 0
182 204 0
181 203 0
181 203 0
181 203 0
180 203 0
181 203 0
181 203 0
182 203 0
182 203 0
183 204 0
179 202 0
178 201 0
182 203 0
181 202 0
183 204 0
182 204 0
182 204 0
181 202 0
184 205 0
183 204 0
181 203 0
183 204 0
181 203 0
183 204 0
182 204 0
181 203 0
180 202 0
182 204 0
180 202 0
180 203 0
180 203 0
178 200 0
180 202 0
183 204 0
179 202 0
182 204 0
181 203 0
181 203 0
183 204 0
180 203 0
181 203 0
181 203 0
182 204 0
182 204 0
180 203 0
183 204 0
184 205 0
180 201 0
181 203 0
182 204 0
181 203 0
181 203 0
183 204 0
182 204 0
181 203 0
183 204 0
181 203 0
184 205 0
183 203 0
182 204 0
180 203 0
182 203 0
181 203 0
181 203 0
181 203 0
182 204 0
183 204 0
182 204 0
178 201 0
182 204 0
183 204 0
183 204 0
185 205 0
177 200 0
180 202 0
183 204 0
182 204 0
182 204 0
181 203 0
183 204 0
183 204 0
181 203 0
182 203 0
182 204 0
181 203 0
184 205 0
182 203 0
182 204 0
181 203 0
183 203 0
183 204 0
181 203 0
180 202 0
182 203 0
183 204 0
182 204 0
180 202 0
182 203 0
182 204 0
182 204 0
183 204 0
177 200 0
178 200 0
182 204 0
182 204 0
180 202 0
182 204 0
179 200 0
178 200 0
182 204 0
182 204 0
181 203 0
182 204 0
181 203 0
183 204 0
181 203 0
181 202 0
183 204 0
180 203 0
182 204 0
184 204 0
183 204 0
181 203 0
182 203 0
181 202 0
181 202 0
181 203 0
180 203 0
180 202 0
180 201 0
184 205 0
181 203 0
182 204 0
180 202 0
180 202 0
179 201 0
180 203 0
182 203 0
179 201 0
179 202 0
182 203 0
183 204 0
181 203 0
180 203 0
182 204 0
178 200 0
180 202 0
181 203 0
181 203 0
179 201 0
177 199 0
183 204 0
178 200 0
178 200 0
182 204 0
181 203 0
182 203 0
179 201 0
183 204 0
178 200 0
180 202 0
177 200 0
183 204 0
179 201 0
178 201 0
180 203 0
179 200 0
181 203 0
179 201 0
182 204 0
182 204 0
181 203 0
181 202 0
183 204 0
180 202 0
181 203 0
181 202 0
180 202 0
184 204 0
181 203 0
183 204 0
182 203 0
180 201 0
180 201 0
179 201 0
181 202 0
178 201 0
181 203 0
178 199 0
185 205 0
183 204 0
180 201 0
180 202 0
177 198 0
183 204 0
180 201 0
180 201 0
179 200 0
175 198 0
179 201 0
181 201 0
178 199 0
182 203 0
183 203 0
178 199 0
184 205 0
181 202 0
183 203 0
182 203 0
182 203 0
179 202 0
180 201 0
180 200 0
185 205 0
180 201 0
180 200 0
174 195 0
180 200 0
181 202 0
182 202 0
177 199 0
179 201 0
178 200 0
181 202 0
180 201 0
181 202 0
181 202 0
181 203 0
178 199 0
179 200 0
183 203 0
178 199 0
180 201 0
179 200 0
177 200 0
180 201 0
178 200 0
177 198 0
180 202 0
180 202 0
173 194 0
180 202 0
178 201 0
178 200 0
179 201 0
174 195 0
177 200 0
179 200 0
176 197 0
183 204 0
179 201 0
181 202 0
179 201 0
178 200 0
180 202 0
179 201 0
179 201 0
181 203 0
180 202 0
175 196 0
178 200 0
179 200 0
180 201 0
178 199 0
184 204 0
176 199 0
177 199 0
178 200 0
176 197 0
176 198 0
173 194 0
178 200 0
177 199 0
178 200 0
181 203 0
176 198 0
177 198 0
177 199 0
183 204 0
180 201 0
181 203 0
174 196 0
179 201 0
176 198 0
181 203 0
182 203 0
176 197 0
178 199 0
178 201 0
176 198 0
181 203 0
178 200 0
179 202 0
177 199 0
180 201 0
177 198 0
176 197 0
178 201 0
181 203 0
183 204 0
178 199 0
178 200 0
182 204 0
182 204 0
180 201 0
179 201 0
176 199 0
180 202 0
177 199 0
177 198 0
176 197 0
178 201 0
177 199 0
179 202 0
176 199 0
179 201 0
178 201 0
180 202 0
178 201 0
180 201 0
174 197 0
177 199 0
181 203 0
182 204 0
179 202 0
181 202 0
182 203 0
179 201 0
181 203 0
181 203 0
180 202 0
181 203 0
182 203 0
182 204 0
181 203 0
181 202 0
183 204 0
177 200 0
177 200 0
181 203 0
173 196 0
180 202 0
174 197 0
180 202 0
181 202 0
181 203 0
182 204 0
180 202 0
181 203 0
182 203 0
181 203 0
180 202 0
178 200 0
181 203 0
180 201 0
178 201 0
179 201 0
177 200 0
182 204 0
181 203 0
182 203 0
177 199 0
181 203 0
180 203 0
182 202 0
185 205 0
181 203 0
179 202 0
180 202 0
184 204 0
179 201 0
180 202 0
180 201 0
181 202 0
180 202 0
181 203 0
183 204 0
177 199 0
182 203 0
177 200 0
180 202 0
182 204 0
184 205 0
178 201 0
179 201 0
182 204 0
182 203 0
180 203 0
182 203 0
180 202 0
182 203 0
178 200 0
182 203 0
184 205 0
181 203 0
183 204 0
180 202 0
182 203 0
183 204 0
180 202 0
180 202 0
180 203 0
182 203 0
182 204 0
181 203 0
181 203 0
178 201 0
181 202 0
181 203 0
182 204 0
181 203 0
181 202 0
182 204 0
181 203 0
181 202 0
181 203 0
178 200 0
181 203 0
181 202 0
183 204 0
182 204 0
182 204 0
181 202 0
182 204 0
182 204 0
181 202 0
180 203 0
182 204 0
181 203 0
183 204 0
182 204 0
180 202 0
183 204 0
183 204 0
179 201 0
180 202 0
185 205 0
180 203 0
180 203 0
185 205 0
182 204 0
179 201 0
182 204 0
183 204 0
177 200 0
181 202 0
182 204 0
183 204 0
181 203 0
181 203 0
182 203 0
182 203 0
182 204 0
181 203 0
180 203 0
182 204 0
181 203 0
183 204 0
181 203 0
184 205 0
181 203 0
183 204 0
182 204 0
183 204 0
183 204 0
182 204 0
181 203 0
181 203 0
182 203 0
180 203 0
182 204 0
183 204 0
182 204 0
182 204 0
183 203 0
180 201 0
181 203 0
182 204 0
180 202 0
178 200 0
181 203 0
183 204 0
181 203 0
184 205 0
182 204 0
181 203 0
182 203 0
182 203 0
182 204 0
181 203 0
180 203 0
180 203 0
181 203 0
183 204 0
180 203 0
181 202 0
181 203 0
181 203 0
180 203 0
182 203 0
180 202 0
178 201 0
181 203 0
182 203 0
180 203 0
182 204 0
182 204 0
184 205 0
181 203 0
181 203 0
181 203 0
179 201 0
183 204 0
181 202 0
180 203 0
178 200 0
181 203 0
181 203 0
181 203 0
180 203 0
179 202 0
180 203 0
182 204 0
181 203 0
183 204 0
180 202 0
180 203 0
184 205 0
182 203 0
184 205 0
180 203 0
180 202 0
182 204 0
181 203 0
180 202 0
180 203 0
181 203 0
182 203 0
182 204 0
179 202 0
181 202 0
183 204 0
183 204 0
179 201 0
185 205 0
179 201 0
183 204 0
183 204 0
180 202 0
180 202 0
179 201 0
180 202 0
179 201 0
183 204 0
180 202 0
180 202 0
179 202 0
180 202 0
178 200 0
183 204 0
176 198 0
180 202 0
180 202 0
178 200 0
181 203 0
179 202 0
180 203 0
178 199 0
181 203 0
181 203 0
180 202 0
182 203 0
178 201 0
177 199 0
179 202 0
177 199 0
176 199 0
178 201 0
179 200 0
183 204 0
178 200 0
180 201 0
182 204 0
183 204 0
181 202 0
183 204 0
178 201 0
183 204 0
182 203 0
177 199 0
183 204 0
182 203 0
179 199 0
180 202 0
177 200 0
183 204 0
181 202 0
180 202 0
179 201 0
180 202 0
180 202 0
179 200 0
182 203 0
183 204 0
178 199 0
183 203 0
178 199 0
180 200 0
185 205 0
181 202 0
179 200 0
186 205 0
180 200 0
181 201 0
179 199 0
183 204 0
179 200 0
179 201 0
182 203 0
181 202 0
182 203 0
176 198 0
181 202 0
181 203 0
182 202 0
180 201 0
179 200 0
182 203 0
181 201 0
182 204 0
177 197 0
182 203 0
175 197 0
178 201 0
182 203 0
181 201 0
178 201 0
180 202 0
179 200 0
183 204 0
179 201 0
175 196 0
178 200 0
176 196 0
183 204 0
181 203 0
178 200 0
175 197 0
179 200 0
178 200 0
179 201 0
180 202 0
177 199 0
174 196 0
174 196 0
174 196 0
180 202 0
179 200 0
175 197 0
175 197 0
174 196 0
180 202 0
179 201 0
174 197 0
179 201 0
180 201 0
174 196 0
182 204 0
181 203 0
182 203 0
179 201 0
178 200 0
178 200 0
177 200 0
179 200 0
178 199 0
180 202 0
178 201 0
175 198 0
177 200 0
181 202 0
181 203 0
178 200 0
175 197 0
176 198 0
179 200 0
176 198 0
176 199 0
180 202 0
178 200 0
178 200 0
177 199 0
179 200 0
180 203 0
176 198 0
175 197 0
178 200 0
181 202 0
178 199 0
178 200 0
180 203 0
180 202 0
177 199 0
176 198 0
176 199 0
177 200 0
181 203 0
176 198 0
179 201 0
181 203 0
179 201 0
181 202 0
178 201 0
182 203 0
179 200 0
179 201 0
182 204 0
178 200 0
179 201 0
180 202 0
178 200 0
178 200 0
179 201 0
176 199 0
179 201 0
182 203 0
181 202 0
176 199 0
179 201 0
178 199 0
179 201 0
177 199 0
182 204 0
180 202 0
178 200 0
179 201 0
182 203 0
182 203 0
183 204 0
182 203 0
178 200 0
181 203 0
180 202 0
179 201 0
182 203 0
178 200 0
181 201 0
180 202 0
178 200 0
182 204 0
181 203 0
180 201 0
178 200 0
181 203 0
179 202 0
179 201 0
181 202 0
182 203 0
182 204 0
183 204 0
179 201 0
175 197 0
177 199 0
179 201 0
181 203 0
180 203 0
180 202 0
181 203 0
181 203 0
180 201 0
182 204 0
183 204 0
181 203 0
179 201 0
180 203 0
181 203 0
182 204 0
183 204 0
180 202 0
181 203 0
180 202 0
182 204 0
180 201 0
180 201 0
180 202 0
180 202 0
181 202 0
184 205 0
182 204 0
179 202 0
179 202 0
181 203 0
181 203 0
178 201 0
183 204 0
178 202 0
180 202 0
181 203 0
181 203 0
178 202 0
181 203 0
183 204 0
181 203 0
181 203 0
184 205 0
181 203 0
178 200 0
181 202 0
181 203 0
183 204 0
179 201 0
178 201 0
181 202 0
178 200 0
182 204 0
184 204 0
181 203 0
179 201 0
184 205 0
181 203 0
182 203 0
184 205 0
181 203 0
182 204 0
181 203 0
181 203 0
182 204 0
182 204 0
181 203 0
182 204 0
181 203 0
183 204 0
183 204 0
181 203 0
180 202 0
179 201 0
178 201 0
182 204 0
182 204 0
181 203 0
181 203 0
181 203 0
183 204 0
179 201 0
181 203 0
183 204 0
181 203 0
180 203 0
182 204 0
179 202 0
181 203 0
181 203 0
183 204 0
182 204 0
179 201 0
183 204 0
182 204 0
182 204 0
180 203 0
181 203 0
181 203 0
183 204 0
183 204 0
179 201 0
182 204 0
182 204 0
184 205 0
183 204 0
181 203 0
181 203 0
180 203 0
180 203 0
182 204 0
181 203 0
179 201 0
183 204 0
180 203 0
180 203 0
181 203 0
181 203 0
177 198 0
178 199 0
184 205 0
181 203 0
182 204 0
183 204 0
180 201 0
179 202 0
181 203 0
180 202 0
183 204 0
181 203 0
178 200 0
179 200 0
181 202 0
182 203 0
183 204 0
179 202 0
183 204 0
180 203 0
181 203 0
179 202 0
180 202 0
179 202 0
182 204 0
182 204 0
178 201 0
181 203 0
181 203 0
182 204 0
181 203 0
180 203 0
178 200 0
178 201 0
183 204 0
180 202 0
183 204 0
180 202 0
181 203 0
181 202 0
180 202 0
180 202 0
184 205 0
180 203 0
180 202 0
182 204 0
181 202 0
182 203 0
179 201 0
182 204 0
182 204 0
181 202 0
183 204 0
182 204 0
182 204 0
182 203 0
179 201 0
183 204 0
180 203 0
181 202 0
181 203 0
182 203 0
180 202 0
183 204 0
183 203 0
183 204 0
182 203 0
180 203 0
184 205 0
181 202 0
181 202 0
185 205 0
178 200 0
181 202 0
183 204 0
182 203 0
181 203 0
181 202 0
181 202 0
182 203 0
181 202 0
184 204 0
182 203 0
181 203 0
183 204 0
180 203 0
178 199 0
181 203 0
181 203 0
183 204 0
179 201 0
181 203 0
177 199 0
180 202 0
180 202 0
179 201 0
176 197 0
179 201 0
181 203 0
175 197 0
180 202 0
181 202 0
181 203 0
180 203 0
180 202 0
180 202 0
184 205 0
182 203 0
179 202 0
180 203 0
179 201 0
179 200 0
183 203 0
184 205 0
180 201 0
179 201 0
181 203 0
175 197 0
182 204 0
178 200 0
180 200 0
183 204 0
182 203 0
181 202 0
181 203 0
183 203 0
181 201 0
178 201 0
182 203 0
182 203 0
180 201 0
184 205 0
180 201 0
183 204 0
183 203 0
182 203 0
176 198 0
185 205 0
180 200 0
177 198 0
178 199 0
180 201 0
180 201 0
183 204 0
182 202 0
180 201 0
177 198 0
180 201 0
175 196 0
181 203 0
178 199 0
178 200 0
178 201 0
178 199 0
176 197 0
181 201 0
178 200 0
179 201 0
179 201 0
177 199 0
182 202 0
178 200 0
178 199 0
177 198 0
178 200 0
178 200 0
178 199 0
176 198 0
173 195 0
171 194 0
178 199 0
177 200 0
179 201 0
178 200 0
179 201 0
181 202 0
181 203 0
175 197 0
177 200 0
184 204 0
182 203 0
180 202 0
180 202 0
179 200 0
178 200 0
179 201 0
182 203 0
177 200 0
178 200 0
178 200 0
180 203 0
179 201 0
178 200 0
178 200 0
179 201 0
181 201 0
180 202 0
175 197 0
176 198 0
174 196 0
181 202 0
175 198 0
178 200 0
180 202 0
178 201 0
177 198 0
177 200 0
179 201 0
171 194 0
174 197 0
183 204 0
178 200 0
177 200 0
181 202 0
176 198 0
180 202 0
181 203 0
180 201 0
174 197 0
179 201 0
178 200 0
173 197 0
178 200 0
181 202 0
179 202 0
178 200 0
178 201 0
177 199 0
180 201 0
181 203 0
178 199 0
178 200 0
178 200 0
178 200 0
179 201 0
180 202 0
181 202 0
181 203 0
180 202 0
180 201 0
180 202 0
180 201 0
181 203 0
181 203 0
180 201 0
179 201 0
180 203 0
178 201 0
184 205 0
180 202 0
178 200 0
180 202 0
182 203 0
181 203 0
181 203 0
180 202 0
175 197 0
181 203 0
182 203 0
179 201 0
180 202 0
177 199 0
180 202 0
181 203 0
179 201 0
178 201 0
182 204 0
180 202 0
179 201 0
183 204 0
182 203 0
181 202 0
179 202 0
184 205 0
181 203 0
181 203 0
179 201 0
180 201 0
181 203 0
181 203 0
181 202 0
180 202 0
181 203 0
181 203 0
178 200 0
182 204 0
183 204 0
180 202 0
179 200 0
182 203 0
181 203 0
183 204 0
181 203 0
180 202 0
179 201 0
178 200 0
182 204 0
180 202 0
182 204 0
181 203 0
181 203 0
181 202 0
181 203 0
179 202 0
183 204 0
185 205 0
183 204 0
183 204 0
182 204 0
181 203 0
181 203 0
180 203 0
182 204 0
182 204 0
181 203 0
181 203 0
181 202 0
180 203 0
180 202 0
180 202 0
182 204 0
181 203 0
183 204 0
180 202 0
180 203 0
179 200 0
180 201 0
181 203 0
181 203 0
182 204 0
183 204 0
182 204 0
182 204 0
180 202 0
181 203 0
181 203 0
180 203 0
180 202 0
181 202 0
180 202 0
182 204 0
182 204 0
182 204 0
182 204 0
181 202 0
184 205 0
182 204 0
182 203 0
182 204 0
184 205 0
182 203 0
181 203 0
181 203 0
182 204 0
181 203 0
182 204 0
184 205 0
182 204 0
182 204 0
182 204 0
182 204 0
177 200 0
182 204 0
180 203 0
183 204 0
179 202 0
183 204 0
183 204 0
179 201 0
180 203 0
182 204 0
182 203 0
179 202 0
183 204 0
181 203 0
181 203 0
181 203 0
180 202 0
182 204 0
180 203 0
184 205 0
181 203 0
181 203 0
182 204 0
181 203 0
181 202 0
180 203 0
181 203 0
182 204 0
181 203 0
180 202 0
183 204 0
180 202 0
181 203 0
183 204 0
182 204 0
182 204 0
181 203 0
182 204 0
182 204 0
180 202 0
181 203 0
182 204 0
182 204 0
179 201 0
180 203 0
184 205 0
181 203 0
182 204 0
182 204 0
180 203 0
182 203 0
181 202 0
182 203 0
180 203 0
179 202 0
184 205 0
180 203 0
182 203 0
181 203 0
185 205 0
180 202 0
179 202 0
181 203 0
182 203 0
179 202 0
183 204 0
179 201 0
180 202 0
180 203 0
179 202 0
182 204 0
179 201 0
178 200 0
182 204 0
181 203 0
180 203 0
183 204 0
181 202 0
177 200 0
180 202 0
181 203 0
182 204 0
181 203 0
183 204 0
181 203 0
182 204 0
180 202 0
179 202 0
183 204 0
181 202 0
182 203 0
178 202 0
180 201 0
181 203 0
180 202 0
181 203 0
181 203 0
181 202 0
181 203 0
180 203 0
178 200 0
184 205 0
180 201 0
180 201 0
180 202 0
181 202 0
181 203 0
183 204 0
179 202 0
180 203 0
184 205 0
180 202 0
180 202 0
181 203 0
181 203 0
182 203 0
182 204 0
184 204 0
181 202 0
180 201 0
180 202 0
179 201 0
184 204 0
180 202 0
182 203 0
182 203 0
180 202 0
180 202 0
181 202 0
180 202 0
181 203 0
182 203 0
182 204 0
181 203 0
181 202 0
177 199 0
179 201 0
177 199 0
182 204 0
178 200 0
179 201 0
179 202 0
178 200 0
182 203 0
183 204 0
178 200 0
179 200 0
181 203 0
184 204 0
180 201 0
179 200 0
179 200 0
182 203 0
180 202 0
182 203 0
181 203 0
183 204 0
180 202 0
179 200 0
182 204 0
183 203 0
184 205 0
182 203 0
181 202 0
180 201 0
179 200 0
173 195 0
181 202 0
178 200 0
178 200 0
179 199 0
175 197 0
179 201 0
184 205 0
183 204 0
177 199 0
181 202 0
180 201 0
180 200 0
182 203 0
181 201 0
178 199 0
176 197 0
180 201 0
177 198 0
180 202 0
175 197 0
181 202 0
178 200 0
180 201 0
174 196 0
180 201 0
180 201 0
179 201 0
184 205 0
177 199 0
179 201 0
182 203 0
178 200 0
181 203 0
177 199 0
178 200 0
182 204 0
181 203 0
176 198 0
178 200 0
177 199 0
180 202 0
179 201 0
175 197 0
179 201 0
179 201 0
182 204 0
177 199 0
181 202 0
177 199 0
175 197 0
177 199 0
176 198 0
176 198 0
181 203 0
177 198 0
178 200 0
173 196 0
176 198 0
178 200 0
180 202 0
179 201 0
176 199 0
174 197 0
178 200 0
182 203 0
178 199 0
180 202 0
180 202 0
177 199 0
180 201 0
174 196 0
177 199 0
178 200 0
175 198 0
174 196 0
177 199 0
178 200 0
178 199 0
179 201 0
181 202 0
177 199 0
179 201 0
178 199 0
177 199 0
180 202 0
181 202 0
178 199 0
176 197 0
174 197 0
180 202 0
179 201 0
178 200 0
177 199 0
180 201 0
181 202 0
179 200 0
180 203 0
178 200 0
177 199 0
177 200 0
178 199 0
175 197 0
183 203 0
180 203 0
175 197 0
182 203 0
175 198 0
179 201 0
180 201 0
178 200 0
179 201 0
180 203 0
176 198 0
180 202 0
178 200 0
181 203 0
181 203 0
177 200 0
179 202 0
181 203 0
181 203 0
180 202 0
183 204 0
177 199 0
180 203 0
176 199 0
181 202 0
182 204 0
182 203 0
180 203 0
178 200 0
179 202 0
181 202 0
181 203 0
182 204 0
177 200 0
181 203 0
179 202 0
177 201 0
178 200 0
182 204 0
180 202 0
181 203 0
180 202 0
181 203 0
182 203 0
184 205 0
177 199 0
181 203 0
179 202 0
179 202 0
179 201 0
180 202 0
183 204 0
182 203 0
178 200 0
181 203 0
179 201 0
181 203 0
180 202 0
181 203 0
179 202 0
181 203 0
180 203 0
178 200 0
179 201 0
180 202 0
179 201 0
182 204 0
180 202 0
179 200 0
183 204 0
179 201 0
179 202 0
182 203 0
180 203 0
182 203 0
178 201 0
178 202 0
179 201 0
182 204 0
182 203 0
179 201 0
178 201 0
181 203 0
181 203 0
182 203 0
184 205 0
182 204 0
183 204 0
181 203 0
182 204 0
181 203 0
183 204 0
178 200 0
183 204 0
182 204 0
181 203 0
179 201 0
184 205 0
182 204 0
181 203 0
180 202 0
183 204 0
181 202 0
182 204 0
183 204 0
181 203 0
180 203 0
183 204 0
182 204 0
181 203 0
183 204 0
181 203 0
182 204 0
182 203 0
183 204 0
182 204 0
180 203 0
184 205 0
181 203 0
180 202 0
180 202 0
180 203 0
182 203 0
182 204 0
182 204 0
182 203 0
183 204 0
182 204 0
182 203 0
183 204 0
181 203 0
182 204 0
179 201 0
181 203 0
180 202 0
182 204 0
183 204 0
182 204 0
181 203 0
181 203 0
182 204 0
181 203 0
178 200 0
182 204 0
181 202 0
181 203 0
182 204 0
181 203 0
181 203 0
181 203 0
178 201 0
183 204 0
180 202 0
181 203 0
182 203 0
180 203 0
185 205 0
181 203 0
183 204 0
180 202 0
182 204 0
178 201 0
181 203 0
182 204 0
179 201 0
181 203 0
182 204 0
181 203 0
181 203 0
183 204 0
183 204 0
179 202 0
180 203 0
183 204 0
181 203 0
180 202 0
183 204 0
183 204 0
181 203 0
180 201 0
182 203 0
182 204 0
182 204 0
181 203 0
180 203 0
183 204 0
179 202 0
182 204 0
181 203 0
181 203 0
182 204 0
181 203 0
182 204 0
181 203 0
180 203 0
182 203 0
179 202 0
180 202 0
183 204 0
180 202 0
180 202 0
181 203 0
183 204 0
180 202 0
181 203 0
180 202 0
180 202 0
181 203 0
181 202 0
182 203 0
181 203 0
178 201 0
183 204 0
177 200 0
182 204 0
180 202 0
181 202 0
182 204 0
183 204 0
180 202 0
181 203 0
180 203 0
183 204 0
179 200 0
179 201 0
180 202 0
181 203 0
180 202 0
183 204 0
181 203 0
183 204 0
182 204 0
178 201 0
179 202 0
181 203 0
181 203 0
178 200 0
184 205 0
180 202 0
180 203 0
179 202 0
180 202 0
179 201 0
180 202 0
183 204 0
180 201 0
184 204 0
180 202 0
179 202 0
182 204 0
181 203 0
180 202 0
181 203 0
183 204 0
182 204 0
179 202 0
180 203 0
179 200 0
182 204 0
181 203 0
178 200 0
179 201 0
182 203 0
180 202 0
179 200 0
183 204 0
183 204 0
182 204 0
182 203 0
180 202 0
184 205 0
182 204 0
182 204 0
180 202 0
182 204 0
181 203 0
180 201 0
181 202 0
183 204 0
176 197 0
182 203 0
179 201 0
177 199 0
181 202 0
182 203 0
180 202 0
180 201 0
183 203 0
180 201 0
183 203 0
178 200 0
184 204 0
183 204 0
178 199 0
179 201 0
183 204 0
183 203 0
186 205 0
182 203 0
178 198 0
180 202 0
181 203 0
176 199 0
182 202 0
184 205 0
179 201 0
177 198 0
182 203 0
182 203 0
185 205 0
179 200 0
175 198 0
181 202 0
177 199 0
181 202 0
182 202 0
181 202 0
180 201 0
182 204 0
181 203 0
178 200 0
179 200 0
180 200 0
179 201 0
178 199 0
175 197 0
177 199 0
173 195 0
180 201 0
184 205 0
180 202 0
171 193 0
181 202 0
179 201 0
180 200 0
179 200 0
177 199 0
180 202 0
177 199 0
178 198 0
180 203 0
179 201 0
179 201 0
183 203 0
178 200 0
177 200 0
174 196 0
182 203 0
179 201 0
181 203 0
177 199 0
175 197 0
177 199 0
182 204 0
176 199 0
181 203 0
178 200 0
180 202 0
172 194 0
179 201 0
178 200 0
174 196 0
177 200 0
182 203 0
178 200 0
178 200 0
182 203 0
180 200 0
179 200 0
178 200 0
171 194 0
178 200 0
174 196 0
181 203 0
176 198 0
179 202 0
175 197 0
178 200 0
178 200 0
178 200 0
178 201 0
181 202 0
181 202 0
177 200 0
178 199 0
177 199 0
179 202 0
182 204 0
181 202 0
175 197 0
176 197 0
181 203 0
180 202 0
181 203 0
177 199 0
177 199 0
181 202 0
181 203 0
173 195 0
180 201 0
179 199 0
178 200 0
178 200 0
179 202 0
179 201 0
181 202 0
182 203 0
181 202 0
182 203 0
177 199 0
180 202 0
177 200 0
179 200 0
178 201 0
182 203 0
181 203 0
177 199 0
176 199 0
180 202 0
181 202 0
179 200 0
180 202 0
179 202 0
176 199 0
180 201 0
179 201 0
183 204 0
180 201 0
182 203 0
182 204 0
183 204 0
178 201 0
179 201 0
182 204 0
181 202 0
181 202 0
179 202 0
181 203 0
182 204 0
182 203 0
180 202 0
181 202 0
179 201 0
181 203 0
182 203 0
181 202 0
179 201 0
177 201 0
178 200 0
181 203 0
180 201 0
179 201 0
182 203 0
180 202 0
181 203 0
179 201 0
180 202 0
182 204 0
180 201 0
183 204 0
181 202 0
182 203 0
181 202 0
183 204 0
181 202 0
183 204 0
182 203 0
181 203 0
183 204 0
181 202 0
181 203 0
182 203 0
178 201 0
182 203 0
182 204 0
181 203 0
182 203 0
181 203 0
183 204 0
180 202 0
184 205 0
182 203 0
181 203 0
181 202 0
181 203 0
180 203 0
181 203 0
179 201 0
178 201 0
185 205 0
183 203 0
182 204 0
180 202 0
180 202 0
181 203 0
181 203 0
181 203 0
181 203 0
182 204 0
181 203 0
185 205 0
181 203 0
182 204 0
180 202 0
182 204 0
181 203 0
179 201 0
179 201 0
182 204 0
178 201 0
184 205 0
180 202 0
182 204 0
180 202 0
181 203 0
182 204 0
180 203 0
182 204 0
179 202 0
181 203 0
181 202 0
184 205 0
178 201 0
181 203 0
179 202 0
182 204 0
182 203 0
182 204 0
181 203 0
182 204 0
186 206 0
183 204 0
178 202 0
181 203 0
181 203 0
182 204 0
181 203 0
181 203 0
181 203 0
182 203 0
180 202 0
179 202 0
180 203 0
181 203 0
181 203 0
182 204 0
183 204 0
184 205 0
184 205 0
182 204 0
181 203 0
181 203 0
183 204 0
181 203 0
182 204 0
184 205 0
181 203 0
184 205 0
182 204 0
183 204 0
183 204 0
180 202 0
182 203 0
183 204 0
180 203 0
183 204 0
180 203 0
183 204 0
182 204 0
181 203 0
180 202 0
179 202 0
182 204 0
183 204 0
183 204 0
182 204 0
183 204 0
181 203 0
182 204 0
181 203 0
181 203 0
182 204 0
177 199 0
182 203 0
184 205 0
182 204 0
176 199 0
181 203 0
180 202 0
183 204 0
180 203 0
183 204 0
182 204 0
179 201 0
181 202 0
181 203 0
179 202 0
183 204 0
182 203 0
182 203 0
183 204 0
178 200 0
179 202 0
179 201 0
180 203 0
178 200 0
180 202 0
181 203 0
181 203 0
181 203 0
178 200 0
181 201 0
184 205 0
178 201 0
181 203 0
182 204 0
180 203 0
181 203 0
182 203 0
180 201 0
182 204 0
180 202 0
179 201 0
182 203 0
180 203 0
181 202 0
182 204 0
181 203 0
182 203 0
180 203 0
178 200 0
180 203 0
177 199 0
181 203 0
179 201 0
181 203 0
181 203 0
182 204 0
182 204 0
181 202 0
180 203 0
182 204 0
180 203 0
181 202 0
179 201 0
182 204 0
182 204 0
182 203 0
178 201 0
181 203 0
182 204 0
181 203 0
182 203 0
182 204 0
182 204 0
181 203 0
179 201 0
184 205 0
178 198 0
184 205 0
182 204 0
183 204 0
178 200 0
178 201 0
179 201 0
179 201 0
178 200 0
182 204 0
181 202 0
180 201 0
181 203 0
183 204 0
178 200 0
180 202 0
181 202 0
183 204 0
181 203 0
181 202 0
178 200 0
179 202 0
179 201 0
182 202 0
182 203 0
182 204 0
183 204 0
181 202 0
177 199 0
181 202 0
184 204 0
182 202 0
178 200 0
179 200 0
184 204 0
180 201 0
181 201 0
179 199 0
181 202 0
183 204 0
184 204 0
176 198 0
180 201 0
181 201 0
179 200 0
181 202 0
182 202 0
182 204 0
180 200 0
179 200 0
178 199 0
179 200 0
182 203 0
180 201 0
178 200 0
177 198 0
179 201 0
180 202 0
181 202 0
180 202 0
181 202 0
180 201 0
179 199 0
181 202 0
177 198 0
182 203 0
179 200 0
177 198 0
183 203 0
180 202 0
181 202 0
176 198 0
178 201 0
176 198 0
176 198 0
178 200 0
173 194 0
175 197 0
177 200 0
175 197 0
176 199 0
178 199 0
175 197 0
181 202 0
179 201 0
181 203 0
178 201 0
181 203 0
182 204 0
179 202 0
176 198 0
180 203 0
177 199 0
179 200 0
177 198 0
177 198 0
177 199 0
177 199 0
178 199 0
182 204 0
179 201 0
176 197 0
175 197 0
179 202 0
182 203 0
180 202 0
180 201 0
175 197 0
177 199 0
174 196 0
180 202 0
180 202 0
181 202 0
176 198 0
176 199 0
178 200 0
180 202 0
179 201 0
179 201 0
180 202 0
175 198 0
177 199 0
173 195 0
177 199 0
178 199 0
179 201 0
180 201 0
178 200 0
178 200 0
178 200 0
179 202 0
181 202 0
178 200 0
179 200 0
177 199 0
179 201 0
181 202 0
180 202 0
174 196 0
180 202 0
178 200 0
180 202 0
184 205 0
179 201 0
185 205 0
179 201 0
180 202 0
181 203 0
179 201 0
180 201 0
181 201 0
181 203 0
179 201 0
175 198 0
181 203 0
180 202 0
177 199 0
180 202 0
181 203 0
180 203 0
180 202 0
180 203 0
181 202 0
180 202 0
183 204 0
183 203 0
178 200 0
177 199 0
173 196 0
181 203 0
183 204 0
181 202 0
181 203 0
181 203 0
179 201 0
181 203 0
183 204 0
181 203 0
182 204 0
183 204 0
179 202 0
180 201 0
180 202 0
179 201 0
181 203 0
181 203 0
182 203 0
182 204 0
174 196 0
182 204 0
181 203 0
176 200 0
181 202 0
181 202 0
179 201 0
179 202 0
180 202 0
183 204 0
180 202 0
181 202 0
180 202 0
182 204 0
179 201 0
181 202 0
182 203 0
182 203 0
181 203 0
181 203 0
181 202 0
179 201 0
182 204 0
178 201 0
179 202 0
184 205 0
177 199 0
181 203 0
181 202 0
179 202 0
181 203 0
182 204 0
181 203 0
178 201 0
180 202 0
179 202 0
180 202 0
185 205 0
180 202 0
182 204 0
182 204 0
183 204 0
182 204 0
180 202 0
181 203 0
182 204 0
183 204 0
183 204 0
182 204 0
181 203 0
184 205 0
182 204 0
182 204 0
181 203 0
182 204 0
183 204 0
180 202 0
182 204 0
182 204 0
181 203 0
180 203 0
182 203 0
178 201 0
180 202 0
180 202 0
181 202 0
178 201 0
183 204 0
181 203 0
181 202 0
177 200 0
180 202 0
184 205 0
183 204 0
184 205 0
180 203 0
181 203 0
182 204 0
179 202 0
179 201 0
180 202 0
182 204 0
179 201 0
181 203 0
181 203 0
180 203 0
182 204 0
182 204 0
181 203 0
182 203 0
181 203 0
181 203 0
180 202 0
183 204 0
182 204 0
183 204 0
181 202 0
181 203 0
182 204 0
181 202 0
182 204 0
182 204 0
181 203 0
180 203 0
178 200 0
182 204 0
182 203 0
181 203 0
184 205 0
183 204 0
181 203 0
181 203 0
182 204 0
179 201 0
180 202 0
182 204 0
182 204 0
182 204 0
180 202 0
181 203 0
182 204 0
182 204 0
185 205 0
181 203 0
181 203 0
177 200 0
183 204 0
181 202 0
181 202 0
181 202 0
181 203 0
180 203 0
184 204 0
183 204 0
180 203 0
183 204 0
180 203 0
182 204 0
183 204 0
182 204 0
182 204 0
182 203 0
183 204 0
179 201 0
182 204 0
181 203 0
182 204 0
182 204 0
180 203 0
183 204 0
179 202 0
182 203 0
180 203 0
182 204 0
182 204 0
178 200 0
182 204 0
181 203 0
183 204 0
179 201 0
180 202 0
182 204 0
180 202 0
179 201 0
180 203 0
183 204 0
184 205 0
179 201 0
182 204 0
180 202 0
180 203 0
181 202 0
181 203 0
181 203 0
181 203 0
181 203 0
181 203 0
183 204 0
181 203 0
182 204 0
181 202 0
182 203 0
184 205 0
181 202 0
182 204 0
183 204 0
181 203 0
178 200 0
184 205 0
180 202 0
183 204 0
182 204 0
180 202 0
183 204 0
182 203 0
181 203 0
185 205 0
178 200 0
177 200 0
182 203 0
182 204 0
181 202 0
180 202 0
182 204 0
180 203 0
182 203 0
180 203 0
180 203 0
181 203 0
181 203 0
183 204 0
179 202 0
181 202 0
181 203 0
178 200 0
181 203 0
181 203 0
175 196 0
182 203 0
180 201 0
179 201 0
180 202 0
182 204 0
178 201 0
179 201 0
182 204 0
177 200 0
181 202 0
179 201 0
176 198 0
182 203 0
177 200 0
175 196 0
180 202 0
181 203 0
180 201 0
182 202 0
179 202 0
179 200 0
180 201 0
180 201 0
181 202 0
183 204 0
178 199 0
181 202 0
180 201 0
183 203 0
181 203 0
183 204 0
179 201 0
177 199 0
182 203 0
178 200 0
180 201 0
179 201 0
177 199 0
180 202 0
181 203 0
181 202 0
180 202 0
177 199 0
182 204 0
182 202 0
180 202 0
183 204 0
181 201 0
181 202 0
179 200 0
180 201 0
177 198 0
181 202 0
177 198 0
176 198 0
173 194 0
178 199 0
182 202 0
179 201 0
182 203 0
181 202 0
178 201 0
182 204 0
182 203 0
179 200 0
182 202 0
179 201 0
174 197 0
179 201 0
181 203 0
180 202 0
179 201 0
177 198 0
181 203 0
173 194 0
177 199 0
175 197 0
179 200 0
179 201 0
180 202 0
183 204 0
176 198 0
179 201 0
183 204 0
179 201 0
181 203 0
178 201 0
177 200 0
177 199 0
180 201 0
175 199 0
181 202 0
176 199 0
182 203 0
177 199 0
181 203 0
182 204 0
174 196 0
174 196 0
182 204 0
177 198 0
180 201 0
176 198 0
175 197 0
181 203 0
179 202 0
182 204 0
174 196 0
180 202 0
176 198 0
174 197 0
179 201 0
180 203 0
179 201 0
171 194 0
175 196 0
179 201 0
178 201 0
181 203 0
177 199 0
182 203 0
178 200 0
176 198 0
177 200 0
182 204 0
179 201 0
182 203 0
181 202 0
179 200 0
180 202 0
177 198 0
178 199 0
182 204 0
181 203 0
180 202 0
180 202 0
179 200 0
182 203 0
176 199 0
180 202 0
182 204 0
178 199 0
184 205 0
180 202 0
178 200 0
177 199 0
176 198 0
180 202 0
180 202 0
183 204 0
182 203 0
179 201 0
181 202 0
177 199 0
180 202 0
180 201 0
178 200 0
181 203 0
181 203 0
184 204 0
182 204 0
179 201 0
181 203 0
180 203 0
181 202 0
182 204 0
178 200 0
180 201 0
180 201 0
180 203 0
182 204 0
180 202 0
178 200 0
179 202 0
180 201 0
182 204 0
179 200 0
180 202 0
184 205 0
181 203 0
182 204 0
183 204 0
182 204 0
178 200 0
181 203 0
179 202 0
181 203 0
180 203 0
179 201 0
181 203 0
180 202 0
179 202 0
182 203 0
180 202 0
180 203 0
181 203 0
183 204 0
181 203 0
181 202 0
182 204 0
181 202 0
182 203 0
180 203 0
183 204 0
180 202 0
181 203 0
180 202 0
183 204 0
181 202 0
184 204 0
182 204 0
183 204 0
182 204 0
182 204 0
180 203 0
182 204 0
181 203 0
179 201 0
181 203 0
182 204 0
182 204 0
180 203 0
181 203 0
182 203 0
179 202 0
179 202 0
181 203 0
182 204 0
182 203 0
182 203 0
182 204 0
180 202 0
180 201 0
183 204 0
180 203 0
181 202 0
178 200 0
180 202 0
182 203 0
181 203 0
182 204 0
179 201 0
180 203 0
183 204 0
183 204 0
181 202 0
183 204 0
182 204 0
183 204 0
182 204 0
180 202 0
183 204 0
181 203 0
181 203 0
183 204 0
183 204 0
182 204 0
183 204 0
179 201 0
182 204 0
181 203 0
182 204 0
182 204 0
181 203 0
182 203 0
184 205 0
184 205 0
181 203 0
182 204 0
182 204 0
181 203 0
184 205 0
181 203 0
181 203 0
183 204 0
182 204 0
181 203 0
183 204 0
179 201 0
183 204 0
183 204 0
183 204 0
181 203 0
181 203 0
181 202 0
182 204 0
182 204 0
182 204 0
181 203 0
181 203 0
181 203 0
181 203 0
181 203 0
182 203 0
179 201 0
181 202 0
181 203 0
180 202 0
179 202 0
182 204 0
180 203 0
182 203 0
183 204 0
180 203 0
182 204 0
180 202 0
182 203 0
181 203 0
183 204 0
183 204 0
180 203 0
180 202 0
182 204 0
184 205 0
181 202 0
183 204 0
184 204 0
183 204 0
182 204 0
180 202 0
184 205 0
179 202 0
179 201 0
181 203 0
180 203 0
179 202 0
180 202 0
180 202 0
182 204 0
182 203 0
183 204 0
183 204 0
183 204 0
180 203 0
182 204 0
181 202 0
182 204 0
180 201 0
180 203 0
181 203 0
181 203 0
180 201 0
184 204 0
180 202 0
181 203 0
178 200 0
182 204 0
181 202 0
180 203 0
184 205 0
174 197 0
184 205 0
179 201 0
180 202 0
182 204 0
180 202 0
183 204 0
182 204 0
179 201 0
181 203 0
180 202 0
182 203 0
177 200 0
181 203 0
182 203 0
180 202 0
180 203 0
178 200 0
179 201 0
181 202 0
183 204 0
184 205 0
182 204 0
184 205 0
182 204 0
180 201 0
181 202 0
179 200 0
183 204 0
179 202 0
183 204 0
182 203 0
181 202 0
180 203 0
179 201 0
181 201 0
182 204 0
181 203 0
180 202 0
181 203 0
182 204 0
179 200 0
180 202 0
181 203 0
179 202 0
180 202 0
180 202 0
180 202 0
181 203 0
176 198 0
180 202 0
179 201 0
181 202 0
178 200 0
180 201 0
181 202 0
180 202 0
182 204 0
182 202 0
183 204 0
177 200 0
178 200 0
181 202 0
181 202 0
180 202 0
181 202 0
182 202 0
180 201 0
182 202 0
175 197 0
181 202 0
181 203 0
180 202 0
181 201 0
182 204 0
176 198 0
178 200 0
184 205 0
180 202 0
179 200 0
181 202 0
180 202 0
182 203 0
182 203 0
180 201 0
181 202 0
183 203 0
181 202 0
180 202 0
178 201 0
185 205 0
182 203 0
180 202 0
177 199 0
179 200 0
182 202 0
183 203 0
180 202 0
180 201 0
179 200 0
183 204 0
181 203 0
180 201 0
177 197 0
181 202 0
175 197 0
183 203 0
182 204 0
185 205 0
177 199 0
182 204 0
181 202 0
178 201 0
179 201 0
177 199 0
181 202 0
180 202 0
179 200 0
183 204 0
182 203 0
183 204 0
179 201 0
178 200 0
176 198 0
178 200 0
179 201 0
179 200 0
181 202 0
182 203 0
178 200 0
177 197 0
178 200 0
180 201 0
177 198 0
172 194 0
178 200 0
182 203 0
179 201 0
177 199 0
177 199 0
179 201 0
173 195 0
179 202 0
177 199 0
177 198 0
177 200 0
177 199 0
179 199 0
179 202 0
176 199 0
175 197 0
177 200 0
181 203 0
178 200 0
180 202 0
181 202 0
178 200 0
178 200 0
176 198 0
176 199 0
180 202 0
180 201 0
178 199 0
177 199 0
177 199 0
180 203 0
180 202 0
179 201 0
182 203 0
181 202 0
180 200 0
178 200 0
180 202 0
180 201 0
180 202 0
177 199 0
182 204 0
175 197 0
178 200 0
179 200 0
179 199 0
180 201 0
179 200 0
181 202 0
182 203 0
181 203 0
179 200 0
176 198 0
180 201 0
178 200 0
174 197 0
175 198 0
180 203 0
181 203 0
178 200 0
179 201 0
177 200 0
178 200 0
179 201 0
179 200 0
181 202 0
179 201 0
180 202 0
180 203 0
184 204 0
181 203 0
182 204 0
182 203 0
174 197 0
183 204 0
180 203 0
179 202 0
179 200 0
181 203 0
178 200 0
179 201 0
178 201 0
178 200 0
180 202 0
181 203 0
180 202 0
180 202 0
182 202 0
181 203 0
180 202 0
177 201 0
185 205 0
180 202 0
182 203 0
182 204 0
182 204 0
181 203 0
180 203 0
177 200 0
181 203 0
180 202 0
180 202 0
182 204 0
182 203 0
181 202 0
181 203 0
181 203 0
181 203 0
183 204 0
182 204 0
182 203 0
182 204 0
179 201 0
176 198 0
182 203 0
183 204 0
179 202 0
182 204 0
180 203 0
178 200 0
181 202 0
181 202 0
182 204 0
180 202 0
181 203 0
183 203 0
181 203 0
182 204 0
182 204 0
180 202 0
182 204 0
183 204 0
180 203 0
183 204 0
183 204 0
182 204 0
181 203 0
179 201 0
183 204 0
183 204 0
182 204 0
182 204 0
182 204 0
180 202 0
182 203 0
177 201 0
183 204 0
180 202 0
183 204 0
182 203 0
182 204 0
181 203 0
180 202 0
183 203 0
183 204 0
180 203 0
180 202 0
183 204 0
180 203 0
178 201 0
181 203 0
180 203 0
180 202 0
182 204 0
181 202 0
181 202 0
183 204 0
179 201 0
183 204 0
182 204 0
181 203 0
182 204 0
180 203 0
181 203 0
185 205 0
183 204 0
183 203 0
184 205 0
182 204 0
180 202 0
182 204 0
182 204 0
182 204 0
183 204 0
178 200 0
180 203 0
181 203 0
180 203 0
182 203 0
180 203 0
182 204 0
183 204 0
182 204 0
181 203 0
183 204 0
183 204 0
182 204 0
182 203 0
182 204 0
182 204 0
180 202 0
181 203 0
180 203 0
183 204 0
183 204 0
180 203 0
182 203 0
181 203 0
180 203 0
182 204 0
182 204 0
180 202 0
183 204 0
180 203 0
181 203 0
183 204 0
182 204 0
181 203 0
179 201 0
180 203 0
179 201 0
183 204 0
181 203 0
181 202 0
180 202 0
182 204 0
182 203 0
181 203 0
183 204 0
179 202 0
181 203 0
181 203 0
182 203 0
184 205 0
180 202 0
182 204 0
181 203 0
179 201 0
181 203 0
180 202 0
181 203 0
180 203 0
180 203 0
181 203 0
181 203 0
181 203 0
181 202 0
183 204 0
179 201 0
181 203 0
181 203 0
181 203 0
179 202 0
183 204 0
183 204 0
179 202 0
181 202 0
178 200 0
182 204 0
182 203 0
180 202 0
181 203 0
182 204 0
182 204 0
181 202 0
182 204 0
181 203 0
181 203 0
180 202 0
175 199 0
182 204 0
182 204 0
182 204 0
180 201 0
179 201 0
181 203 0
182 203 0
180 202 0
178 200 0
180 202 0
180 203 0
180 202 0
179 202 0
182 204 0
181 203 0
181 203 0
180 202 0
180 202 0
182 203 0
180 203 0
180 203 0
179 201 0
183 204 0
181 203 0
179 202 0
180 202 0
179 201 0
178 202 0
180 202 0
183 204 0
179 202 0
180 202 0
182 203 0
179 201 0
178 201 0
179 200 0
181 202 0
181 203 0
182 204 0
183 204 0
179 200 0
182 203 0
179 202 0
182 204 0
181 202 0
181 203 0
181 203 0
180 202 0
179 200 0
182 203 0
180 202 0
178 201 0
180 202 0
180 202 0
177 200 0
180 202 0
180 201 0
180 202 0
182 203 0
180 202 0
181 202 0
177 200 0
181 203 0
180 202 0
180 202 0
180 202 0
178 199 0
180 201 0
182 203 0
181 203 0
181 202 0
180 201 0
180 201 0
183 204 0
181 202 0
183 204 0
180 202 0
178 199 0
180 202 0
179 200 0
183 204 0
182 202 0
179 201 0
178 199 0
179 200 0
180 201 0
179 200 0
179 201 0
181 201 0
182 203 0
179 200 0
182 203 0
181 202 0
178 200 0
181 202 0
177 199 0
180 200 0
178 199 0
181 202 0
178 199 0
178 199 0
181 202 0
182 203 0
178 199 0
181 202 0
180 202 0
182 203 0
182 203 0
179 200 0
179 201 0
181 202 0
175 197 0
179 200 0
178 201 0
175 197 0
179 200 0
179 201 0
178 200 0
183 204 0
175 197 0
181 203 0
179 200 0
176 198 0
177 199 0
177 199 0
178 200 0
173 196 0
177 199 0
178 200 0
179 201 0
174 195 0
179 201 0
180 202 0
181 203 0
178 199 0
178 201 0
177 198 0
180 202 0
173 196 0
179 201 0
174 196 0
176 198 0
183 204 0
179 201 0
181 201 0
177 199 0
181 202 0
180 202 0
179 201 0
174 196 0
180 202 0
180 202 0
181 203 0
178 200 0
178 200 0
174 196 0
178 200 0
181 202 0
178 199 0
178 200 0
181 202 0
182 204 0
171 193 0
173 195 0
180 201 0
178 201 0
178 200 0
178 201 0
176 199 0
179 200 0
178 200 0
177 200 0
170 192 0
178 200 0
178 200 0
180 201 0
178 200 0
175 197 0
179 201 0
182 203 0
180 203 0
178 199 0
183 204 0
181 202 0
179 201 0
178 200 0
178 200 0
179 201 0
180 202 0
178 200 0
179 201 0
182 204 0
175 197 0
179 200 0
181 201 0
181 202 0
182 204 0
181 202 0
181 203 0
177 199 0
179 201 0
182 204 0
177 200 0
180 202 0
182 203 0
182 203 0
177 200 0
182 203 0
181 202 0
180 203 0
179 201 0
179 201 0
181 202 0
182 204 0
182 204 0
183 203 0
181 203 0
181 203 0
180 202 0
183 204 0
182 204 0
183 204 0
181 203 0
182 204 0
181 203 0
183 204 0
181 203 0
183 204 0
180 202 0
181 203 0
179 202 0
179 202 0
177 199 0
183 204 0
180 202 0
181 203 0
181 202 0
183 204 0
183 204 0
179 201 0
182 204 0
181 203 0
176 199 0
182 203 0
181 203 0
181 203 0
178 201 0
181 203 0
180 202 0
179 201 0
180 202 0
181 203 0
179 201 0
182 204 0
182 204 0
182 204 0
182 203 0
177 199 0
183 204 0
183 204 0
180 203 0
184 205 0
181 203 0
180 201 0
183 204 0
181 202 0
183 204 0
181 203 0
178 201 0
178 201 0
182 203 0
182 203 0
180 202 0
182 203 0
179 202 0
179 200 0
181 203 0
181 203 0
182 204 0
181 203 0
182 203 0
182 203 0
183 204 0
184 204 0
181 202 0
183 204 0
182 203 0
180 202 0
182 204 0
181 203 0
182 204 0
181 203 0
178 201 0
181 203 0
181 203 0
182 204 0
183 204 0
181 203 0
181 203 0
183 204 0
181 202 0
181 203 0
183 204 0
180 202 0
180 202 0
180 202 0
182 204 0
181 203 0
182 204 0
183 204 0
183 204 0
182 203 0
184 204 0
184 205 0
182 204 0
182 204 0
181 203 0
181 203 0
180 203 0
181 203 0
183 204 0
183 204 0
182 204 0
180 202 0
181 203 0
183 204 0
180 203 0
183 204 0
180 203 0
183 204 0
178 200 0
181 203 0
181 203 0
180 203 0
182 204 0
182 204 0
179 201 0
181 203 0
183 204 0
180 203 0
181 203 0
182 204 0
180 202 0
180 202 0
181 202 0
182 204 0
182 204 0
181 203 0
181 202 0
180 202 0
183 204 0
179 202 0
185 205 0
179 201 0
180 202 0
181 203 0
179 201 0
181 203 0
181 202 0
181 203 0
182 204 0
180 202 0
183 204 0
181 203 0
184 205 0
178 200 0
183 204 0
182 204 0
182 204 0
183 204 0
176 198 0
181 202 0
182 204 0
181 203 0
183 204 0
179 201 0
183 204 0
180 202 0
180 202 0
180 203 0
181 202 0
181 203 0
182 204 0
182 203 0
182 203 0
181 202 0
181 203 0
180 202 0
179 202 0
182 204 0
183 204 0
181 203 0
180 203 0
181 203 0
183 204 0
181 203 0
181 203 0
180 202 0
183 204 0
180 202 0
180 201 0
181 202 0
180 201 0
180 203 0
180 203 0
180 202 0
180 202 0
183 203 0
181 203 0
183 204 0
182 204 0
182 204 0
181 203 0
179 201 0
184 205 0
181 202 0
180 202 0
180 203 0
185 205 0
182 203 0
181 203 0
180 202 0
180 202 0
181 203 0
180 202 0
183 203 0
178 200 0
180 202 0
182 204 0
178 200 0
179 202 0
182 203 0
182 203 0
182 204 0
182 204 0
177 199 0
180 202 0
185 205 0
179 202 0
180 202 0
182 204 0
180 202 0
182 203 0
177 200 0
183 204 0
180 202 0
180 202 0
182 204 0
181 202 0
180 201 0
184 205 0
179 202 0
182 203 0
184 204 0
178 199 0
181 202 0
183 204 0
179 201 0
178 199 0
181 203 0
177 198 0
180 201 0
183 204 0
180 201 0
181 202 0
179 200 0
182 204 0
181 201 0
178 200 0
181 203 0
179 200 0
183 204 0
182 203 0
179 201 0
175 198 0
181 202 0
180 201 0
179 201 0
181 203 0
185 205 0
179 201 0
183 203 0
179 201 0
183 204 0
181 202 0
181 202 0
179 200 0
180 202 0
180 202 0
178 200 0
182 203 0
175 198 0
180 201 0
182 204 0
181 203 0
180 202 0
182 203 0
182 204 0
181 202 0
177 199 0
179 200 0
181 202 0
181 201 0
179 200 0
176 198 0
174 196 0
180 200 0
178 200 0
181 203 0
179 201 0
180 202 0
170 192 0
181 203 0
179 201 0
179 200 0
169 192 0
178 200 0
178 200 0
178 201 0
179 201 0
181 203 0
178 200 0
177 198 0
179 201 0
181 203 0
176 198 0
175 197 0
183 204 0
178 199 0
171 194 0
171 194 0
178 199 0
177 200 0
179 201 0
174 196 0
177 199 0
178 199 0
177 200 0
177 200 0
180 202 0
180 202 0
175 198 0
174 197 0
179 201 0
184 205 0
178 200 0
177 199 0
179 201 0
177 200 0
180 201 0
180 202 0
178 201 0
174 197 0
182 202 0
180 201 0
178 200 0
178 200 0
179 201 0
179 200 0
177 199 0
175 198 0
180 202 0
179 201 0
181 202 0
178 200 0
179 202 0
177 199 0
176 199 0
180 201 0
179 200 0
175 197 0
180 202 0
178 200 0
174 195 0
183 204 0
181 202 0
175 198 0
181 202 0
177 199 0
182 204 0
180 202 0
178 200 0
182 204 0
181 203 0
177 199 0
177 200 0
180 202 0
178 200 0
181 203 0
183 204 0
180 202 0
182 204 0
180 201 0
178 200 0
180 202 0
178 201 0
174 196 0
180 202 0
181 203 0
182 204 0
182 204 0
182 203 0
181 203 0
175 197 0
183 204 0
183 204 0
180 202 0
176 199 0
176 199 0
180 202 0
182 204 0
180 202 0
181 202 0
182 204 0
178 200 0
182 204 0
182 204 0
181 203 0
180 201 0
183 204 0
183 204 0
182 204 0
181 203 0
181 203 0
182 203 0
182 204 0
182 203 0
179 200 0
182 203 0
178 200 0
178 201 0
183 204 0
180 201 0
179 201 0
180 202 0
183 204 0
181 203 0
181 203 0
182 204 0
180 202 0
179 202 0
183 204 0
181 203 0
179 200 0
182 204 0
180 203 0
183 204 0
182 204 0
182 204 0
179 202 0
182 204 0
180 202 0
179 202 0
176 199 0
179 202 0
183 204 0
180 202 0
181 203 0
182 204 0
181 203 0
183 203 0
181 202 0
182 204 0
181 203 0
183 204 0
180 202 0
182 203 0
181 203 0
181 203 0
178 201 0
180 203 0
182 204 0
184 205 0
182 204 0
181 203 0
182 204 0
182 203 0
180 203 0
179 201 0
180 203 0
182 204 0
184 204 0
182 203 0
181 203 0
183 204 0
181 203 0
183 204 0
181 203 0
180 202 0
183 204 0
182 204 0
183 204 0
183 204 0
182 204 0
178 200 0
181 203 0
182 203 0
181 203 0
179 201 0
181 203 0
181 203 0
181 203 0
179 201 0
180 203 0
184 205 0
181 203 0
181 203 0
180 203 0
181 203 0
180 202 0
184 205 0
183 204 0
182 204 0
179 202 0
177 200 0
180 203 0
184 205 0
181 203 0
182 203 0
179 202 0
182 204 0
180 203 0
181 203 0
182 203 0
183 204 0
183 204 0
183 204 0
179 201 0
183 204 0
183 204 0
181 203 0
181 203 0
182 204 0
183 204 0
182 204 0
181 203 0
179 201 0
181 203 0
182 203 0
182 204 0
181 203 0
179 202 0
180 202 0
179 201 0
180 203 0
181 203 0
181 203 0
183 204 0
183 204 0
181 203 0
180 203 0
178 201 0
182 203 0
182 203 0
184 205 0
181 203 0
181 203 0
183 204 0
181 202 0
181 202 0
182 204 0
181 203 0
181 203 0
181 203 0
182 204 0
182 204 0
181 203 0
180 203 0
182 203 0
181 203 0
184 205 0
178 200 0
179 201 0
180 203 0
182 203 0
182 203 0
180 203 0
183 204 0
182 204 0
180 202 0
182 203 0
182 204 0
181 203 0
182 204 0
181 203 0
181 202 0
179 201 0
178 201 0
179 202 0
182 204 0
182 204 0
177 199 0
181 202 0
183 204 0
177 200 0
181 203 0
181 203 0
181 203 0
179 202 0
179 202 0
180 203 0
183 204 0
181 203 0
180 202 0
182 204 0
183 204 0
182 204 0
184 205 0
179 201 0
181 203 0
178 200 0
181 203 0
179 202 0
180 203 0
181 202 0
182 204 0
180 202 0
180 202 0
179 201 0
179 201 0
181 203 0
182 204 0
183 204 0
180 202 0
181 203 0
179 201 0
179 201 0
182 204 0
182 202 0
178 200 0
184 204 0
177 200 0
178 200 0
182 204 0
184 204 0
176 199 0
181 203 0
181 203 0
180 201 0
183 204 0
179 200 0
179 201 0
181 202 0
179 201 0
179 201 0
184 205 0
181 203 0
179 201 0
178 201 0
178 200 0
182 204 0
181 202 0
181 203 0
180 202 0
179 201 0
181 201 0
182 204 0
181 203 0
180 202 0
181 203 0
185 205 0
179 201 0
182 203 0
182 203 0
181 203 0
184 205 0
182 204 0
181 203 0
182 203 0
182 203 0
181 202 0
179 200 0
181 203 0
181 202 0
183 204 0
175 197 0
182 204 0
182 203 0
178 198 0
181 203 0
180 201 0
179 201 0
183 203 0
181 202 0
181 202 0
180 201 0
179 201 0
181 202 0
179 201 0
180 201 0
179 201 0
184 203 0
180 202 0
177 199 0
176 197 0
182 203 0
180 201 0
178 200 0
174 196 0
181 203 0
182 204 0
180 202 0
179 201 0
181 202 0
177 199 0
179 201 0
176 199 0
184 205 0
173 195 0
178 198 0
180 202 0
182 203 0
175 197 0
181 203 0
183 204 0
182 203 0
179 201 0
183 204 0
174 196 0
178 201 0
180 200 0
178 200 0
178 198 0
180 201 0
177 200 0
178 200 0
174 196 0
179 201 0
181 202 0
175 197 0
178 200 0
183 204 0
177 199 0
181 202 0
178 200 0
182 203 0
180 201 0
179 201 0
178 199 0
177 199 0
176 198 0
179 200 0
178 201 0
178 200 0
178 200 0
178 200 0
176 198 0
178 200 0
179 200 0
180 202 0
175 196 0
180 202 0
180 202 0
177 198 0
177 201 0
181 203 0
180 203 0
180 201 0
178 199 0
178 200 0
176 199 0
179 201 0
178 200 0
178 200 0
177 199 0
181 203 0
180 201 0
181 202 0
182 203 0
177 199 0
183 204 0
180 201 0
179 201 0
178 199 0
178 200 0
179 201 0
179 202 0
178 199 0
180 202 0
178 200 0
182 203 0
178 200 0
179 201 0
177 201 0
179 202 0
178 201 0
179 201 0
179 201 0
182 203 0
178 201 0
178 200 0
179 201 0
183 204 0
182 203 0
178 201 0
181 202 0
182 203 0
179 201 0
181 203 0
179 201 0
181 203 0
180 202 0
177 199 0
184 204 0
181 203 0
181 203 0
180 202 0
179 201 0
182 203 0
182 204 0
181 203 0
180 201 0
179 201 0
179 200 0
179 202 0
181 202 0
176 199 0
181 203 0
181 203 0
182 202 0
181 203 0
175 199 0
181 203 0
181 202 0
181 203 0
179 201 0
184 205 0
180 203 0
180 202 0
182 203 0
180 203 0
182 203 0
182 204 0
183 204 0
180 202 0
181 203 0
179 201 0
182 204 0
179 201 0
182 204 0
182 204 0
181 203 0
183 204 0
177 199 0
184 205 0
180 203 0
182 203 0
181 203 0
178 201 0
181 203 0
178 201 0
183 204 0
179 202 0
176 198 0
183 204 0
179 201 0
180 202 0
182 204 0
181 203 0
181 203 0
182 204 0
181 203 0
183 204 0
183 204 0
179 202 0
182 203 0
182 204 0
181 203 0
179 200 0
181 203 0
181 203 0
182 204 0
182 204 0
180 203 0
180 202 0
182 204 0
181 203 0
184 204 0
180 203 0
182 204 0
184 205 0
180 203 0
181 203 0
182 204 0
181 203 0
181 203 0
183 204 0
181 203 0
182 204 0
179 201 0
181 203 0
182 204 0
182 204 0
181 203 0
182 204 0
181 203 0
179 201 0
179 202 0
184 205 0
182 203 0
179 202 0
181 203 0
183 204 0
183 203 0
183 204 0
181 203 0
181 203 0
183 204 0
181 203 0
181 203 0
178 200 0
180 203 0
181 203 0
181 203 0
180 202 0
179 201 0
180 203 0
183 204 0
182 204 0
183 204 0
182 204 0
181 203 0
183 204 0
181 203 0
182 203 0
180 203 0
180 202 0
183 204 0
179 202 0
182 204 0
181 203 0
181 203 0
183 204 0
182 204 0
180 202 0
181 203 0
182 204 0
180 203 0
182 203 0
179 202 0
183 204 0
182 204 0
181 203 0
181 202 0
180 203 0
181 203 0
181 203 0
182 204 0
181 203 0
181 203 0
181 203 0
182 204 0
182 204 0
180 202 0
181 203 0
179 201 0
182 203 0
181 203 0
182 204 0
181 203 0
179 202 0
182 204 0
179 202 0
181 203 0
182 204 0
180 203 0
181 203 0
180 202 0
183 204 0
182 204 0
181 202 0
178 202 0
179 202 0
183 204 0
181 203 0
183 204 0
183 204 0
181 202 0
182 203 0
182 203 0
182 204 0
182 204 0
180 202 0
183 204 0
182 204 0
182 204 0
181 203 0
179 202 0
180 202 0
180 202 0
179 201 0
180 203 0
183 204 0
181 203 0
179 201 0
182 204 0
182 204 0
182 204 0
183 204 0
183 204 0
180 202 0
181 203 0
182 204 0
182 204 0
181 203 0
181 203 0
180 202 0
181 203 0
181 203 0
179 202 0
177 199 0
180 202 0
179 202 0
181 203 0
182 203 0
181 203 0
181 203 0
181 203 0
181 201 0
179 201 0
180 202 0
183 204 0
179 201 0
179 201 0
182 204 0
181 203 0
180 202 0
180 202 0
178 200 0
181 203 0
182 204 0
181 203 0
181 203 0
180 203 0
185 205 0
183 204 0
183 204 0
182 204 0
179 201 0
180 202 0
180 202 0
179 201 0
181 203 0
183 204 0
183 204 0
177 199 0
180 202 0
180 202 0
180 201 0
182 204 0
180 202 0
178 200 0
183 204 0
182 203 0
182 204 0
180 201 0
181 202 0
182 203 0
183 204 0
177 199 0
175 197 0
180 202 0
179 200 0
179 201 0
179 200 0
180 201 0
183 204 0
183 204 0
181 203 0
179 201 0
180 201 0
178 199 0
179 201 0
184 205 0
183 204 0
181 202 0
182 204 0
179 200 0
179 200 0
177 199 0
179 201 0
176 198 0
181 202 0
176 198 0
180 202 0
180 202 0
180 202 0
174 197 0
174 196 0
182 203 0
181 203 0
179 201 0
182 203 0
181 202 0
181 203 0
180 201 0
174 196 0
180 202 0
182 203 0
179 201 0
178 199 0
180 202 0
177 198 0
178 200 0
183 203 0
181 202 0
181 203 0
177 199 0
182 203 0
178 200 0
176 198 0
181 203 0
177 199 0
179 201 0
179 200 0
180 202 0
179 201 0
178 201 0
181 202 0
181 203 0
178 200 0
179 201 0
180 201 0
177 199 0
179 201 0
184 205 0
179 201 0
182 203 0
179 201 0
179 201 0
176 197 0
176 198 0
178 200 0
177 200 0
182 203 0
178 201 0
181 203 0
176 197 0
179 201 0
175 197 0
181 203 0
179 201 0
176 198 0
180 202 0
180 202 0
175 198 0
178 199 0
173 195 0
180 202 0
179 200 0
173 195 0
175 198 0
181 203 0
177 199 0
179 201 0
179 201 0
179 201 0
179 200 0
180 203 0
179 201 0
175 197 0
178 200 0
181 202 0
179 202 0
178 201 0
180 202 0
181 202 0
180 201 0
181 203 0
180 202 0
175 196 0
180 202 0
177 200 0
178 200 0
180 202 0
177 199 0
181 203 0
183 204 0
176 199 0
178 200 0
180 203 0
180 202 0
182 203 0
181 203 0
180 201 0
180 201 0
180 202 0
181 202 0
182 204 0
180 202 0
182 204 0
183 204 0
177 200 0
180 202 0
179 202 0
178 201 0
179 202 0
179 201 0
179 202 0
179 201 0
179 200 0
176 198 0
180 202 0
181 202 0
179 201 0
179 200 0
181 202 0
181 203 0
182 203 0
181 203 0
182 204 0
181 202 0
182 204 0
182 204 0
182 204 0
181 203 0
179 201 0
184 205 0
180 203 0
183 204 0
182 204 0
182 204 0
182 203 0
182 203 0
180 203 0
179 201 0
181 203 0
181 203 0
181 202 0
182 203 0
182 203 0
184 205 0
179 201 0
180 202 0
183 204 0
182 203 0
183 204 0
183 204 0
181 203 0
183 204 0
184 205 0
181 202 0
181 203 0
179 201 0
181 202 0
181 202 0
180 202 0
181 203 0
179 201 0
180 203 0
182 203 0
179 201 0
179 201 0
182 204 0
181 202 0
182 203 0
179 201 0
182 204 0
181 203 0
179 201 0
181 202 0
181 203 0
180 202 0
182 204 0
182 204 0
179 201 0
182 204 0
181 203 0
182 204 0
181 203 0
178 201 0
179 201 0
182 204 0
179 202 0
184 205 0
182 204 0
183 204 0
180 202 0
183 204 0
179 201 0
183 204 0
183 204 0
181 203 0
184 205 0
182 204 0
183 204 0
180 202 0
183 204 0
181 203 0
180 202 0
180 202 0
182 204 0
184 204 0
182 203 0
178 200 0
181 203 0
181 203 0
182 204 0
183 204 0
182 204 0
180 202 0
179 201 0
179 201 0
180 203 0
181 203 0
181 203 0
180 203 0
182 204 0
182 204 0
183 204 0
180 202 0
178 201 0
181 203 0
181 202 0
181 203 0
183 204 0
184 205 0
182 204 0
185 205 0
181 203 0
182 204 0
182 204 0
180 202 0
184 205 0
181 203 0
182 204 0
182 204 0
182 203 0
182 204 0
183 204 0
176 198 0
181 203 0
183 204 0
184 205 0
178 200 0
180 202 0
180 203 0
180 203 0
179 201 0
180 202 0
182 204 0
181 202 0
179 201 0
181 203 0
180 202 0
178 201 0
181 203 0
181 203 0
181 203 0
183 204 0
181 203 0
180 203 0
182 204 0
182 204 0
183 204 0
181 203 0
180 202 0
179 201 0
177 200 0
178 201 0
181 203 0
183 204 0
178 200 0
181 202 0
180 203 0
179 202 0
182 204 0
182 204 0
180 203 0
178 200 0
182 203 0
183 204 0
184 205 0
181 203 0
181 203 0
181 203 0
178 200 0
182 204 0
181 202 0
181 203 0
183 204 0
180 202 0
180 202 0
183 204 0
182 204 0
182 204 0
182 204 0
182 204 0
180 203 0
183 204 0
182 204 0
182 204 0
178 201 0
183 203 0
183 204 0
182 204 0
182 204 0
181 203 0
181 202 0
183 204 0
181 203 0
182 204 0
181 202 0
181 203 0
182 204 0
183 204 0
181 203 0
180 203 0
182 203 0
181 203 0
180 202 0
180 202 0
182 204 0
181 203 0
182 204 0
183 204 0
181 203 0
182 203 0
183 204 0
177 200 0
182 203 0
182 204 0
182 204 0
181 203 0
183 204 0
178 201 0
181 203 0
181 203 0
182 204 0
179 201 0
179 201 0
182 204 0
180 202 0
182 203 0
180 202 0
180 203 0
183 204 0
181 203 0
178 201 0
181 203 0
179 201 0
180 202 0
176 198 0
180 202 0
178 200 0
180 201 0
179 202 0
182 204 0
180 202 0
180 202 0
181 202 0
181 203 0
179 202 0
178 199 0
182 204 0
182 203 0
181 203 0
176 199 0
183 204 0
177 199 0
181 203 0
181 202 0
181 202 0
180 201 0
182 203 0
183 204 0
177 200 0
177 198 0
181 203 0
179 201 0
183 204 0
181 203 0
182 203 0
178 200 0
182 204 0
180 202 0
181 202 0
180 202 0
177 199 0
178 200 0
183 203 0
182 203 0
174 196 0
181 202 0
183 204 0
177 198 0
180 203 0
175 196 0
180 202 0
181 202 0
179 201 0
181 203 0
181 202 0
181 203 0
180 202 0
183 204 0
180 202 0
180 201 0
178 201 0
178 201 0
176 197 0
180 202 0
182 203 0
178 200 0
181 203 0
181 202 0
180 202 0
180 202 0
181 202 0
180 202 0
181 202 0
181 202 0
180 202 0
180 202 0
176 198 0
176 198 0
182 203 0
180 202 0
176 198 0
178 199 0
178 199 0
180 202 0
179 200 0
180 202 0
182 203 0
180 200 0
179 201 0
178 200 0
181 203 0
177 198 0
177 199 0
177 200 0
176 198 0
177 199 0
177 199 0
180 202 0
177 199 0
179 202 0
181 202 0
178 200 0
178 201 0
177 200 0
178 200 0
182 204 0
179 200 0
174 196 0
179 201 0
178 200 0
180 202 0
179 202 0
182 204 0
179 201 0
179 201 0
176 198 0
180 201 0
177 199 0
179 201 0
180 202 0
180 201 0
181 202 0
179 201 0
180 201 0
181 202 0
179 202 0
183 204 0
181 203 0
179 202 0
179 202 0
183 204 0
180 202 0
182 203 0
179 201 0
179 201 0
183 204 0
182 204 0
176 198 0
179 201 0
181 203 0
180 203 0
180 202 0
176 198 0
180 202 0
177 200 0
181 202 0
177 199 0
179 200 0
181 203 0
181 203 0
181 203 0
177 200 0
183 204 0
180 201 0
179 201 0
177 199 0
180 203 0
178 200 0
177 200 0
180 201 0
177 200 0
182 203 0
182 203 0
181 202 0
180 202 0
177 200 0
179 201 0
183 204 0
179 201 0
178 200 0
183 204 0
181 203 0
178 200 0
180 201 0
183 204 0
178 201 0
180 202 0
179 201 0
182 204 0
180 201 0
179 202 0
179 201 0
182 204 0
181 203 0
179 201 0
180 202 0
183 204 0
181 203 0
181 203 0
180 202 0
179 201 0
178 199 0
177 200 0
180 203 0
180 202 0
177 199 0
181 203 0
178 201 0
182 204 0
178 201 0
179 201 0
182 204 0
182 204 0
183 204 0
181 203 0
181 203 0
181 203 0
183 204 0
178 200 0
180 202 0
182 204 0
183 204 0
181 202 0
180 202 0
180 201 0
181 203 0
179 202 0
176 198 0
181 203 0
178 201 0
183 204 0
182 203 0
181 202 0
178 202 0
182 204 0
184 205 0
179 201 0
183 204 0
181 203 0
181 202 0
181 203 0
182 204 0
180 203 0
180 203 0
183 204 0
183 204 0
181 203 0
183 204 0
181 203 0
183 204 0
181 203 0
181 203 0
180 202 0
182 203 0
182 204 0
181 203 0
183 204 0
181 203 0
178 201 0
179 202 0
183 204 0
182 204 0
183 204 0
180 202 0
177 200 0
182 204 0
176 200 0
183 204 0
182 204 0
180 203 0
183 204 0
183 204 0
181 203 0
180 202 0
180 202 0
182 204 0
183 204 0
181 203 0
182 204 0
184 205 0
181 203 0
179 202 0
182 203 0
181 203 0
180 201 0
184 205 0
183 204 0
182 204 0
182 203 0
181 203 0
186 206 0
181 203 0
181 203 0
182 203 0
183 204 0
182 204 0
181 203 0
182 204 0
182 204 0
182 204 0
180 203 0
183 204 0
183 204 0
180 203 0
182 204 0
184 205 0
183 204 0
184 205 0
180 203 0
182 204 0
183 204 0
182 203 0
182 203 0
182 204 0
181 203 0
180 203 0
182 204 0
183 204 0
179 202 0
183 204 0
181 203 0
181 203 0
182 204 0
182 204 0
181 203 0
183 204 0
184 205 0
181 202 0
180 202 0
179 202 0
182 204 0
183 204 0
182 204 0
181 203 0
182 204 0
181 203 0
180 202 0
182 204 0
179 202 0
182 204 0
181 203 0
179 202 0
183 204 0
182 204 0
182 204 0
180 202 0
180 203 0
181 203 0
182 204 0
181 203 0
180 202 0
181 203 0
181 203 0
178 201 0
178 200 0
181 202 0
182 203 0
180 202 0
180 202 0
181 203 0
183 204 0
179 201 0
179 201 0
179 201 0
183 204 0
181 203 0
180 202 0
182 204 0
177 199 0
184 205 0
181 203 0
179 202 0
181 202 0
181 202 0
179 202 0
182 204 0
183 204 0
181 203 0
181 202 0
181 203 0
184 205 0
181 203 0
182 204 0
181 203 0
181 203 0
181 203 0
181 202 0
181 202 0
182 203 0
179 201 0
182 204 0
182 204 0
180 202 0
182 204 0
181 202 0
181 203 0
182 203 0
179 202 0
183 204 0
179 201 0
181 203 0
179 201 0
180 202 0
182 204 0
180 202 0
181 202 0
181 203 0
182 204 0
181 202 0
178 199 0
176 199 0
179 200 0
182 204 0
181 203 0
183 204 0
178 200 0
182 204 0
179 200 0
182 203 0
181 202 0
180 202 0
178 199 0
182 203 0
182 204 0
177 199 0
180 202 0
179 202 0
183 204 0
180 201 0
179 201 0
179 201 0
178 200 0
185 205 0
183 204 0
181 203 0
182 203 0
180 202 0
182 203 0
183 204 0
183 203 0
180 201 0
181 202 0
182 203 0
181 203 0
179 200 0
184 205 0
183 204 0
183 204 0
181 202 0
180 201 0
177 200 0
178 199 0
180 201 0
182 203 0
184 205 0
176 199 0
183 204 0
181 203 0
179 201 0
181 202 0
179 201 0
181 203 0
181 203 0
179 202 0
181 202 0
185 205 0
183 204 0
178 200 0
183 204 0
182 203 0
181 203 0
180 203 0
180 202 0
181 202 0
177 199 0
181 203 0
180 202 0
182 204 0
181 202 0
181 202 0
180 203 0
174 197 0
184 205 0
177 198 0
178 199 0
176 198 0
181 202 0
179 201 0
176 198 0
180 201 0
177 199 0
175 197 0
182 203 0
179 200 0
179 201 0
179 200 0
173 196 0
178 200 0
175 197 0
181 202 0
178 200 0
183 204 0
179 201 0
179 201 0
177 200 0
180 201 0
178 201 0
176 198 0
178 201 0
177 198 0
180 201 0
177 200 0
182 203 0
181 201 0
182 203 0
179 200 0
179 201 0
176 199 0
181 203 0
179 201 0
181 203 0
176 199 0
175 197 0
178 200 0
180 202 0
181 203 0
181 202 0
179 200 0
176 197 0
178 200 0
177 200 0
179 202 0
178 201 0
182 203 0
181 203 0
180 200 0
181 203 0
178 200 0
180 201 0
177 199 0
178 200 0
183 204 0
178 200 0
182 204 0
180 203 0
181 203 0
180 203 0
180 201 0
183 204 0
183 204 0
180 203 0
178 200 0
178 200 0
178 200 0
177 199 0
179 201 0
182 204 0
183 204 0
180 203 0
179 201 0
179 202 0
178 200 0
177 200 0
183 204 0
181 202 0
182 204 0
178 200 0
179 201 0
182 204 0
175 198 0
182 204 0
181 202 0
184 205 0
177 200 0
182 203 0
183 204 0
176 199 0
179 201 0
178 200 0
178 200 0
180 202 0
181 202 0
178 200 0
182 204 0
181 203 0
180 202 0
178 201 0
178 201 0
179 201 0
177 199 0
178 200 0
183 204 0
181 201 0
182 203 0
176 198 0
180 202 0
180 202 0
184 205 0
181 202 0
178 202 0
183 204 0
182 203 0
183 204 0
177 200 0
180 202 0
181 202 0
181 203 0
182 203 0
182 203 0
181 202 0
181 203 0
178 200 0
179 202 0
183 204 0
180 202 0
179 201 0
184 205 0
181 202 0
177 201 0
177 199 0
181 203 0
180 202 0
180 202 0
181 203 0
180 203 0
180 202 0
180 202 0
179 202 0
181 203 0
180 202 0
182 204 0
181 203 0
180 202 0
180 202 0
184 205 0
181 203 0
181 203 0
184 205 0
181 203 0
179 201 0
183 203 0
181 203 0
182 204 0
183 203 0
181 203 0
183 204 0
182 204 0
183 204 0
180 202 0
180 202 0
181 203 0
180 203 0
180 202 0
182 204 0
183 204 0
179 201 0
179 202 0
181 203 0
181 203 0
182 204 0
182 204 0
184 205 0
182 204 0
181 203 0
181 203 0
182 204 0
184 205 0
184 204 0
183 204 0
182 204 0
181 203 0
183 204 0
183 204 0
181 203 0
181 203 0
182 204 0
184 205 0
181 203 0
182 204 0
182 204 0
181 203 0
183 204 0
181 203 0
182 204 0
179 202 0
180 202 0
182 203 0
181 202 0
181 203 0
182 204 0
183 204 0
180 203 0
181 202 0
181 203 0
180 202 0
181 203 0
181 203 0
182 203 0
184 205 0
183 204 0
181 203 0
180 202 0
181 202 0
181 203 0
183 204 0
181 203 0
179 202 0
182 203 0
182 203 0
183 204 0
181 203 0
181 203 0
181 203 0
177 200 0
181 203 0
182 204 0
181 203 0
181 203 0
179 201 0
183 203 0
182 204 0
181 203 0
183 204 0
184 205 0
182 204 0
182 204 0
179 202 0
180 202 0
183 204 0
184 205 0
183 204 0
183 204 0
182 203 0
182 204 0
180 202 0
179 201 0
182 204 0
180 202 0
183 204 0
180 203 0
182 204 0
182 204 0
182 204 0
181 202 0
182 203 0
180 202 0
181 203 0
180 202 0
180 202 0
182 204 0
180 203 0
181 202 0
181 203 0
181 201 0
180 203 0
179 202 0
183 204 0
179 201 0
181 203 0
184 205 0
183 204 0
180 203 0
181 203 0
181 203 0
180 203 0
180 203 0
184 205 0
182 204 0
182 204 0
181 203 0
178 200 0
181 203 0
180 202 0
182 204 0
182 203 0
182 203 0
184 205 0
184 205 0
182 204 0
178 200 0
177 199 0
183 204 0
180 203 0
182 203 0
180 202 0
181 203 0
182 204 0
183 204 0
181 203 0
182 203 0
179 202 0
182 203 0
183 204 0
181 202 0
181 203 0
182 203 0
181 202 0
184 205 0
181 202 0
181 203 0
179 202 0
180 202 0
180 203 0
182 204 0
180 203 0
180 202 0
182 204 0
183 204 0
182 204 0
182 204 0
183 204 0
180 202 0
181 202 0
178 200 0
180 202 0
181 203 0
180 202 0
182 203 0
180 202 0
180 203 0
183 204 0
180 201 0
179 201 0
183 204 0
180 203 0
180 202 0
182 203 0
180 203 0
177 199 0
183 204 0
182 203 0
181 203 0
179 201 0
181 202 0
180 202 0
180 201 0
180 201 0
179 201 0
179 201 0
181 203 0
179 201 0
182 203 0
183 204 0
179 202 0
180 203 0
181 201 0
182 204 0
180 202 0
184 205 0
180 202 0
180 201 0
181 203 0
182 203 0
180 202 0
179 201 0
179 201 0
181 203 0
183 204 0
183 204 0
176 198 0
180 203 0
181 202 0
178 200 0
182 203 0
178 199 0
183 204 0
181 203 0
183 204 0
179 200 0
182 203 0
183 204 0
180 202 0
177 199 0
181 202 0
180 202 0
181 203 0
180 202 0
179 200 0
183 204 0
182 203 0
178 199 0
178 200 0
179 201 0
181 203 0
174 197 0
180 202 0
178 200 0
182 203 0
179 200 0
178 200 0
183 204 0
176 198 0
180 202 0
174 196 0
179 200 0
179 201 0
179 201 0
178 201 0
177 199 0
177 199 0
180 202 0
181 202 0
177 199 0
178 200 0
177 199 0
180 201 0
179 202 0
183 203 0
180 202 0
183 204 0
177 199 0
178 200 0
177 199 0
182 204 0
177 200 0
179 202 0
182 204 0
180 202 0
180 202 0
180 202 0
177 199 0
178 201 0
178 199 0
178 200 0
175 198 0
178 200 0
179 201 0
177 200 0
179 202 0
179 201 0
177 200 0
181 203 0
178 200 0
180 202 0
178 200 0
176 198 0
179 202 0
179 201 0
182 204 0
182 204 0
180 202 0
177 200 0
174 196 0
177 199 0
182 203 0
181 202 0
180 202 0
181 203 0
182 204 0
181 203 0
182 204 0
180 202 0
178 201 0
182 203 0
177 200 0
178 199 0
181 202 0
181 202 0
178 201 0
180 202 0
176 199 0
182 203 0
183 204 0
181 202 0
182 203 0
180 203 0
184 205 0
178 200 0
179 201 0
177 200 0
181 203 0
179 202 0
183 203 0
180 202 0
181 202 0
181 203 0
181 203 0
180 202 0
181 202 0
182 204 0
178 200 0
176 198 0
181 202 0
181 203 0
176 198 0
179 201 0
175 198 0
180 202 0
182 203 0
181 203 0
182 203 0
180 202 0
180 201 0
179 202 0
182 203 0
181 203 0
182 203 0
182 204 0
183 204 0
180 203 0
181 203 0
182 204 0
182 203 0
182 204 0
181 203 0
182 203 0
184 205 0
182 204 0
181 202 0
179 202 0
178 200 0
181 203 0
185 205 0
180 203 0
183 203 0
181 202 0
178 200 0
180 202 0
179 201 0
179 201 0
181 202 0
181 203 0
181 203 0
184 204 0
182 203 0
181 203 0
181 202 0
180 202 0
181 203 0
181 203 0
182 204 0
185 205 0
183 204 0
181 203 0
182 204 0
181 203 0
181 203 0
180 202 0
180 203 0
181 203 0
183 204 0
182 204 0
183 204 0
182 204 0
180 202 0
182 204 0
181 203 0
179 201 0
182 204 0
182 204 0
182 204 0
181 203 0
180 203 0
183 204 0
181 203 0
180 203 0
180 203 0
180 202 0
178 200 0
183 204 0
182 204 0
182 204 0
182 204 0
180 202 0
182 204 0
180 203 0
184 205 0
182 204 0
182 204 0
183 204 0
179 201 0
181 203 0
181 202 0
182 204 0
182 204 0
183 204 0
182 203 0
181 203 0
183 204 0
182 203 0
181 203 0
180 202 0
182 203 0
181 203 0
183 204 0
179 201 0
182 204 0
181 203 0
181 203 0
184 205 0
182 204 0
182 203 0
184 204 0
181 203 0
182 203 0
181 203 0
183 204 0
182 204 0
